( pcb2gcode 2.0.0 )
( Software-independent Gcode )

G94 ( Millimeters per minute feed rate. )
G21 ( Units == Millimeters. )

G90 ( Absolute coordinates. )
G00 S1000 ( RPM spindle speed. )
G01 F500.00000 ( Feedrate. )


G00 Z5.00000 (Retract to tool change height)
T0
M5      (Spindle stop.)
G04 P1.00000 (Wait for spindle to stop)
(MSG, Change tool bit to mill diameter 0.20000mm)
M6      (Tool change.)
M0      (Temporary machine stop.)
M3 ( Spindle on clockwise. )
G04 P1.00000 (Wait for spindle to get up to speed)
G04 P0 ( dwell for no time -- G64 should not smooth over this point )
G00 Z2.00000 ( retract )

G00 X-1.14949 Y55.19815 ( rapid move to begin. )
G01 F250.00000
G01 Z-0.20000
G04 P0 ( dwell for no time -- G64 should not smooth over this point )
G01 F500.00000
G01 X-1.14949 Y55.19815
G01 X-1.32836 Y55.44067
G01 X-1.58772 Y55.72436
G01 X-1.86003 Y55.96747
G01 X-2.10979 Y56.14951
G04 P0 ( dwell for no time -- G64 should not smooth over this point )
G00 Z2.00000 ( retract )

G00 X-7.18751 Y56.14951 ( rapid move to begin. )
G01 F250.00000
G01 Z-0.20000
G04 P0 ( dwell for no time -- G64 should not smooth over this point )
G01 F500.00000
G01 X-7.18751 Y56.14951
G01 X-7.31351 Y56.04984
G01 X-7.39683 Y55.94831
G01 X-7.51273 Y55.75169
G01 X-7.53764 Y55.66952
G01 X-9.01440 Y55.66805
G01 X-9.37089 Y56.01999
G01 X-9.54744 Y56.14951
G04 P0 ( dwell for no time -- G64 should not smooth over this point )
G00 Z2.00000 ( retract )

G00 X-9.23121 Y56.14951 ( rapid move to begin. )
G01 F250.00000
G01 Z-0.20000
G04 P0 ( dwell for no time -- G64 should not smooth over this point )
G01 F500.00000
G01 X-9.23121 Y56.14951
G01 X-8.95847 Y56.14951
G01 X-8.85844 Y56.04951
G01 X-7.78235 Y56.04951
G01 X-7.71941 Y56.14951
G01 X-7.47633 Y56.14951
G04 P0 ( dwell for no time -- G64 should not smooth over this point )
G00 Z2.00000 ( retract )

G00 X-9.09281 Y52.70819 ( rapid move to begin. )
G01 F250.00000
G01 Z-0.20000
G04 P0 ( dwell for no time -- G64 should not smooth over this point )
G01 F500.00000
G01 X-9.09281 Y52.70819
G01 X-9.40261 Y52.77690
G01 X-9.39113 Y52.76897
G01 X-9.47325 Y52.82574
G01 X-9.55656 Y52.92729
G01 X-9.63144 Y53.08584
G01 X-9.74412 Y53.14288
G01 X-9.92908 Y53.27804
G01 X-10.63411 Y53.97852
G01 X-18.94778 Y53.97849
G01 X-18.77613 Y53.91746
G01 X-18.53849 Y53.78883
G04 P0 ( dwell for no time -- G64 should not smooth over this point )
G00 Z2.00000 ( retract )

G00 X-18.53805 Y53.78860 ( rapid move to begin. )
G01 F250.00000
G01 Z-0.20000
G04 P0 ( dwell for no time -- G64 should not smooth over this point )
G01 F500.00000
G01 X-18.53805 Y53.78860
G01 X-18.53783 Y53.78850
G04 P0 ( dwell for no time -- G64 should not smooth over this point )
G00 Z2.00000 ( retract )

G00 X-18.45949 Y53.74608 ( rapid move to begin. )
G01 F250.00000
G01 Z-0.20000
G04 P0 ( dwell for no time -- G64 should not smooth over this point )
G01 F500.00000
G01 X-18.45949 Y53.74608
G01 X-18.26135 Y53.59851
G01 X-10.79151 Y53.59851
G01 X-10.24803 Y53.05503
G01 X-9.80952 Y52.96252
G04 P0 ( dwell for no time -- G64 should not smooth over this point )
G00 Z2.00000 ( retract )

G00 X-9.77790 Y52.95584 ( rapid move to begin. )
G01 F250.00000
G01 Z-0.20000
G04 P0 ( dwell for no time -- G64 should not smooth over this point )
G01 F500.00000
G01 X-9.77790 Y52.95584
G01 X-9.79540 Y52.95581
G01 X-9.41356 Y52.77933
G01 X-9.85270 Y52.76668
G01 X-9.98153 Y52.74106
G01 X-10.19667 Y52.66234
G01 X-10.39232 Y52.54316
G01 X-10.51681 Y52.43682
G01 X-11.67411 Y51.27951
G01 X-19.15157 Y51.27954
G01 X-18.80420 Y51.37908
G01 X-18.57112 Y51.49978
G01 X-18.76924 Y51.39717
G01 X-18.61880 Y51.46951
G01 X-11.75282 Y51.46951
G01 X-10.65115 Y52.57118
G01 X-10.51285 Y52.69003
G01 X-10.28623 Y52.82991
G01 X-10.13048 Y52.89442
G01 X-9.87132 Y52.95576
G01 X-9.79540 Y52.95581
G01 X-9.97386 Y53.06900
G01 X-10.11216 Y53.18784
G01 X-10.71282 Y53.78850
G01 X-18.53783 Y53.78850
G01 X-18.49866 Y53.72973
G01 X-18.41984 Y53.49630
G01 X-18.39950 Y53.28952
G01 X-18.39950 Y52.08952
G01 X-18.41984 Y51.88271
G01 X-18.49866 Y51.64929
G01 X-18.57814 Y51.50060
G01 X-18.80420 Y51.37908
G01 X-18.77255 Y51.39608
G01 X-18.94537 Y51.33908
G01 X-18.80420 Y51.37908
G04 P0 ( dwell for no time -- G64 should not smooth over this point )
G00 Z2.00000 ( retract )

G00 X-19.15157 Y51.27954 ( rapid move to begin. )
G01 F250.00000
G01 Z-0.20000
G04 P0 ( dwell for no time -- G64 should not smooth over this point )
G01 F500.00000
G01 X-19.15157 Y51.27954
G01 X-18.94537 Y51.33908
G01 X-19.08702 Y51.29237
G01 X-19.26810 Y51.26727
G01 X-19.16508 Y51.27685
G01 X-19.43368 Y51.25191
G01 X-19.37712 Y51.25218
G04 P0 ( dwell for no time -- G64 should not smooth over this point )
G00 Z2.00000 ( retract )

G00 X-19.45949 Y51.24952 ( rapid move to begin. )
G01 F250.00000
G01 Z-0.20000
G04 P0 ( dwell for no time -- G64 should not smooth over this point )
G01 F500.00000
G01 X-19.45949 Y51.24952
G01 X-19.43368 Y51.25191
G01 X-19.93162 Y51.24952
G01 X-20.40414 Y51.37784
G01 X-20.75141 Y51.41472
G01 X-19.45949 Y51.40951
G01 X-19.32683 Y51.42257
G01 X-19.23678 Y51.44990
G01 X-19.08169 Y51.52412
G01 X-18.89409 Y51.71172
G01 X-18.81987 Y51.86681
G01 X-18.79256 Y51.95686
G01 X-18.77948 Y52.08952
G01 X-18.96950 Y52.08952
G01 X-18.97890 Y51.99392
G01 X-19.05207 Y51.81728
G01 X-19.18725 Y51.68210
G01 X-19.30950 Y51.62544
G01 X-19.45949 Y51.59950
G01 X-21.65949 Y51.59950
G01 X-21.94828 Y51.63953
G01 X-22.19771 Y51.74286
G01 X-22.32811 Y51.82998
G01 X-22.48295 Y51.97695
G01 X-22.63294 Y52.20141
G01 X-22.70947 Y52.40070
G01 X-22.74005 Y52.55452
G01 X-22.74564 Y52.76793
G01 X-22.70947 Y52.97832
G01 X-22.60614 Y53.22775
G01 X-22.48295 Y53.40209
G01 X-22.32811 Y53.54906
G01 X-22.19771 Y53.63618
G01 X-22.00269 Y53.72299
G01 X-21.79449 Y53.77009
G01 X-21.65949 Y53.77951
G01 X-19.36388 Y53.77009
G01 X-19.23739 Y53.72373
G01 X-19.14331 Y53.66087
G01 X-19.05207 Y53.56173
G01 X-18.99541 Y53.43951
G01 X-18.96950 Y53.28952
G01 X-18.96950 Y52.08952
G01 X-19.15949 Y52.08952
G01 X-19.16526 Y53.34804
G01 X-19.21004 Y53.45619
G01 X-19.27765 Y53.52653
G01 X-19.40097 Y53.58375
G01 X-21.65949 Y53.58952
G01 X-21.93000 Y53.54746
G01 X-22.07488 Y53.48744
G01 X-22.22255 Y53.39107
G01 X-22.34861 Y53.26775
G01 X-22.44818 Y53.12218
G01 X-22.51742 Y52.96000
G01 X-22.55372 Y52.78744
G01 X-22.55372 Y52.59158
G01 X-22.51742 Y52.41901
G01 X-22.44818 Y52.25683
G01 X-22.34861 Y52.11129
G01 X-22.23772 Y52.00039
G01 X-22.07488 Y51.89158
G01 X-21.93000 Y51.83158
G01 X-21.75740 Y51.79529
G01 X-19.40097 Y51.79529
G01 X-19.29281 Y51.84007
G01 X-19.21004 Y51.92285
G01 X-19.16526 Y52.03097
G01 X-19.15949 Y52.08952
G04 P0 ( dwell for no time -- G64 should not smooth over this point )
G00 Z2.00000 ( retract )

G00 X-18.20948 Y52.08952 ( rapid move to begin. )
G01 F250.00000
G01 Z-0.20000
G04 P0 ( dwell for no time -- G64 should not smooth over this point )
G01 F500.00000
G01 X-18.20948 Y52.08952
G01 X-18.58949 Y52.08952
G01 X-18.60620 Y51.91977
G01 X-18.64433 Y51.79409
G01 X-18.73610 Y51.60616
G01 X-18.87460 Y51.44947
G01 X-18.97615 Y51.36613
G01 X-19.13729 Y51.28658
G01 X-19.43886 Y51.25188
G01 X-19.93162 Y51.24952
G01 X-20.32436 Y51.35617
G01 X-20.62649 Y51.40146
G01 X-20.46396 Y51.36687
G01 X-20.17734 Y51.23067
G01 X-19.99177 Y51.08952
G01 X-11.59542 Y51.08952
G01 X-10.38244 Y52.30247
G01 X-10.19354 Y52.44858
G01 X-10.02016 Y52.53080
G01 X-9.83408 Y52.57758
G01 X-9.04780 Y52.58952
G01 X-8.85662 Y52.73397
G01 X-8.70924 Y52.80974
G01 X-9.09281 Y52.70819
G01 X-9.39113 Y52.76897
G01 X-9.77790 Y52.95584
G01 X-10.24064 Y53.05345
G01 X-10.46225 Y52.95127
G01 X-10.70916 Y52.77474
G01 X-11.83151 Y51.65952
G01 X-18.29063 Y51.65952
G01 X-18.57112 Y51.49978
G01 X-18.28977 Y51.66021
G01 X-18.23351 Y51.84566
G01 X-18.20948 Y52.08952
G01 X-18.20948 Y53.28952
G01 X-18.25070 Y53.59005
G01 X-18.45949 Y53.74608
G01 X-18.81275 Y53.92868
G01 X-19.15540 Y54.03371
G01 X-19.43772 Y54.06648
G01 X-21.68903 Y54.06706
G01 X-22.00919 Y54.04603
G01 X-22.34391 Y53.98413
G01 X-22.68387 Y54.16851
G01 X-10.55542 Y54.16851
G01 X-9.80856 Y53.42493
G01 X-9.65453 Y53.31045
G01 X-9.47221 Y53.22551
G01 X-9.44295 Y53.11583
G01 X-9.39860 Y53.03285
G01 X-9.26616 Y52.90042
G01 X-9.18318 Y52.85604
G01 X-8.99949 Y52.81952
G01 X-8.69025 Y52.81952
G01 X-8.70924 Y52.80974
G01 X-8.44745 Y52.85495
G01 X-8.56805 Y52.84212
G01 X-8.50475 Y52.85386
G01 X-8.23833 Y52.87717
G01 X-8.28207 Y52.87253
G01 X-7.97188 Y52.87253
G01 X-8.14978 Y52.87253
G01 X-7.79418 Y52.85386
G01 X-7.75139 Y52.84522
G01 X-7.87193 Y52.85792
G01 X-7.59939 Y52.81459
G01 X-7.60869 Y52.81952
G01 X-7.43582 Y52.81952
G01 X-7.43025 Y52.72597
G01 X-7.22251 Y52.44197
G01 X-7.46807 Y52.78812
G01 X-7.59939 Y52.81459
G01 X-7.42924 Y52.72442
G01 X-7.22251 Y52.44197
G01 X-6.88659 Y52.10093
G04 P0 ( dwell for no time -- G64 should not smooth over this point )
G00 Z2.00000 ( retract )

G00 X-6.84031 Y51.65777 ( rapid move to begin. )
G01 F250.00000
G01 Z-0.20000
G04 P0 ( dwell for no time -- G64 should not smooth over this point )
G01 F500.00000
G01 X-6.84031 Y51.65777
G01 X-6.85908 Y52.12485
G01 X-6.92865 Y52.14362
G01 X-7.22251 Y52.44197
G01 X-6.93582 Y52.14700
G01 X-6.87186 Y51.95993
G01 X-6.88659 Y52.10093
G01 X-6.85004 Y51.75112
G01 X-6.85715 Y51.88914
G01 X-6.84971 Y51.83547
G01 X-6.85443 Y51.37690
G01 X-6.84521 Y51.70474
G01 X-6.84506 Y51.51558
G01 X-6.84031 Y51.65777
G01 X-6.84029 Y51.56128
G04 P0 ( dwell for no time -- G64 should not smooth over this point )
G00 Z2.00000 ( retract )

G00 X-7.00948 Y51.60951 ( rapid move to begin. )
G01 F250.00000
G01 Z-0.20000
G04 P0 ( dwell for no time -- G64 should not smooth over this point )
G01 F500.00000
G01 X-7.00948 Y51.60951
G01 X-7.02964 Y51.81655
G01 X-7.09716 Y52.04484
G01 X-7.22721 Y52.27959
G01 X-7.38667 Y52.45670
G01 X-7.60653 Y52.61055
G01 X-7.79721 Y52.69371
G01 X-8.06063 Y52.74487
G01 X-8.29863 Y52.73852
G01 X-8.50178 Y52.69371
G01 X-8.74496 Y52.58025
G01 X-8.91229 Y52.45670
G01 X-8.96591 Y52.39950
G01 X-9.71790 Y52.39811
G01 X-9.96502 Y52.34896
G01 X-10.10398 Y52.28101
G01 X-10.24810 Y52.16813
G01 X-11.51671 Y50.89951
G01 X-20.07374 Y50.89928
G01 X-20.13013 Y50.95955
G01 X-20.28903 Y51.07695
G01 X-20.49431 Y51.17530
G01 X-20.77587 Y51.23514
G01 X-21.00340 Y51.22879
G01 X-21.22466 Y51.17530
G01 X-21.40449 Y51.09349
G01 X-21.58885 Y50.95955
G01 X-21.75786 Y50.76473
G01 X-21.86614 Y50.56450
G01 X-21.93043 Y50.34617
G01 X-21.94948 Y50.14952
G01 X-21.93043 Y49.95287
G01 X-21.84148 Y49.67911
G01 X-21.72222 Y49.48523
G01 X-21.58885 Y49.33949
G01 X-21.40449 Y49.20555
G01 X-21.22466 Y49.12374
G01 X-20.94310 Y49.06390
G01 X-20.71557 Y49.07022
G01 X-20.49431 Y49.12374
G01 X-20.31448 Y49.20555
G01 X-20.14674 Y49.32603
G01 X-11.18948 Y49.31952
G01 X-11.06352 Y49.33052
G01 X-10.86144 Y49.39181
G01 X-10.65196 Y49.53179
G01 X-9.36225 Y50.81952
G01 X-8.96591 Y50.81952
G01 X-8.88870 Y50.74322
G01 X-8.69243 Y50.60847
G01 X-8.50178 Y50.52531
G01 X-8.29863 Y50.48051
G01 X-8.00036 Y50.48051
G01 X-7.79721 Y50.52531
G01 X-7.60653 Y50.60847
G01 X-7.38667 Y50.76232
G01 X-7.21067 Y50.96489
G01 X-7.09716 Y51.17418
G01 X-7.04227 Y51.34317
G01 X-7.00948 Y51.60951
G01 X-7.19949 Y51.60951
G01 X-7.21862 Y51.79668
G01 X-7.27788 Y51.98614
G01 X-7.38093 Y52.16791
G01 X-7.50640 Y52.30809
G01 X-7.66571 Y52.42653
G01 X-7.85593 Y52.51302
G01 X-8.03985 Y52.55266
G01 X-8.23833 Y52.55485
G01 X-8.44305 Y52.51302
G01 X-8.61516 Y52.43699
G01 X-8.77704 Y52.32208
G01 X-8.88133 Y52.20951
G01 X-9.69929 Y52.20903
G01 X-9.90985 Y52.16714
G01 X-10.01442 Y52.11345
G01 X-10.11376 Y52.03377
G01 X-11.43802 Y50.70951
G01 X-20.15128 Y50.70146
G01 X-20.26541 Y50.82493
G01 X-20.40071 Y50.92323
G01 X-20.57160 Y51.00172
G01 X-20.75507 Y51.04294
G01 X-20.94310 Y51.04512
G01 X-21.14737 Y51.00172
G01 X-21.31826 Y50.92323
G01 X-21.46911 Y50.81094
G01 X-21.59329 Y50.66974
G01 X-21.68168 Y50.51558
G01 X-21.73711 Y50.34675
G01 X-21.75895 Y50.15996
G01 X-21.73711 Y49.95229
G01 X-21.68168 Y49.78345
G01 X-21.58102 Y49.61236
G01 X-21.45357 Y49.47408
G01 X-21.30015 Y49.36535
G01 X-21.13759 Y49.29357
G01 X-20.94310 Y49.25389
G01 X-20.75507 Y49.25607
G01 X-20.58138 Y49.29357
G01 X-20.40071 Y49.37578
G01 X-20.21362 Y49.52834
G01 X-20.06950 Y49.50952
G01 X-11.08214 Y49.51960
G01 X-10.95100 Y49.55938
G01 X-10.77249 Y49.67865
G01 X-9.44097 Y51.00951
G01 X-8.88133 Y51.00951
G01 X-8.77704 Y50.89694
G01 X-8.61516 Y50.78203
G01 X-8.44305 Y50.70601
G01 X-8.25913 Y50.66636
G01 X-8.06063 Y50.66417
G01 X-7.86604 Y50.70329
G01 X-7.66571 Y50.79250
G01 X-7.50640 Y50.91094
G01 X-7.38093 Y51.05112
G01 X-7.28636 Y51.21378
G01 X-7.22296 Y51.40189
G01 X-7.19949 Y51.60951
G04 P0 ( dwell for no time -- G64 should not smooth over this point )
G00 Z2.00000 ( retract )

G00 X-7.75746 Y50.33954 ( rapid move to begin. )
G01 F250.00000
G01 Z-0.20000
G04 P0 ( dwell for no time -- G64 should not smooth over this point )
G01 F500.00000
G01 X-7.75746 Y50.33954
G01 X-8.14920 Y50.33951
G01 X-7.75743 Y50.33951
G04 P0 ( dwell for no time -- G64 should not smooth over this point )
G00 Z2.00000 ( retract )

G00 X-7.31941 Y50.33954 ( rapid move to begin. )
G01 F250.00000
G01 Z-0.20000
G04 P0 ( dwell for no time -- G64 should not smooth over this point )
G01 F500.00000
G01 X-7.31941 Y50.33954
G01 X-7.14814 Y50.33951
G01 X-7.05560 Y50.56021
G01 X-7.14814 Y50.33951
G01 X-6.99939 Y49.98549
G01 X-6.88738 Y49.57304
G01 X-6.99939 Y49.98549
G01 X-7.04725 Y50.10997
G01 X-7.04765 Y50.56857
G01 X-7.05560 Y50.56021
G01 X-6.95875 Y50.81947
G01 X-6.97508 Y50.77807
G01 X-6.91123 Y50.99722
G01 X-6.92761 Y50.94573
G01 X-6.85997 Y51.28393
G01 X-6.94052 Y50.90514
G01 X-7.06485 Y50.55056
G01 X-7.13241 Y50.47992
G01 X-7.31941 Y50.33954
G01 X-7.75740 Y50.33951
G01 X-7.44234 Y50.19397
G01 X-7.25954 Y50.05790
G01 X-7.07348 Y49.85127
G01 X-6.95728 Y49.65524
G01 X-6.86155 Y49.39456
G01 X-6.84433 Y49.19595
G01 X-6.89825 Y49.61315
G01 X-6.98761 Y49.94210
G01 X-7.05558 Y50.11922
G01 X-7.31936 Y50.33951
G01 X-7.75746 Y50.33954
G01 X-7.52926 Y50.43489
G01 X-7.25954 Y50.62112
G01 X-7.04613 Y50.86989
G01 X-6.91646 Y51.11546
G01 X-6.87303 Y51.24906
G01 X-6.87696 Y51.21162
G01 X-6.84646 Y51.47416
G01 X-6.85835 Y51.29943
G01 X-6.85624 Y49.36695
G01 X-6.88738 Y49.57304
G04 P0 ( dwell for no time -- G64 should not smooth over this point )
G00 Z2.00000 ( retract )

G00 X-7.19949 Y49.06951 ( rapid move to begin. )
G01 F250.00000
G01 Z-0.20000
G04 P0 ( dwell for no time -- G64 should not smooth over this point )
G01 F500.00000
G01 X-7.19949 Y49.06951
G01 X-7.22296 Y49.27713
G01 X-7.28636 Y49.46524
G01 X-7.38093 Y49.62791
G01 X-7.50640 Y49.76809
G01 X-7.66571 Y49.88653
G01 X-7.85593 Y49.97302
G01 X-8.06063 Y50.01485
G01 X-8.25913 Y50.01266
G01 X-8.45283 Y49.96926
G01 X-8.63327 Y49.88653
G01 X-8.79256 Y49.76809
G01 X-8.92375 Y49.61914
G01 X-9.02111 Y49.44614
G01 X-9.07602 Y49.27713
G01 X-9.09949 Y49.06951
G01 X-9.07602 Y48.86189
G01 X-9.01260 Y48.67378
G01 X-8.91806 Y48.51112
G01 X-8.79256 Y48.37094
G01 X-8.61516 Y48.24203
G01 X-8.43294 Y48.16329
G01 X-8.25913 Y48.12636
G01 X-8.06063 Y48.12417
G01 X-7.84615 Y48.16977
G01 X-7.68382 Y48.24203
G01 X-7.52195 Y48.35694
G01 X-7.38093 Y48.51112
G01 X-7.27788 Y48.69288
G01 X-7.21862 Y48.88234
G01 X-7.19949 Y49.06951
G01 X-7.00948 Y49.06951
G01 X-7.04227 Y49.33586
G01 X-7.12182 Y49.56024
G01 X-7.22721 Y49.73959
G01 X-7.38667 Y49.91670
G01 X-7.55403 Y50.04025
G01 X-7.79721 Y50.15371
G01 X-8.00036 Y50.19852
G01 X-8.23833 Y50.20487
G01 X-8.53010 Y50.14284
G01 X-8.74496 Y50.04025
G01 X-8.93376 Y49.89524
G01 X-9.07178 Y49.73959
G01 X-9.20180 Y49.50484
G01 X-9.26931 Y49.27655
G01 X-9.28948 Y49.06951
G01 X-9.25672 Y48.80317
G01 X-9.17714 Y48.57878
G01 X-9.07178 Y48.39943
G01 X-8.91229 Y48.22232
G01 X-8.74496 Y48.09877
G01 X-8.50178 Y47.98531
G01 X-8.29863 Y47.94051
G01 X-8.06063 Y47.93416
G01 X-7.76886 Y47.99618
G01 X-7.55403 Y48.09877
G01 X-7.36520 Y48.24378
G01 X-7.22721 Y48.39943
G01 X-7.09716 Y48.63418
G01 X-7.02964 Y48.86248
G01 X-7.00948 Y49.06951
G04 P0 ( dwell for no time -- G64 should not smooth over this point )
G00 Z2.00000 ( retract )

G00 X-6.31496 Y48.57226 ( rapid move to begin. )
G01 F250.00000
G01 Z-0.20000
G04 P0 ( dwell for no time -- G64 should not smooth over this point )
G01 F500.00000
G01 X-6.31496 Y48.57226
G01 X-6.71534 Y48.74820
G01 X-6.31496 Y48.57226
G01 X-6.30437 Y48.56484
G01 X-6.35304 Y48.58656
G01 X-6.23379 Y48.51887
G01 X-6.22469 Y48.50970
G01 X-6.25995 Y48.53372
G01 X-6.16711 Y48.45163
G01 X-6.19170 Y48.48590
G04 P0 ( dwell for no time -- G64 should not smooth over this point )
G00 Z2.00000 ( retract )

G00 X-6.13026 Y48.41445 ( rapid move to begin. )
G01 F250.00000
G01 Z-0.20000
G04 P0 ( dwell for no time -- G64 should not smooth over this point )
G01 F500.00000
G01 X-6.13026 Y48.41445
G01 X-6.19170 Y48.48590
G01 X-6.04943 Y48.28752
G01 X-6.06625 Y48.31097
G01 X-6.01143 Y48.14350
G01 X-6.03432 Y48.23291
G01 X-6.01999 Y48.19786
G01 X-6.00313 Y48.09072
G01 X-6.04943 Y48.28752
G04 P0 ( dwell for no time -- G64 should not smooth over this point )
G00 Z2.00000 ( retract )

G00 X-2.39948 Y44.08951 ( rapid move to begin. )
G01 F250.00000
G01 Z-0.20000
G04 P0 ( dwell for no time -- G64 should not smooth over this point )
G01 F500.00000
G01 X-2.39948 Y44.08951
G01 X-2.69948 Y44.08951
G01 X-2.70710 Y44.62779
G01 X-2.74393 Y44.67267
G01 X-2.77997 Y44.68758
G01 X-3.04949 Y44.68951
G01 X-3.04949 Y44.98951
G01 X-2.71530 Y44.98504
G01 X-2.60580 Y44.94420
G01 X-2.51370 Y44.87526
G01 X-2.44482 Y44.78319
G01 X-2.39948 Y44.63200
G01 X-2.39948 Y44.08951
G04 P0 ( dwell for no time -- G64 should not smooth over this point )
G00 Z2.00000 ( retract )

G00 X-4.24949 Y44.68951 ( rapid move to begin. )
G01 F250.00000
G01 Z-0.20000
G04 P0 ( dwell for no time -- G64 should not smooth over this point )
G01 F500.00000
G01 X-4.24949 Y44.68951
G01 X-4.49950 Y44.68951
G01 X-4.57019 Y44.66022
G01 X-4.59950 Y44.58951
G01 X-4.59947 Y44.33952
G01 X-4.89950 Y44.33952
G01 X-4.89500 Y44.67371
G01 X-4.85416 Y44.78319
G01 X-4.78525 Y44.87526
G01 X-4.69315 Y44.94420
G01 X-4.54197 Y44.98951
G01 X-4.24949 Y44.98951
G01 X-4.24949 Y44.68951
G04 P0 ( dwell for no time -- G64 should not smooth over this point )
G00 Z2.00000 ( retract )

G00 X-5.99320 Y46.06535 ( rapid move to begin. )
G01 F250.00000
G01 Z-0.20000
G04 P0 ( dwell for no time -- G64 should not smooth over this point )
G01 F500.00000
G01 X-5.99320 Y46.06535
G01 X-6.00003 Y45.20094
G01 X-6.00018 Y46.10980
G01 X-5.99995 Y45.21255
G01 X-6.03333 Y45.01875
G01 X-6.00003 Y45.20094
G01 X-6.00033 Y45.16553
G01 X-6.03333 Y45.01875
G01 X-6.16221 Y44.81138
G01 X-6.14605 Y44.83736
G01 X-6.28050 Y44.72090
G01 X-6.22048 Y44.76612
G01 X-6.25126 Y44.73668
G01 X-6.45426 Y44.62736
G01 X-6.31402 Y44.69530
G01 X-6.45426 Y44.62736
G01 X-6.54506 Y44.61842
G01 X-6.57338 Y44.61824
G01 X-6.45426 Y44.62736
G01 X-7.20531 Y44.61478
G01 X-7.11072 Y44.61636
G01 X-7.41542 Y44.63874
G01 X-7.23053 Y44.61674
G01 X-7.27371 Y44.61689
G01 X-7.47600 Y44.64567
G01 X-7.41542 Y44.63874
G01 X-7.69751 Y44.71915
G01 X-7.47600 Y44.64567
G04 P0 ( dwell for no time -- G64 should not smooth over this point )
G00 Z2.00000 ( retract )

G00 X-7.71021 Y44.71951 ( rapid move to begin. )
G01 F250.00000
G01 Z-0.20000
G04 P0 ( dwell for no time -- G64 should not smooth over this point )
G01 F500.00000
G01 X-7.71021 Y44.71951
G01 X-7.67488 Y44.70836
G01 X-7.71298 Y44.72248
G01 X-8.59522 Y44.71951
G01 X-8.47747 Y44.76886
G01 X-8.24460 Y44.90953
G01 X-8.05944 Y44.90953
G01 X-7.95291 Y44.84092
G01 X-7.69751 Y44.71915
G01 X-7.74072 Y44.73147
G01 X-7.71435 Y44.72395
G01 X-7.79510 Y44.81052
G01 X-7.88336 Y44.97993
G01 X-7.91417 Y45.06883
G01 X-7.92941 Y45.22134
G01 X-8.06063 Y45.20417
G01 X-8.36645 Y45.22068
G01 X-8.39281 Y45.05009
G01 X-8.46449 Y44.87706
G01 X-8.57015 Y44.73381
G01 X-8.43073 Y44.79766
G01 X-8.16454 Y44.96187
G01 X-8.13576 Y44.96187
G01 X-7.95291 Y44.84092
G01 X-7.74072 Y44.73147
G04 P0 ( dwell for no time -- G64 should not smooth over this point )
G00 Z2.00000 ( retract )

G00 X-8.05898 Y44.90922 ( rapid move to begin. )
G01 F250.00000
G01 Z-0.20000
G04 P0 ( dwell for no time -- G64 should not smooth over this point )
G01 F500.00000
G01 X-8.05898 Y44.90922
G01 X-8.09535 Y45.01417
G01 X-8.20625 Y45.01417
G01 X-8.23619 Y44.91501
G01 X-8.47747 Y44.76886
G04 P0 ( dwell for no time -- G64 should not smooth over this point )
G00 Z2.00000 ( retract )

G00 X-8.59522 Y44.71951 ( rapid move to begin. )
G01 F250.00000
G01 Z-0.20000
G04 P0 ( dwell for no time -- G64 should not smooth over this point )
G01 F500.00000
G01 X-8.59522 Y44.71951
G01 X-8.57015 Y44.73381
G01 X-8.66777 Y44.68913
G01 X-8.59545 Y44.71941
G04 P0 ( dwell for no time -- G64 should not smooth over this point )
G00 Z2.00000 ( retract )

G00 X-8.66777 Y44.68913 ( rapid move to begin. )
G01 F250.00000
G01 Z-0.20000
G04 P0 ( dwell for no time -- G64 should not smooth over this point )
G01 F500.00000
G01 X-8.66777 Y44.68913
G01 X-8.62222 Y44.70998
G01 X-8.82441 Y44.65154
G01 X-8.76492 Y44.65967
G04 P0 ( dwell for no time -- G64 should not smooth over this point )
G00 Z2.00000 ( retract )

G00 X-8.92258 Y44.62799 ( rapid move to begin. )
G01 F250.00000
G01 Z-0.20000
G04 P0 ( dwell for no time -- G64 should not smooth over this point )
G01 F500.00000
G01 X-8.92258 Y44.62799
G01 X-8.82441 Y44.65154
G01 X-9.09365 Y44.61478
G01 X-9.01102 Y44.62606
G01 X-9.52837 Y44.61478
G01 X-9.09365 Y44.61478
G04 P0 ( dwell for no time -- G64 should not smooth over this point )
G00 Z2.00000 ( retract )

G00 X-6.88702 Y46.52870 ( rapid move to begin. )
G01 F250.00000
G01 Z-0.20000
G04 P0 ( dwell for no time -- G64 should not smooth over this point )
G01 F500.00000
G01 X-6.88702 Y46.52870
G01 X-7.01890 Y46.63434
G01 X-7.01905 Y46.42339
G01 X-6.88702 Y46.52870
G04 P0 ( dwell for no time -- G64 should not smooth over this point )
G00 Z2.00000 ( retract )

G00 X-6.01977 Y46.23403 ( rapid move to begin. )
G01 F250.00000
G01 Z-0.20000
G04 P0 ( dwell for no time -- G64 should not smooth over this point )
G01 F500.00000
G01 X-6.01977 Y46.23403
G01 X-6.00018 Y46.10980
G01 X-6.01977 Y46.23403
G01 X-6.13214 Y46.53121
G01 X-6.02960 Y46.79314
G01 X-5.99348 Y46.97294
G01 X-6.00333 Y48.11274
G01 X-5.99348 Y46.97294
G04 P0 ( dwell for no time -- G64 should not smooth over this point )
G00 Z2.00000 ( retract )

G00 X-6.79741 Y48.78483 ( rapid move to begin. )
G01 F250.00000
G01 Z-0.20000
G04 P0 ( dwell for no time -- G64 should not smooth over this point )
G01 F500.00000
G01 X-6.79741 Y48.78483
G01 X-6.37529 Y48.59918
G01 X-6.71136 Y48.74919
G01 X-6.81308 Y48.94000
G01 X-6.79741 Y48.78483
G01 X-6.71534 Y48.74820
G01 X-6.86503 Y48.71267
G01 X-6.79741 Y48.78483
G01 X-6.85624 Y49.36695
G01 X-6.81633 Y48.95064
G01 X-6.84433 Y49.19595
G01 X-6.82591 Y48.98328
G01 X-6.87364 Y48.70726
G01 X-6.89312 Y48.68270
G01 X-6.86503 Y48.71267
G01 X-7.21616 Y48.27584
G01 X-6.89312 Y48.68270
G01 X-7.21616 Y48.27584
G01 X-7.35283 Y48.13675
G01 X-7.69660 Y47.90858
G01 X-7.35283 Y48.13675
G04 P0 ( dwell for no time -- G64 should not smooth over this point )
G00 Z2.00000 ( retract )

G00 X-7.87503 Y47.79954 ( rapid move to begin. )
G01 F250.00000
G01 Z-0.20000
G04 P0 ( dwell for no time -- G64 should not smooth over this point )
G01 F500.00000
G01 X-7.87503 Y47.79954
G01 X-7.69660 Y47.90858
G01 X-7.87503 Y47.79954
G01 X-8.42393 Y47.79951
G01 X-8.79566 Y48.02664
G01 X-8.42393 Y47.79951
G04 P0 ( dwell for no time -- G64 should not smooth over this point )
G00 Z2.00000 ( retract )

G00 X-8.79566 Y48.02664 ( rapid move to begin. )
G01 F250.00000
G01 Z-0.20000
G04 P0 ( dwell for no time -- G64 should not smooth over this point )
G01 F500.00000
G01 X-8.79566 Y48.02664
G01 X-9.04272 Y48.23947
G01 X-9.13411 Y48.34759
G01 X-9.26291 Y48.56639
G01 X-9.34818 Y48.82981
G01 X-9.37130 Y49.01155
G01 X-9.38293 Y49.56204
G01 X-9.34170 Y49.65524
G01 X-9.19385 Y49.89031
G01 X-9.03942 Y50.05790
G01 X-8.76972 Y50.24413
G01 X-8.54143 Y50.33951
G04 P0 ( dwell for no time -- G64 should not smooth over this point )
G00 Z2.00000 ( retract )

G00 X-8.14920 Y50.33951 ( rapid move to begin. )
G01 F250.00000
G01 Z-0.20000
G04 P0 ( dwell for no time -- G64 should not smooth over this point )
G01 F500.00000
G01 X-8.14920 Y50.33951
G01 X-8.54145 Y50.33951
G01 X-8.76972 Y50.43489
G01 X-9.04780 Y50.62950
G01 X-9.28356 Y50.62950
G01 X-10.01386 Y49.89918
G01 X-9.89570 Y49.94759
G01 X-9.63495 Y50.00941
G01 X-9.20485 Y50.43951
G01 X-9.11666 Y50.43951
G01 X-8.97955 Y50.33951
G01 X-8.54145 Y50.33951
G04 P0 ( dwell for no time -- G64 should not smooth over this point )
G00 Z2.00000 ( retract )

G00 X-9.37953 Y49.53492 ( rapid move to begin. )
G01 F250.00000
G01 Z-0.20000
G04 P0 ( dwell for no time -- G64 should not smooth over this point )
G01 F500.00000
G01 X-9.37953 Y49.53492
G01 X-9.42382 Y49.62214
G01 X-9.55626 Y49.75458
G01 X-9.72001 Y49.85290
G01 X-9.98666 Y49.90652
G01 X-9.84310 Y49.95991
G01 X-9.61600 Y50.01155
G01 X-9.42425 Y49.89087
G04 P0 ( dwell for no time -- G64 should not smooth over this point )
G00 Z2.00000 ( retract )

G00 X-9.45283 Y50.04154 ( rapid move to begin. )
G01 F250.00000
G01 Z-0.20000
G04 P0 ( dwell for no time -- G64 should not smooth over this point )
G01 F500.00000
G01 X-9.45283 Y50.04154
G01 X-9.89570 Y49.94759
G04 P0 ( dwell for no time -- G64 should not smooth over this point )
G00 Z2.00000 ( retract )

G00 X-10.01386 Y49.89918 ( rapid move to begin. )
G01 F250.00000
G01 Z-0.20000
G04 P0 ( dwell for no time -- G64 should not smooth over this point )
G01 F500.00000
G01 X-10.01386 Y49.89918
G01 X-10.03967 Y49.88683
G01 X-9.98666 Y49.90652
G01 X-10.12674 Y49.84477
G01 X-10.01389 Y49.89918
G04 P0 ( dwell for no time -- G64 should not smooth over this point )
G00 Z2.00000 ( retract )

G00 X-10.08664 Y49.86938 ( rapid move to begin. )
G01 F250.00000
G01 Z-0.20000
G04 P0 ( dwell for no time -- G64 should not smooth over this point )
G01 F500.00000
G01 X-10.08664 Y49.86938
G01 X-10.31010 Y49.73243
G01 X-10.17620 Y49.82153
G04 P0 ( dwell for no time -- G64 should not smooth over this point )
G00 Z2.00000 ( retract )

G00 X-9.28278 Y48.60012 ( rapid move to begin. )
G01 F250.00000
G01 Z-0.20000
G04 P0 ( dwell for no time -- G64 should not smooth over this point )
G01 F500.00000
G01 X-9.28278 Y48.60012
G01 X-9.13759 Y48.35171
G01 X-9.28278 Y48.60012
G01 X-9.34226 Y48.78315
G01 X-9.37071 Y48.97340
G01 X-9.38318 Y49.56021
G01 X-9.45283 Y50.04154
G01 X-9.14966 Y50.33954
G01 X-8.97955 Y50.33951
G04 P0 ( dwell for no time -- G64 should not smooth over this point )
G00 Z2.00000 ( retract )

G00 X-8.97953 Y50.33951 ( rapid move to begin. )
G01 F250.00000
G01 Z-0.20000
G04 P0 ( dwell for no time -- G64 should not smooth over this point )
G01 F500.00000
G01 X-8.97953 Y50.33951
G01 X-9.21615 Y50.14949
G01 X-9.42441 Y49.89196
G01 X-9.37953 Y49.53492
G01 X-9.37368 Y49.03022
G01 X-9.34226 Y48.78315
G01 X-9.28278 Y48.60012
G01 X-9.19398 Y48.42946
G01 X-8.98405 Y48.17538
G01 X-9.13759 Y48.35171
G01 X-9.11676 Y48.31810
G04 P0 ( dwell for no time -- G64 should not smooth over this point )
G00 Z2.00000 ( retract )

G00 X-8.94557 Y48.13626 ( rapid move to begin. )
G01 F250.00000
G01 Z-0.20000
G04 P0 ( dwell for no time -- G64 should not smooth over this point )
G01 F500.00000
G01 X-8.94557 Y48.13626
G01 X-8.98405 Y48.17538
G01 X-8.79738 Y48.02776
G04 P0 ( dwell for no time -- G64 should not smooth over this point )
G00 Z2.00000 ( retract )

G00 X-10.31010 Y49.73243 ( rapid move to begin. )
G01 F250.00000
G01 Z-0.20000
G04 P0 ( dwell for no time -- G64 should not smooth over this point )
G01 F500.00000
G01 X-10.31010 Y49.73243
G01 X-10.62090 Y49.44381
G01 X-10.73169 Y49.36248
G01 X-10.88900 Y49.28770
G01 X-11.12080 Y49.23675
G01 X-18.86838 Y49.23428
G01 X-19.13762 Y49.19748
G01 X-18.86838 Y49.23428
G04 P0 ( dwell for no time -- G64 should not smooth over this point )
G00 Z2.00000 ( retract )

G00 X-19.19711 Y49.18937 ( rapid move to begin. )
G01 F250.00000
G01 Z-0.20000
G04 P0 ( dwell for no time -- G64 should not smooth over this point )
G01 F500.00000
G01 X-19.19711 Y49.18937
G01 X-19.13762 Y49.19748
G01 X-19.38779 Y49.12072
G01 X-19.25167 Y49.17012
G01 X-19.36683 Y49.12951
G01 X-20.09159 Y49.13067
G01 X-20.26426 Y49.01818
G01 X-20.51247 Y48.91917
G01 X-20.61750 Y48.89852
G01 X-20.34689 Y48.93565
G01 X-20.05418 Y49.00952
G01 X-19.66272 Y48.98135
G01 X-19.38779 Y49.12072
G01 X-19.49754 Y48.97198
G01 X-19.54191 Y48.88899
G01 X-19.57128 Y48.78859
G01 X-19.73361 Y48.84584
G01 X-20.05949 Y48.88950
G01 X-20.65621 Y48.88950
G01 X-20.40414 Y48.92123
G01 X-20.05418 Y49.00952
G04 P0 ( dwell for no time -- G64 should not smooth over this point )
G00 Z2.00000 ( retract )

G00 X-20.40414 Y48.92123 ( rapid move to begin. )
G01 F250.00000
G01 Z-0.20000
G04 P0 ( dwell for no time -- G64 should not smooth over this point )
G01 F500.00000
G01 X-20.40414 Y48.92123
G01 X-20.70251 Y48.88950
G01 X-20.64714 Y48.89270
G01 X-20.67661 Y48.88694
G01 X-20.66353 Y48.88950
G01 X-20.92413 Y48.88950
G01 X-20.72606 Y48.88595
G01 X-20.77587 Y48.88170
G01 X-20.73797 Y48.88572
G01 X-21.00422 Y48.88694
G01 X-20.85946 Y48.88333
G01 X-20.94308 Y48.88170
G01 X-21.04234 Y48.88694
G01 X-20.92413 Y48.88950
G01 X-21.08832 Y48.89811
G01 X-21.03419 Y48.88950
G01 X-21.68793 Y48.88950
G01 X-21.65631 Y48.97667
G01 X-21.63894 Y49.13337
G01 X-21.56540 Y48.97779
G01 X-21.25293 Y48.91343
G01 X-21.08832 Y48.89811
G01 X-21.30193 Y48.95016
G01 X-21.45471 Y49.01818
G01 X-21.63894 Y49.13337
G01 X-21.66030 Y49.17858
G01 X-21.63835 Y49.13865
G04 P0 ( dwell for no time -- G64 should not smooth over this point )
G00 Z2.00000 ( retract )

G00 X-22.01600 Y50.35516 ( rapid move to begin. )
G01 F250.00000
G01 Z-0.20000
G04 P0 ( dwell for no time -- G64 should not smooth over this point )
G01 F500.00000
G01 X-22.01600 Y50.35516
G01 X-22.01163 Y50.37050
G01 X-22.03091 Y50.24172
G01 X-22.03091 Y50.08856
G01 X-22.02062 Y50.29090
G01 X-22.03091 Y50.05734
G04 P0 ( dwell for no time -- G64 should not smooth over this point )
G00 Z2.00000 ( retract )

G00 X-22.00360 Y49.87482 ( rapid move to begin. )
G01 F250.00000
G01 Z-0.20000
G04 P0 ( dwell for no time -- G64 should not smooth over this point )
G01 F500.00000
G01 X-22.00360 Y49.87482
G01 X-21.94653 Y49.69923
G01 X-21.66030 Y49.17858
G01 X-21.94653 Y49.69923
G01 X-22.00950 Y49.92105
G01 X-22.00360 Y49.87482
G01 X-22.03091 Y50.05734
G01 X-22.02977 Y50.07975
G01 X-22.02062 Y50.00812
G01 X-22.01829 Y50.30918
G01 X-21.94653 Y50.59981
G01 X-22.01163 Y50.37050
G01 X-22.00360 Y50.42422
G04 P0 ( dwell for no time -- G64 should not smooth over this point )
G00 Z2.00000 ( retract )

G00 X-21.71803 Y51.07350 ( rapid move to begin. )
G01 F250.00000
G01 Z-0.20000
G04 P0 ( dwell for no time -- G64 should not smooth over this point )
G01 F500.00000
G01 X-21.71803 Y51.07350
G01 X-21.94653 Y50.59981
G01 X-21.78090 Y50.92160
G01 X-21.69880 Y51.11998
G01 X-21.72636 Y51.27649
G01 X-21.79167 Y51.41091
G01 X-21.62306 Y51.30309
G04 P0 ( dwell for no time -- G64 should not smooth over this point )
G00 Z2.00000 ( retract )

G00 X-21.48207 Y51.34228 ( rapid move to begin. )
G01 F250.00000
G01 Z-0.20000
G04 P0 ( dwell for no time -- G64 should not smooth over this point )
G01 F500.00000
G01 X-21.48207 Y51.34228
G01 X-21.20960 Y51.39455
G01 X-21.62306 Y51.30309
G01 X-21.71801 Y51.07355
G01 X-21.69784 Y51.11541
G01 X-21.45471 Y51.28084
G01 X-21.25504 Y51.36687
G01 X-21.06693 Y51.40954
G01 X-20.87498 Y51.41213
G01 X-21.12502 Y51.39897
G01 X-21.62306 Y51.30309
G01 X-21.79558 Y51.41896
G01 X-20.77587 Y51.41734
G01 X-20.75141 Y51.41472
G01 X-20.87498 Y51.41213
G01 X-20.62649 Y51.40146
G01 X-21.05827 Y51.40959
G01 X-21.20960 Y51.39455
G04 P0 ( dwell for no time -- G64 should not smooth over this point )
G00 Z2.00000 ( retract )

G00 X-18.94781 Y53.97849 ( rapid move to begin. )
G01 F250.00000
G01 Z-0.20000
G04 P0 ( dwell for no time -- G64 should not smooth over this point )
G01 F500.00000
G01 X-18.94781 Y53.97849
G01 X-19.14857 Y54.03293
G01 X-18.94778 Y53.97849
G04 P0 ( dwell for no time -- G64 should not smooth over this point )
G00 Z2.00000 ( retract )

G00 X-18.92637 Y53.97191 ( rapid move to begin. )
G01 F250.00000
G01 Z-0.20000
G04 P0 ( dwell for no time -- G64 should not smooth over this point )
G01 F500.00000
G01 X-18.92637 Y53.97191
G01 X-19.00770 Y53.99424
G01 X-18.91662 Y53.96404
G01 X-18.92612 Y53.97184
G04 P0 ( dwell for no time -- G64 should not smooth over this point )
G00 Z2.00000 ( retract )

G00 X-18.77613 Y53.91746 ( rapid move to begin. )
G01 F250.00000
G01 Z-0.20000
G04 P0 ( dwell for no time -- G64 should not smooth over this point )
G01 F500.00000
G01 X-18.77613 Y53.91746
G01 X-18.91662 Y53.96404
G01 X-18.73610 Y53.77286
G01 X-18.64433 Y53.58492
G01 X-18.60620 Y53.45924
G01 X-18.58949 Y53.28952
G01 X-18.58949 Y52.08952
G01 X-18.77948 Y52.08952
G01 X-18.77948 Y53.28952
G01 X-18.79256 Y53.42218
G01 X-18.81987 Y53.51223
G01 X-18.89409 Y53.66729
G01 X-19.00897 Y53.79521
G01 X-19.16470 Y53.89927
G01 X-19.32683 Y53.95645
G01 X-19.45949 Y53.96950
G01 X-21.65949 Y53.96950
G01 X-21.83154 Y53.95645
G01 X-22.07541 Y53.89853
G01 X-22.30327 Y53.79417
G01 X-22.47704 Y53.65944
G01 X-22.34391 Y53.98413
G04 P0 ( dwell for no time -- G64 should not smooth over this point )
G00 Z2.00000 ( retract )

G00 X-22.00919 Y54.04603 ( rapid move to begin. )
G01 F250.00000
G01 Z-0.20000
G04 P0 ( dwell for no time -- G64 should not smooth over this point )
G01 F500.00000
G01 X-22.00919 Y54.04603
G01 X-21.65949 Y54.06902
G01 X-19.45949 Y54.06902
G01 X-19.11128 Y54.02861
G01 X-19.45949 Y54.06902
G01 X-21.73790 Y54.06709
G04 P0 ( dwell for no time -- G64 should not smooth over this point )
G00 Z2.00000 ( retract )

G00 X-22.89263 Y54.23661 ( rapid move to begin. )
G01 F250.00000
G01 Z-0.20000
G04 P0 ( dwell for no time -- G64 should not smooth over this point )
G01 F500.00000
G01 X-22.89263 Y54.23661
G01 X-23.16268 Y54.27003
G01 X-22.89263 Y54.23661
G01 X-22.93896 Y54.24232
G01 X-22.70556 Y54.17557
G01 X-22.72209 Y54.18434
G04 P0 ( dwell for no time -- G64 should not smooth over this point )
G00 Z2.00000 ( retract )

G00 X-22.68387 Y54.16851 ( rapid move to begin. )
G01 F250.00000
G01 Z-0.20000
G04 P0 ( dwell for no time -- G64 should not smooth over this point )
G01 F500.00000
G01 X-22.68387 Y54.16851
G01 X-22.70556 Y54.17557
G01 X-22.58250 Y54.05403
G01 X-22.47363 Y53.79124
G01 X-22.46487 Y53.68914
G01 X-22.51480 Y53.58825
G01 X-22.47704 Y53.65944
G01 X-22.50124 Y53.60047
G04 P0 ( dwell for no time -- G64 should not smooth over this point )
G00 Z2.00000 ( retract )

G00 X-22.71468 Y53.21149 ( rapid move to begin. )
G01 F250.00000
G01 Z-0.20000
G04 P0 ( dwell for no time -- G64 should not smooth over this point )
G01 F500.00000
G01 X-22.71468 Y53.21149
G01 X-22.50124 Y53.60047
G01 X-22.71468 Y53.21149
G01 X-22.77795 Y53.04596
G01 X-22.76880 Y53.08396
G04 P0 ( dwell for no time -- G64 should not smooth over this point )
G00 Z2.00000 ( retract )

G00 X-22.77498 Y53.06674 ( rapid move to begin. )
G01 F250.00000
G01 Z-0.20000
G04 P0 ( dwell for no time -- G64 should not smooth over this point )
G01 F500.00000
G01 X-22.77498 Y53.06674
G01 X-22.77028 Y53.07799
G01 X-22.77881 Y53.04230
G01 X-22.75948 Y53.09330
G01 X-22.81135 Y52.91248
G01 X-22.80096 Y52.97789
G01 X-22.81986 Y52.87824
G01 X-22.78455 Y53.01848
G01 X-22.82481 Y52.81604
G01 X-22.80873 Y52.91804
G01 X-22.82712 Y52.84179
G01 X-22.81384 Y52.89683
G01 X-22.82689 Y52.81497
G01 X-22.82448 Y52.52589
G01 X-22.77848 Y52.32706
G01 X-22.82443 Y52.51914
G04 P0 ( dwell for no time -- G64 should not smooth over this point )
G00 Z2.00000 ( retract )

G00 X-22.77498 Y52.31233 ( rapid move to begin. )
G01 F250.00000
G01 Z-0.20000
G04 P0 ( dwell for no time -- G64 should not smooth over this point )
G01 F500.00000
G01 X-22.77498 Y52.31233
G01 X-22.82481 Y52.56498
G01 X-22.77076 Y52.30303
G01 X-22.77498 Y52.31233
G01 X-22.72278 Y52.18401
G01 X-22.76152 Y52.27928
G01 X-22.68618 Y52.11556
G01 X-22.77813 Y52.34002
G01 X-22.67996 Y52.10199
G01 X-22.68834 Y52.12409
G01 X-22.53937 Y51.90783
G01 X-22.67056 Y52.08630
G04 P0 ( dwell for no time -- G64 should not smooth over this point )
G00 Z2.00000 ( retract )

G00 X-22.53345 Y51.90062 ( rapid move to begin. )
G01 F250.00000
G01 Z-0.20000
G04 P0 ( dwell for no time -- G64 should not smooth over this point )
G01 F500.00000
G01 X-22.53345 Y51.90062
G01 X-22.55832 Y51.93433
G01 X-22.49337 Y51.86415
G01 X-22.55837 Y51.93489
G01 X-22.36274 Y51.74527
G01 X-22.32608 Y51.72435
G01 X-22.40360 Y51.78246
G01 X-22.26408 Y51.67936
G01 X-22.32123 Y51.72160
G01 X-21.79558 Y51.41896
G04 P0 ( dwell for no time -- G64 should not smooth over this point )
G00 Z2.00000 ( retract )

G00 X-22.82712 Y52.53727 ( rapid move to begin. )
G01 F250.00000
G01 Z-0.20000
G04 P0 ( dwell for no time -- G64 should not smooth over this point )
G01 F500.00000
G01 X-22.82712 Y52.53727
G01 X-22.82474 Y52.52701
G01 X-22.82557 Y52.84817
G01 X-22.82916 Y52.59059
G01 X-22.83398 Y52.75787
G01 X-22.83266 Y52.60283
G01 X-22.83528 Y52.62937
G04 P0 ( dwell for no time -- G64 should not smooth over this point )
G00 Z2.00000 ( retract )

G00 X-22.83528 Y52.74969 ( rapid move to begin. )
G01 F250.00000
G01 Z-0.20000
G04 P0 ( dwell for no time -- G64 should not smooth over this point )
G01 F500.00000
G01 X-22.83528 Y52.74969
G01 X-22.83439 Y52.76795
G04 P0 ( dwell for no time -- G64 should not smooth over this point )
G00 Z2.00000 ( retract )

G00 X-25.85196 Y54.27326 ( rapid move to begin. )
G01 F250.00000
G01 Z-0.20000
G04 P0 ( dwell for no time -- G64 should not smooth over this point )
G01 F500.00000
G01 X-25.85196 Y54.27326
G01 X-23.18859 Y54.27326
G01 X-22.95379 Y54.24631
G01 X-23.15179 Y54.27237
G01 X-24.44889 Y54.27158
G01 X-23.18859 Y54.27326
G01 X-25.85196 Y54.27326
G01 X-24.44889 Y54.27158
G01 X-25.87810 Y54.26968
G01 X-25.85196 Y54.27326
G01 X-26.02610 Y54.24949
G01 X-25.89859 Y54.26965
G01 X-25.92585 Y54.26963
G01 X-26.23613 Y54.20730
G01 X-26.12122 Y54.23648
G01 X-26.18058 Y54.22840
G01 X-26.37309 Y54.15528
G01 X-26.23504 Y54.20918
G01 X-26.37131 Y54.15975
G01 X-26.35038 Y54.16851
G01 X-27.69854 Y54.16851
G01 X-27.58096 Y54.11926
G01 X-27.35267 Y53.97849
G01 X-26.69628 Y53.97852
G01 X-26.46814 Y54.11918
G01 X-26.37131 Y54.15975
G01 X-26.50923 Y54.09292
G01 X-26.37479 Y54.15449
G01 X-26.52546 Y53.92800
G01 X-26.57172 Y53.74265
G01 X-26.57172 Y53.55538
G01 X-26.52546 Y53.37004
G01 X-26.48112 Y53.28705
G01 X-26.27997 Y53.01576
G01 X-26.21777 Y52.89366
G01 X-26.17543 Y52.76333
G01 X-26.15399 Y52.62803
G01 X-26.15399 Y52.49099
G01 X-26.17543 Y52.35571
G01 X-26.21777 Y52.22533
G01 X-26.27997 Y52.10329
G01 X-26.36049 Y51.99244
G01 X-26.45742 Y51.89552
G01 X-26.56824 Y51.81500
G01 X-26.69036 Y51.75277
G01 X-26.82064 Y51.71045
G01 X-26.95599 Y51.68901
G01 X-27.09300 Y51.68901
G01 X-27.22833 Y51.71045
G01 X-27.35861 Y51.75277
G01 X-27.48073 Y51.81500
G01 X-27.59158 Y51.89554
G01 X-27.68848 Y51.99244
G01 X-27.76900 Y52.10329
G01 X-27.83120 Y52.22533
G01 X-27.87354 Y52.35566
G01 X-27.89498 Y52.49099
G01 X-27.89498 Y52.62803
G01 X-27.87354 Y52.76336
G01 X-27.83120 Y52.89368
G01 X-27.76900 Y53.01576
G01 X-27.62186 Y53.20628
G01 X-27.52351 Y53.37004
G01 X-27.46803 Y53.64900
G01 X-27.52351 Y53.92800
G01 X-27.67286 Y54.15391
G01 X-27.53984 Y54.09300
G01 X-27.22483 Y53.89188
G01 X-27.02447 Y53.72211
G01 X-26.82412 Y53.89188
G01 X-26.69605 Y53.97865
G04 P0 ( dwell for no time -- G64 should not smooth over this point )
G00 Z2.00000 ( retract )

G00 X-26.69595 Y53.97870 ( rapid move to begin. )
G01 F250.00000
G01 Z-0.20000
G04 P0 ( dwell for no time -- G64 should not smooth over this point )
G01 F500.00000
G01 X-26.69595 Y53.97870
G01 X-26.50923 Y54.09292
G01 X-26.71068 Y53.96874
G04 P0 ( dwell for no time -- G64 should not smooth over this point )
G00 Z2.00000 ( retract )

G00 X-26.82412 Y53.89188 ( rapid move to begin. )
G01 F250.00000
G01 Z-0.20000
G04 P0 ( dwell for no time -- G64 should not smooth over this point )
G01 F500.00000
G01 X-26.82412 Y53.89188
G01 X-26.71200 Y53.96346
G01 X-26.75808 Y53.77971
G01 X-26.77096 Y53.64900
G01 X-26.75808 Y53.51830
G01 X-26.70100 Y53.29732
G01 X-26.58510 Y53.10072
G01 X-26.44248 Y52.91616
G01 X-26.39384 Y52.82071
G01 X-26.34398 Y52.61304
G01 X-26.36075 Y52.40016
G01 X-26.44246 Y52.20286
G01 X-26.58114 Y52.04047
G01 X-26.76329 Y51.92887
G01 X-26.97096 Y51.87901
G01 X-27.18383 Y51.89577
G01 X-27.38114 Y51.97751
G01 X-27.54352 Y52.11619
G01 X-27.65513 Y52.29828
G01 X-27.70499 Y52.50598
G01 X-27.68823 Y52.71888
G01 X-27.60649 Y52.91619
G01 X-27.46387 Y53.10072
G01 X-27.34797 Y53.29732
G01 X-27.29089 Y53.51830
G01 X-27.27802 Y53.64900
G01 X-27.29089 Y53.77971
G01 X-27.33826 Y53.96874
G01 X-27.10057 Y53.78850
G01 X-26.94837 Y53.78850
G01 X-26.82412 Y53.89188
G01 X-26.94710 Y53.78962
G01 X-26.96095 Y53.64900
G01 X-26.94444 Y53.48124
G01 X-26.87654 Y53.22462
G01 X-26.79707 Y53.07593
G01 X-26.60497 Y52.81657
G01 X-26.56991 Y52.74779
G01 X-26.53400 Y52.59813
G01 X-26.54606 Y52.44466
G01 X-26.60499 Y52.30240
G01 X-26.70494 Y52.18538
G01 X-26.83621 Y52.10494
G01 X-26.90964 Y52.08109
G01 X-27.06308 Y52.06902
G01 X-27.21276 Y52.10494
G01 X-27.34403 Y52.18538
G01 X-27.44398 Y52.30240
G01 X-27.47906 Y52.37123
G01 X-27.51500 Y52.52091
G01 X-27.51500 Y52.59813
G01 X-27.47906 Y52.74779
G01 X-27.44401 Y52.81660
G01 X-27.25190 Y53.07593
G01 X-27.17243 Y53.22462
G01 X-27.10456 Y53.48124
G01 X-27.08802 Y53.64900
G01 X-27.10187 Y53.78959
G01 X-27.22483 Y53.89188
G04 P0 ( dwell for no time -- G64 should not smooth over this point )
G00 Z2.00000 ( retract )

G00 X-27.33826 Y53.96874 ( rapid move to begin. )
G01 F250.00000
G01 Z-0.20000
G04 P0 ( dwell for no time -- G64 should not smooth over this point )
G01 F500.00000
G01 X-27.33826 Y53.96874
G01 X-27.35264 Y53.97849
G04 P0 ( dwell for no time -- G64 should not smooth over this point )
G00 Z2.00000 ( retract )

G00 X-27.33837 Y53.96882 ( rapid move to begin. )
G01 F250.00000
G01 Z-0.20000
G04 P0 ( dwell for no time -- G64 should not smooth over this point )
G01 F500.00000
G01 X-27.33837 Y53.96882
G01 X-27.53522 Y54.09089
G01 X-27.35267 Y53.97849
G04 P0 ( dwell for no time -- G64 should not smooth over this point )
G00 Z2.00000 ( retract )

G00 X-27.58096 Y54.11926 ( rapid move to begin. )
G01 F250.00000
G01 Z-0.20000
G04 P0 ( dwell for no time -- G64 should not smooth over this point )
G01 F500.00000
G01 X-27.58096 Y54.11926
G01 X-27.53522 Y54.09089
G01 X-27.81266 Y54.20725
G01 X-27.69854 Y54.16851
G04 P0 ( dwell for no time -- G64 should not smooth over this point )
G00 Z2.00000 ( retract )

G00 X-27.69856 Y54.16851 ( rapid move to begin. )
G01 F250.00000
G01 Z-0.20000
G04 P0 ( dwell for no time -- G64 should not smooth over this point )
G01 F500.00000
G01 X-27.69856 Y54.16851
G01 X-27.86829 Y54.22838
G01 X-27.81266 Y54.20725
G01 X-28.02594 Y54.26008
G01 X-28.10644 Y54.26628
G01 X-28.02277 Y54.24946
G01 X-28.19701 Y54.27326
G01 X-28.17080 Y54.26968
G01 X-31.30196 Y54.27326
G01 X-28.19701 Y54.27326
G04 P0 ( dwell for no time -- G64 should not smooth over this point )
G00 Z2.00000 ( retract )

G00 X-26.72399 Y52.53585 ( rapid move to begin. )
G01 F250.00000
G01 Z-0.20000
G04 P0 ( dwell for no time -- G64 should not smooth over this point )
G01 F500.00000
G01 X-26.72399 Y52.53585
G01 X-26.73138 Y52.62986
G01 X-26.76750 Y52.71703
G01 X-26.90108 Y52.88960
G01 X-27.02450 Y53.10029
G01 X-27.09394 Y52.97039
G01 X-27.30296 Y52.67486
G01 X-27.32498 Y52.53585
G01 X-27.28150 Y52.40199
G01 X-27.22023 Y52.33029
G01 X-27.13984 Y52.28104
G01 X-27.04810 Y52.25902
G01 X-26.95414 Y52.26641
G01 X-26.86697 Y52.30253
G01 X-26.79526 Y52.36376
G01 X-26.74601 Y52.44416
G01 X-26.72399 Y52.53585
G04 P0 ( dwell for no time -- G64 should not smooth over this point )
G00 Z2.00000 ( retract )

G00 X-27.19900 Y49.51965 ( rapid move to begin. )
G01 F250.00000
G01 Z-0.20000
G04 P0 ( dwell for no time -- G64 should not smooth over this point )
G01 F500.00000
G01 X-27.19900 Y49.51965
G01 X-27.22874 Y49.44777
G01 X-27.31462 Y49.40400
G01 X-27.39028 Y49.42219
G01 X-27.43184 Y49.46375
G01 X-27.45000 Y49.51965
G01 X-27.44080 Y49.57769
G01 X-27.40624 Y49.62524
G01 X-27.35389 Y49.65193
G01 X-27.29508 Y49.65191
G01 X-27.24274 Y49.62524
G01 X-27.20817 Y49.57766
G01 X-27.19900 Y49.51965
G01 X-27.00898 Y49.50469
G01 X-27.03209 Y49.65061
G01 X-27.11894 Y49.77015
G01 X-27.25061 Y49.83725
G01 X-27.39836 Y49.83725
G01 X-27.53001 Y49.77017
G01 X-27.59435 Y49.69483
G01 X-27.63999 Y49.55440
G01 X-27.61685 Y49.40837
G01 X-27.56511 Y49.32397
G01 X-27.48985 Y49.25968
G01 X-27.39836 Y49.22178
G01 X-27.29966 Y49.21401
G01 X-27.15912 Y49.25968
G01 X-27.08386 Y49.32397
G01 X-27.03209 Y49.40840
G01 X-27.00898 Y49.50469
G01 X-26.81899 Y49.48970
G01 X-26.85602 Y49.33548
G01 X-26.89214 Y49.26456
G01 X-26.99519 Y49.14393
G01 X-27.13042 Y49.06105
G01 X-27.28470 Y49.02402
G01 X-27.44284 Y49.03647
G01 X-27.58942 Y49.09717
G01 X-27.71007 Y49.20022
G01 X-27.79295 Y49.33545
G01 X-27.82998 Y49.48970
G01 X-27.82998 Y49.56931
G01 X-27.79295 Y49.72356
G01 X-27.75683 Y49.79445
G01 X-27.65378 Y49.91510
G01 X-27.51853 Y49.99798
G01 X-27.44286 Y50.02257
G01 X-27.28470 Y50.03502
G01 X-27.20611 Y50.02257
G01 X-27.13042 Y49.99798
G01 X-26.99519 Y49.91508
G01 X-26.89214 Y49.79445
G01 X-26.85602 Y49.72354
G01 X-26.81899 Y49.56933
G01 X-26.81899 Y49.48970
G01 X-26.62900 Y49.47477
G01 X-26.67995 Y49.26253
G01 X-26.79399 Y49.07642
G01 X-26.95998 Y48.93466
G01 X-27.16166 Y48.85112
G01 X-27.26974 Y48.83400
G01 X-27.48731 Y48.85112
G01 X-27.68901 Y48.93466
G01 X-27.77758 Y48.99903
G01 X-27.91932 Y49.16496
G01 X-28.00286 Y49.36664
G01 X-28.01998 Y49.58427
G01 X-28.00286 Y49.69240
G01 X-27.91932 Y49.89405
G01 X-27.77758 Y50.06001
G01 X-27.68901 Y50.12437
G01 X-27.48736 Y50.20789
G01 X-27.26976 Y50.22501
G01 X-27.16161 Y50.20789
G01 X-26.95998 Y50.12437
G01 X-26.79399 Y49.98262
G01 X-26.67995 Y49.79651
G01 X-26.64611 Y49.69237
G01 X-26.62900 Y49.47477
G01 X-26.43900 Y49.45978
G01 X-26.46080 Y49.32214
G01 X-26.50385 Y49.18963
G01 X-26.56715 Y49.06542
G01 X-26.64906 Y48.95265
G01 X-26.74761 Y48.85409
G01 X-26.86039 Y48.77215
G01 X-26.98460 Y48.70888
G01 X-27.11711 Y48.66583
G01 X-27.25480 Y48.64401
G01 X-27.39420 Y48.64401
G01 X-27.53186 Y48.66583
G01 X-27.66440 Y48.70888
G01 X-27.78858 Y48.77215
G01 X-27.90136 Y48.85409
G01 X-27.99991 Y48.95265
G01 X-28.08182 Y49.06540
G01 X-28.14510 Y49.18958
G01 X-28.18820 Y49.32219
G01 X-28.20999 Y49.45981
G01 X-28.20999 Y49.59923
G01 X-28.18820 Y49.73685
G01 X-28.14510 Y49.86946
G01 X-28.08185 Y49.99361
G01 X-27.99991 Y50.10639
G01 X-27.90136 Y50.20494
G01 X-27.78858 Y50.28686
G01 X-27.66440 Y50.35013
G01 X-27.53181 Y50.39321
G01 X-27.39417 Y50.41503
G01 X-27.25480 Y50.41503
G01 X-27.11711 Y50.39321
G01 X-26.98460 Y50.35015
G01 X-26.86039 Y50.28688
G01 X-26.74761 Y50.20494
G01 X-26.64906 Y50.10637
G01 X-26.56715 Y49.99361
G01 X-26.50385 Y49.86941
G01 X-26.46080 Y49.73687
G01 X-26.43900 Y49.59923
G01 X-26.43900 Y49.45978
G01 X-26.24899 Y49.44485
G01 X-26.27548 Y49.27769
G01 X-26.32778 Y49.11665
G01 X-26.40464 Y48.96583
G01 X-26.50413 Y48.82887
G01 X-26.62386 Y48.70916
G01 X-26.76077 Y48.60967
G01 X-26.91162 Y48.53281
G01 X-27.07266 Y48.48049
G01 X-27.23984 Y48.45402
G01 X-27.40916 Y48.45402
G01 X-27.57634 Y48.48049
G01 X-27.73735 Y48.53281
G01 X-27.88820 Y48.60967
G01 X-28.02511 Y48.70916
G01 X-28.14484 Y48.82887
G01 X-28.24433 Y48.96583
G01 X-28.32119 Y49.11665
G01 X-28.37352 Y49.27766
G01 X-28.39998 Y49.44490
G01 X-28.39998 Y49.61414
G01 X-28.37352 Y49.78135
G01 X-28.32119 Y49.94238
G01 X-28.24433 Y50.09318
G01 X-28.14484 Y50.23014
G01 X-28.02513 Y50.34985
G01 X-27.88817 Y50.44937
G01 X-27.73735 Y50.52623
G01 X-27.57634 Y50.57853
G01 X-27.40916 Y50.60502
G01 X-27.23981 Y50.60502
G01 X-27.07261 Y50.57853
G01 X-26.91167 Y50.52623
G01 X-26.76077 Y50.44934
G01 X-26.62386 Y50.34987
G01 X-26.50415 Y50.23016
G01 X-26.40461 Y50.09318
G01 X-26.32780 Y49.94238
G01 X-26.27548 Y49.78135
G01 X-26.24899 Y49.61419
G01 X-26.24899 Y49.44485
G04 P0 ( dwell for no time -- G64 should not smooth over this point )
G00 Z2.00000 ( retract )

G00 X-22.78128 Y44.71994 ( rapid move to begin. )
G01 F250.00000
G01 Z-0.20000
G04 P0 ( dwell for no time -- G64 should not smooth over this point )
G01 F500.00000
G01 X-22.78128 Y44.71994
G01 X-22.71402 Y44.55019
G01 X-22.61458 Y44.38143
G01 X-22.24013 Y43.94036
G01 X-22.61458 Y44.38143
G01 X-22.71160 Y44.54407
G01 X-22.79083 Y44.76221
G01 X-22.78128 Y44.71994
G01 X-22.80485 Y44.82408
G01 X-22.79329 Y44.76906
G01 X-22.79967 Y44.78694
G01 X-22.82933 Y45.04719
G01 X-22.82347 Y44.90627
G04 P0 ( dwell for no time -- G64 should not smooth over this point )
G00 Z2.00000 ( retract )

G00 X-22.71160 Y45.59499 ( rapid move to begin. )
G01 F250.00000
G01 Z-0.20000
G04 P0 ( dwell for no time -- G64 should not smooth over this point )
G01 F500.00000
G01 X-22.71160 Y45.59499
G01 X-22.79967 Y45.35212
G01 X-22.79349 Y45.36909
G01 X-22.83271 Y45.12769
G01 X-22.82748 Y44.98588
G01 X-22.83368 Y45.10884
G01 X-22.82933 Y45.04719
G01 X-22.81648 Y45.27521
G01 X-22.82146 Y45.20394
G01 X-22.79967 Y45.35212
G01 X-22.80536 Y45.31341
G01 X-22.77152 Y45.42969
G01 X-22.79349 Y45.36909
G01 X-22.78128 Y45.41910
G01 X-22.71714 Y45.58362
G01 X-22.73355 Y45.53754
G01 X-22.61458 Y45.75761
G01 X-22.71346 Y45.58981
G01 X-22.61458 Y45.75761
G01 X-22.23690 Y46.20160
G01 X-22.61458 Y45.75761
G04 P0 ( dwell for no time -- G64 should not smooth over this point )
G00 Z2.00000 ( retract )

G00 X-22.22707 Y46.21318 ( rapid move to begin. )
G01 F250.00000
G01 Z-0.20000
G04 P0 ( dwell for no time -- G64 should not smooth over this point )
G01 F500.00000
G01 X-22.22707 Y46.21318
G01 X-22.23690 Y46.20160
G01 X-22.10193 Y46.26888
G01 X-21.92100 Y46.31557
G01 X-22.17043 Y46.28603
G01 X-22.22692 Y46.21427
G01 X-22.21219 Y46.32951
G01 X-21.71239 Y46.33739
G01 X-22.17043 Y46.28603
G04 P0 ( dwell for no time -- G64 should not smooth over this point )
G00 Z2.00000 ( retract )

G00 X-21.65949 Y46.33955 ( rapid move to begin. )
G01 F250.00000
G01 Z-0.20000
G04 P0 ( dwell for no time -- G64 should not smooth over this point )
G01 F500.00000
G01 X-21.65949 Y46.33955
G01 X-21.71239 Y46.33739
G01 X-20.37833 Y46.33904
G01 X-21.74666 Y46.33154
G01 X-19.90429 Y46.33886
G01 X-19.91763 Y46.33962
G01 X-19.68342 Y46.38841
G01 X-19.65918 Y46.28313
G01 X-19.64016 Y46.26634
G01 X-19.71235 Y46.33881
G01 X-19.90429 Y46.33886
G01 X-19.65842 Y46.28232
G01 X-19.64016 Y46.26634
G01 X-19.24389 Y45.91643
G01 X-19.63907 Y46.26522
G01 X-19.24389 Y45.91643
G01 X-19.10437 Y45.75761
G01 X-18.98240 Y45.53203
G01 X-19.10437 Y45.75761
G04 P0 ( dwell for no time -- G64 should not smooth over this point )
G00 Z2.00000 ( retract )

G00 X-21.56540 Y48.97779 ( rapid move to begin. )
G01 F250.00000
G01 Z-0.20000
G04 P0 ( dwell for no time -- G64 should not smooth over this point )
G01 F500.00000
G01 X-21.56540 Y48.97779
G01 X-21.31481 Y48.92123
G01 X-21.12334 Y48.89712
G01 X-21.20960 Y48.90451
G04 P0 ( dwell for no time -- G64 should not smooth over this point )
G00 Z2.00000 ( retract )

G00 X-19.16002 Y45.05905 ( rapid move to begin. )
G01 F250.00000
G01 Z-0.20000
G04 P0 ( dwell for no time -- G64 should not smooth over this point )
G01 F500.00000
G01 X-19.16002 Y45.05905
G01 X-19.18187 Y45.26675
G01 X-19.23729 Y45.43558
G01 X-19.32568 Y45.58976
G01 X-19.46541 Y45.74493
G01 X-19.61882 Y45.85369
G01 X-19.78138 Y45.92547
G01 X-20.05949 Y45.96952
G01 X-21.76390 Y45.96296
G01 X-21.94737 Y45.92172
G01 X-22.10950 Y45.84894
G01 X-22.25357 Y45.74493
G01 X-22.39329 Y45.58976
G01 X-22.48168 Y45.43558
G01 X-22.53711 Y45.26675
G01 X-22.55895 Y45.05908
G01 X-22.53982 Y44.88237
G01 X-22.48542 Y44.71321
G01 X-22.38102 Y44.53236
G01 X-22.26911 Y44.40808
G01 X-22.11826 Y44.29578
G01 X-21.93762 Y44.21354
G01 X-21.65949 Y44.16950
G01 X-20.05949 Y44.16950
G01 X-19.78138 Y44.21354
G01 X-19.60071 Y44.29578
G01 X-19.44986 Y44.40808
G01 X-19.33795 Y44.53236
G01 X-19.23356 Y44.71321
G01 X-19.18187 Y44.87226
G01 X-19.16002 Y45.05905
G01 X-18.97107 Y45.03919
G01 X-18.99330 Y45.29614
G01 X-19.06373 Y45.51288
G01 X-19.16112 Y45.68476
G01 X-19.30866 Y45.85809
G01 X-19.51448 Y46.01349
G01 X-19.69431 Y46.09530
G01 X-19.91557 Y46.14879
G01 X-20.05949 Y46.15954
G01 X-21.65949 Y46.15954
G01 X-21.80340 Y46.14879
G01 X-22.02466 Y46.09530
G01 X-22.20449 Y46.01349
G01 X-22.36525 Y45.89865
G01 X-22.55786 Y45.68476
G01 X-22.66614 Y45.48453
G01 X-22.73043 Y45.26617
G01 X-22.74790 Y45.09985
G01 X-22.72568 Y44.84288
G01 X-22.65524 Y44.62616
G01 X-22.55786 Y44.45428
G01 X-22.41031 Y44.28095
G01 X-22.20449 Y44.12553
G01 X-22.02466 Y44.04374
G01 X-21.80340 Y43.99022
G01 X-21.65949 Y43.97950
G01 X-20.05949 Y43.97950
G01 X-19.91557 Y43.99022
G01 X-19.69431 Y44.04374
G01 X-19.51448 Y44.12553
G01 X-19.35372 Y44.24036
G01 X-19.16112 Y44.45428
G01 X-19.05284 Y44.65451
G01 X-18.98855 Y44.87285
G01 X-18.97107 Y45.03919
G04 P0 ( dwell for no time -- G64 should not smooth over this point )
G00 Z2.00000 ( retract )

G00 X-18.97110 Y45.51112 ( rapid move to begin. )
G01 F250.00000
G01 Z-0.20000
G04 P0 ( dwell for no time -- G64 should not smooth over this point )
G01 F500.00000
G01 X-18.97110 Y45.51112
G01 X-18.98240 Y45.53203
G01 X-18.90247 Y45.27521
G01 X-18.90148 Y45.25931
G01 X-18.96449 Y45.48682
G01 X-18.89548 Y45.23279
G01 X-18.90112 Y45.25359
G01 X-18.88860 Y44.99797
G01 X-18.89548 Y45.23279
G01 X-18.88624 Y45.01138
G04 P0 ( dwell for no time -- G64 should not smooth over this point )
G00 Z2.00000 ( retract )

G00 X-18.97110 Y44.62794 ( rapid move to begin. )
G01 F250.00000
G01 Z-0.20000
G04 P0 ( dwell for no time -- G64 should not smooth over this point )
G01 F500.00000
G01 X-18.97110 Y44.62794
G01 X-18.88860 Y44.99797
G01 X-18.90247 Y44.86383
G01 X-18.98245 Y44.60683
G01 X-18.97110 Y44.62794
G01 X-19.24090 Y44.11100
G01 X-19.20747 Y44.18982
G04 P0 ( dwell for no time -- G64 should not smooth over this point )
G00 Z2.00000 ( retract )

G00 X-19.00734 Y44.54407 ( rapid move to begin. )
G01 F250.00000
G01 Z-0.20000
G04 P0 ( dwell for no time -- G64 should not smooth over this point )
G01 F500.00000
G01 X-19.00734 Y44.54407
G01 X-19.26068 Y44.07310
G01 X-19.24316 Y44.10567
G01 X-19.25990 Y44.06617
G01 X-19.24519 Y43.93455
G01 X-19.21382 Y43.84585
G01 X-19.12454 Y43.67696
G01 X-19.04476 Y43.59200
G01 X-19.30468 Y43.72365
G01 X-19.37303 Y43.79952
G01 X-19.26068 Y44.07310
G01 X-19.46426 Y43.93818
G01 X-19.61705 Y43.87016
G01 X-19.92213 Y43.79955
G01 X-21.79685 Y43.79955
G01 X-22.00650 Y43.83914
G01 X-22.22829 Y43.92642
G01 X-22.13464 Y43.79952
G01 X-19.37303 Y43.79952
G04 P0 ( dwell for no time -- G64 should not smooth over this point )
G00 Z2.00000 ( retract )

G00 X-18.60313 Y43.48672 ( rapid move to begin. )
G01 F250.00000
G01 Z-0.20000
G04 P0 ( dwell for no time -- G64 should not smooth over this point )
G01 F500.00000
G01 X-18.60313 Y43.48672
G01 X-18.80414 Y43.51481
G01 X-19.04476 Y43.59200
G01 X-18.80414 Y43.51481
G04 P0 ( dwell for no time -- G64 should not smooth over this point )
G00 Z2.00000 ( retract )

G00 X-19.04242 Y43.58951 ( rapid move to begin. )
G01 F250.00000
G01 Z-0.20000
G04 P0 ( dwell for no time -- G64 should not smooth over this point )
G01 F500.00000
G01 X-19.04242 Y43.58951
G01 X-19.34824 Y43.58951
G01 X-19.61705 Y43.72888
G01 X-19.90689 Y43.79955
G01 X-21.84290 Y43.79464
G01 X-22.00650 Y43.75987
G01 X-22.22832 Y43.67265
G01 X-22.13464 Y43.79952
G04 P0 ( dwell for no time -- G64 should not smooth over this point )
G00 Z2.00000 ( retract )

G00 X-22.22829 Y43.92642 ( rapid move to begin. )
G01 F250.00000
G01 Z-0.20000
G04 P0 ( dwell for no time -- G64 should not smooth over this point )
G01 F500.00000
G01 X-22.22829 Y43.92642
G01 X-22.24013 Y43.94036
G01 X-22.21249 Y43.79952
G01 X-22.23982 Y43.65906
G01 X-22.22832 Y43.67265
G04 P0 ( dwell for no time -- G64 should not smooth over this point )
G00 Z2.00000 ( retract )

G00 X-22.83368 Y42.49020 ( rapid move to begin. )
G01 F250.00000
G01 Z-0.20000
G04 P0 ( dwell for no time -- G64 should not smooth over this point )
G01 F500.00000
G01 X-22.83368 Y42.49020
G01 X-22.81925 Y42.35083
G01 X-22.83368 Y42.49020
G01 X-22.82347 Y42.69277
G01 X-22.78128 Y42.87910
G01 X-22.71160 Y43.05499
G01 X-22.61458 Y43.21761
G01 X-22.23982 Y43.65906
G01 X-22.61458 Y43.21761
G01 X-22.71399 Y43.04892
G01 X-22.78128 Y42.87910
G01 X-22.81765 Y42.71839
G01 X-22.83368 Y42.49020
G01 X-22.79352 Y42.23000
G01 X-22.82347 Y42.36627
G04 P0 ( dwell for no time -- G64 should not smooth over this point )
G00 Z2.00000 ( retract )

G00 X-22.78128 Y42.17994 ( rapid move to begin. )
G01 F250.00000
G01 Z-0.20000
G04 P0 ( dwell for no time -- G64 should not smooth over this point )
G01 F500.00000
G01 X-22.78128 Y42.17994
G01 X-22.80878 Y42.31230
G01 X-22.74785 Y42.08794
G01 X-22.73655 Y42.06704
G01 X-22.76527 Y42.15213
G01 X-22.71160 Y42.00407
G01 X-22.73012 Y42.05515
G01 X-22.61458 Y41.84143
G01 X-22.24013 Y41.40036
G01 X-22.61458 Y41.84143
G01 X-22.71160 Y42.00407
G04 P0 ( dwell for no time -- G64 should not smooth over this point )
G00 Z2.00000 ( retract )

G00 X-22.22829 Y41.38642 ( rapid move to begin. )
G01 F250.00000
G01 Z-0.20000
G04 P0 ( dwell for no time -- G64 should not smooth over this point )
G01 F500.00000
G01 X-22.22829 Y41.38642
G01 X-22.24013 Y41.40036
G01 X-22.21249 Y41.25952
G01 X-22.23998 Y41.11885
G01 X-22.22832 Y41.13262
G04 P0 ( dwell for no time -- G64 should not smooth over this point )
G00 Z2.00000 ( retract )

G00 X-22.13464 Y41.25952 ( rapid move to begin. )
G01 F250.00000
G01 Z-0.20000
G04 P0 ( dwell for no time -- G64 should not smooth over this point )
G01 F500.00000
G01 X-22.13464 Y41.25952
G01 X-22.22832 Y41.13262
G01 X-22.10193 Y41.18888
G01 X-21.81219 Y41.25952
G01 X-22.13464 Y41.25952
G01 X-22.22829 Y41.38642
G01 X-22.10193 Y41.33016
G01 X-21.79685 Y41.25955
G04 P0 ( dwell for no time -- G64 should not smooth over this point )
G00 Z2.00000 ( retract )

G00 X-22.71160 Y40.51499 ( rapid move to begin. )
G01 F250.00000
G01 Z-0.20000
G04 P0 ( dwell for no time -- G64 should not smooth over this point )
G01 F500.00000
G01 X-22.71160 Y40.51499
G01 X-22.61458 Y40.67761
G01 X-22.23998 Y41.11885
G01 X-22.61458 Y40.67761
G01 X-22.71160 Y40.51499
G01 X-22.79349 Y40.28909
G01 X-22.71399 Y40.50892
G01 X-22.78128 Y40.33910
G04 P0 ( dwell for no time -- G64 should not smooth over this point )
G00 Z2.00000 ( retract )

G00 X-22.81648 Y40.19521 ( rapid move to begin. )
G01 F250.00000
G01 Z-0.20000
G04 P0 ( dwell for no time -- G64 should not smooth over this point )
G01 F500.00000
G01 X-22.81648 Y40.19521
G01 X-22.83368 Y40.02884
G01 X-22.79349 Y40.28909
G01 X-22.82123 Y40.11774
G01 X-22.82146 Y39.85510
G01 X-22.83271 Y39.93138
G01 X-22.83368 Y40.02884
G01 X-22.82347 Y39.82627
G01 X-22.81765 Y39.80062
G01 X-22.82146 Y39.85510
G01 X-22.78128 Y39.63994
G04 P0 ( dwell for no time -- G64 should not smooth over this point )
G00 Z2.00000 ( retract )

G00 X-22.71160 Y39.46407 ( rapid move to begin. )
G01 F250.00000
G01 Z-0.20000
G04 P0 ( dwell for no time -- G64 should not smooth over this point )
G01 F500.00000
G01 X-22.71160 Y39.46407
G01 X-22.79108 Y39.68330
G01 X-22.71160 Y39.46407
G01 X-22.61458 Y39.30143
G01 X-22.24008 Y38.86029
G01 X-22.61458 Y39.30143
G04 P0 ( dwell for no time -- G64 should not smooth over this point )
G00 Z2.00000 ( retract )

G00 X-22.22829 Y38.84642 ( rapid move to begin. )
G01 F250.00000
G01 Z-0.20000
G04 P0 ( dwell for no time -- G64 should not smooth over this point )
G01 F500.00000
G01 X-22.22829 Y38.84642
G01 X-22.24008 Y38.86029
G01 X-22.21249 Y38.71952
G01 X-22.23990 Y38.57898
G01 X-22.22832 Y38.59265
G04 P0 ( dwell for no time -- G64 should not smooth over this point )
G00 Z2.00000 ( retract )

G00 X-22.71160 Y37.97499 ( rapid move to begin. )
G01 F250.00000
G01 Z-0.20000
G04 P0 ( dwell for no time -- G64 should not smooth over this point )
G01 F500.00000
G01 X-22.71160 Y37.97499
G01 X-22.61458 Y38.13761
G01 X-22.23990 Y38.57898
G01 X-22.61458 Y38.13761
G01 X-22.71160 Y37.97499
G01 X-22.79349 Y37.74909
G01 X-22.71399 Y37.96892
G01 X-22.78128 Y37.79910
G04 P0 ( dwell for no time -- G64 should not smooth over this point )
G00 Z2.00000 ( retract )

G00 X-22.83368 Y37.48884 ( rapid move to begin. )
G01 F250.00000
G01 Z-0.20000
G04 P0 ( dwell for no time -- G64 should not smooth over this point )
G01 F500.00000
G01 X-22.83368 Y37.48884
G01 X-22.83218 Y37.39966
G01 X-22.81648 Y37.65521
G01 X-22.82258 Y37.56809
G01 X-22.79349 Y37.74909
G01 X-22.82123 Y37.57774
G01 X-22.82258 Y37.33095
G01 X-22.83271 Y37.39138
G01 X-22.79352 Y37.14998
G01 X-22.79967 Y37.16694
G04 P0 ( dwell for no time -- G64 should not smooth over this point )
G00 Z2.00000 ( retract )

G00 X-22.71160 Y36.92407 ( rapid move to begin. )
G01 F250.00000
G01 Z-0.20000
G04 P0 ( dwell for no time -- G64 should not smooth over this point )
G01 F500.00000
G01 X-22.71160 Y36.92407
G01 X-22.79352 Y37.14998
G01 X-22.71160 Y36.92407
G01 X-22.61458 Y36.76143
G01 X-22.23703 Y36.31762
G01 X-22.61458 Y36.76143
G04 P0 ( dwell for no time -- G64 should not smooth over this point )
G00 Z2.00000 ( retract )

G00 X-22.22705 Y36.30586 ( rapid move to begin. )
G01 F250.00000
G01 Z-0.20000
G04 P0 ( dwell for no time -- G64 should not smooth over this point )
G01 F500.00000
G01 X-22.22705 Y36.30586
G01 X-22.23703 Y36.31762
G01 X-22.00650 Y36.21914
G01 X-21.85766 Y36.18907
G01 X-22.17043 Y36.23304
G01 X-22.22690 Y36.30472
G01 X-22.21219 Y36.18950
G01 X-19.91926 Y36.18018
G01 X-19.68428 Y36.13088
G01 X-19.65819 Y36.23573
G01 X-19.63671 Y36.25481
G01 X-19.71334 Y36.18028
G01 X-19.91926 Y36.18018
G01 X-19.65670 Y36.23728
G01 X-19.50734 Y36.38069
G04 P0 ( dwell for no time -- G64 should not smooth over this point )
G00 Z2.00000 ( retract )

G00 X-19.24397 Y36.60268 ( rapid move to begin. )
G01 F250.00000
G01 Z-0.20000
G04 P0 ( dwell for no time -- G64 should not smooth over this point )
G01 F500.00000
G01 X-19.24397 Y36.60268
G01 X-19.59789 Y36.28930
G01 X-19.22807 Y36.61813
G04 P0 ( dwell for no time -- G64 should not smooth over this point )
G00 Z2.00000 ( retract )

G00 X-19.10437 Y36.76143 ( rapid move to begin. )
G01 F250.00000
G01 Z-0.20000
G04 P0 ( dwell for no time -- G64 should not smooth over this point )
G01 F500.00000
G01 X-19.10437 Y36.76143
G01 X-19.23724 Y36.61030
G01 X-19.10437 Y36.76143
G01 X-19.00734 Y36.92407
G01 X-18.91928 Y37.16694
G01 X-18.88951 Y37.36903
G01 X-18.92540 Y37.15000
G01 X-19.00734 Y36.92407
G04 P0 ( dwell for no time -- G64 should not smooth over this point )
G00 Z2.00000 ( retract )

G00 X-18.88527 Y37.41020 ( rapid move to begin. )
G01 F250.00000
G01 Z-0.20000
G04 P0 ( dwell for no time -- G64 should not smooth over this point )
G01 F500.00000
G01 X-18.88527 Y37.41020
G01 X-18.88951 Y37.36903
G01 X-18.90127 Y37.63842
G01 X-18.89548 Y37.61279
G04 P0 ( dwell for no time -- G64 should not smooth over this point )
G00 Z2.00000 ( retract )

G00 X-18.97107 Y37.41919 ( rapid move to begin. )
G01 F250.00000
G01 Z-0.20000
G04 P0 ( dwell for no time -- G64 should not smooth over this point )
G01 F500.00000
G01 X-18.97107 Y37.41919
G01 X-18.98855 Y37.25285
G01 X-19.05284 Y37.03451
G01 X-19.16112 Y36.83428
G01 X-19.35372 Y36.62036
G01 X-19.51448 Y36.50553
G01 X-19.69431 Y36.42374
G01 X-19.91557 Y36.37022
G01 X-20.05949 Y36.35950
G01 X-21.65949 Y36.35950
G01 X-21.80340 Y36.37022
G01 X-22.02466 Y36.42374
G01 X-22.20449 Y36.50553
G01 X-22.41031 Y36.66095
G01 X-22.55786 Y36.83428
G01 X-22.65524 Y37.00616
G01 X-22.72568 Y37.22288
G01 X-22.74790 Y37.47985
G01 X-22.73043 Y37.64617
G01 X-22.66614 Y37.86453
G01 X-22.55786 Y38.06476
G01 X-22.36525 Y38.27865
G01 X-22.20449 Y38.39349
G01 X-22.02466 Y38.47530
G01 X-21.80340 Y38.52879
G01 X-21.65949 Y38.53954
G01 X-20.05949 Y38.53954
G01 X-19.91557 Y38.52879
G01 X-19.69431 Y38.47530
G01 X-19.51448 Y38.39349
G01 X-19.30866 Y38.23809
G01 X-19.16112 Y38.06476
G01 X-19.06373 Y37.89288
G01 X-18.99330 Y37.67614
G01 X-18.97107 Y37.41919
G01 X-19.16002 Y37.43905
G01 X-19.18187 Y37.25226
G01 X-19.23356 Y37.09321
G01 X-19.33795 Y36.91236
G01 X-19.44986 Y36.78808
G01 X-19.60071 Y36.67578
G01 X-19.78138 Y36.59354
G01 X-20.05949 Y36.54950
G01 X-21.65949 Y36.54950
G01 X-21.93762 Y36.59354
G01 X-22.11826 Y36.67578
G01 X-22.26911 Y36.78808
G01 X-22.38102 Y36.91236
G01 X-22.48542 Y37.09321
G01 X-22.53982 Y37.26237
G01 X-22.55895 Y37.43908
G01 X-22.53711 Y37.64675
G01 X-22.48168 Y37.81558
G01 X-22.39329 Y37.96976
G01 X-22.25357 Y38.12493
G01 X-22.10950 Y38.22894
G01 X-21.94737 Y38.30172
G01 X-21.76390 Y38.34296
G01 X-20.05949 Y38.34952
G01 X-19.78138 Y38.30547
G01 X-19.61882 Y38.23369
G01 X-19.46541 Y38.12493
G01 X-19.32568 Y37.96976
G01 X-19.23729 Y37.81558
G01 X-19.18187 Y37.64675
G01 X-19.16002 Y37.43905
G04 P0 ( dwell for no time -- G64 should not smooth over this point )
G00 Z2.00000 ( retract )

G00 X-18.93767 Y37.79910 ( rapid move to begin. )
G01 F250.00000
G01 Z-0.20000
G04 P0 ( dwell for no time -- G64 should not smooth over this point )
G01 F500.00000
G01 X-18.93767 Y37.79910
G01 X-18.90127 Y37.63842
G01 X-18.93767 Y37.79910
G01 X-19.00734 Y37.97499
G01 X-19.10437 Y38.13761
G01 X-19.47892 Y38.57885
G01 X-19.10437 Y38.13761
G04 P0 ( dwell for no time -- G64 should not smooth over this point )
G00 Z2.00000 ( retract )

G00 X-19.49058 Y38.59257 ( rapid move to begin. )
G01 F250.00000
G01 Z-0.20000
G04 P0 ( dwell for no time -- G64 should not smooth over this point )
G01 F500.00000
G01 X-19.49058 Y38.59257
G01 X-19.47892 Y38.57885
G01 X-19.71247 Y38.67987
G01 X-19.90689 Y38.71955
G01 X-19.58431 Y38.71955
G01 X-19.49083 Y38.59475
G01 X-19.50648 Y38.71952
G01 X-19.49088 Y38.84421
G01 X-19.10437 Y39.30143
G01 X-19.40960 Y38.95277
G01 X-19.58431 Y38.71955
G04 P0 ( dwell for no time -- G64 should not smooth over this point )
G00 Z2.00000 ( retract )

G00 X-19.49063 Y38.84644 ( rapid move to begin. )
G01 F250.00000
G01 Z-0.20000
G04 P0 ( dwell for no time -- G64 should not smooth over this point )
G01 F500.00000
G01 X-19.49063 Y38.84644
G01 X-19.61705 Y38.79016
G01 X-19.92213 Y38.71955
G01 X-19.90689 Y38.71955
G04 P0 ( dwell for no time -- G64 should not smooth over this point )
G00 Z2.00000 ( retract )

G00 X-19.92213 Y38.71955 ( rapid move to begin. )
G01 F250.00000
G01 Z-0.20000
G04 P0 ( dwell for no time -- G64 should not smooth over this point )
G01 F500.00000
G01 X-19.92213 Y38.71955
G01 X-21.81209 Y38.71955
G01 X-22.10193 Y38.64888
G01 X-22.22832 Y38.59265
G01 X-22.13464 Y38.71955
G01 X-21.81209 Y38.71955
G04 P0 ( dwell for no time -- G64 should not smooth over this point )
G00 Z2.00000 ( retract )

G00 X-21.79685 Y38.71955 ( rapid move to begin. )
G01 F250.00000
G01 Z-0.20000
G04 P0 ( dwell for no time -- G64 should not smooth over this point )
G01 F500.00000
G01 X-21.79685 Y38.71955
G01 X-22.00650 Y38.75914
G01 X-22.22829 Y38.84642
G01 X-22.13464 Y38.71955
G04 P0 ( dwell for no time -- G64 should not smooth over this point )
G00 Z2.00000 ( retract )

G00 X-19.92213 Y41.25955 ( rapid move to begin. )
G01 F250.00000
G01 Z-0.20000
G04 P0 ( dwell for no time -- G64 should not smooth over this point )
G01 F500.00000
G01 X-19.92213 Y41.25955
G01 X-21.81219 Y41.25952
G01 X-19.90676 Y41.25952
G01 X-19.61705 Y41.18888
G01 X-19.37483 Y41.06691
G01 X-19.48100 Y41.25952
G01 X-19.33996 Y41.01672
G01 X-19.37450 Y41.07618
G01 X-19.36993 Y41.20367
G01 X-19.32365 Y41.38898
G01 X-19.20600 Y41.57357
G01 X-19.48100 Y41.25952
G01 X-19.92213 Y41.25955
G01 X-19.71247 Y41.29914
G01 X-19.46426 Y41.39818
G01 X-19.24204 Y41.54667
G01 X-19.15456 Y41.63234
G01 X-19.20600 Y41.57357
G01 X-19.15456 Y41.63234
G01 X-18.97885 Y41.68939
G01 X-18.65012 Y41.73427
G01 X-18.91933 Y41.69749
G01 X-19.15456 Y41.63234
G04 P0 ( dwell for no time -- G64 should not smooth over this point )
G00 Z2.00000 ( retract )

G00 X-19.10437 Y40.67761 ( rapid move to begin. )
G01 F250.00000
G01 Z-0.20000
G04 P0 ( dwell for no time -- G64 should not smooth over this point )
G01 F500.00000
G01 X-19.10437 Y40.67761
G01 X-19.36533 Y41.05266
G01 X-19.10437 Y40.67761
G01 X-19.31875 Y40.98020
G01 X-19.09569 Y40.66155
G01 X-19.10437 Y40.67761
G01 X-19.00181 Y40.50362
G01 X-18.98037 Y40.44862
G01 X-19.09569 Y40.66155
G01 X-18.97110 Y40.43112
G01 X-18.97986 Y40.44733
G01 X-18.93767 Y40.33910
G01 X-18.90087 Y40.17268
G01 X-18.97110 Y40.43112
G04 P0 ( dwell for no time -- G64 should not smooth over this point )
G00 Z2.00000 ( retract )

G00 X-18.89548 Y40.15279 ( rapid move to begin. )
G01 F250.00000
G01 Z-0.20000
G04 P0 ( dwell for no time -- G64 should not smooth over this point )
G01 F500.00000
G01 X-18.89548 Y40.15279
G01 X-18.90087 Y40.17268
G01 X-18.89147 Y39.90585
G01 X-18.89548 Y40.15279
G01 X-18.88527 Y40.02881
G01 X-18.89548 Y39.82627
G04 P0 ( dwell for no time -- G64 should not smooth over this point )
G00 Z2.00000 ( retract )

G00 X-18.97107 Y39.95919 ( rapid move to begin. )
G01 F250.00000
G01 Z-0.20000
G04 P0 ( dwell for no time -- G64 should not smooth over this point )
G01 F500.00000
G01 X-18.97107 Y39.95919
G01 X-18.98855 Y39.79285
G01 X-19.05284 Y39.57451
G01 X-19.16112 Y39.37428
G01 X-19.35372 Y39.16036
G01 X-19.51448 Y39.04553
G01 X-19.69431 Y38.96374
G01 X-19.91557 Y38.91022
G01 X-20.05949 Y38.89950
G01 X-21.65949 Y38.89950
G01 X-21.80340 Y38.91022
G01 X-22.02466 Y38.96374
G01 X-22.20449 Y39.04553
G01 X-22.41031 Y39.20095
G01 X-22.55786 Y39.37428
G01 X-22.65524 Y39.54616
G01 X-22.72568 Y39.76288
G01 X-22.74790 Y40.01985
G01 X-22.73043 Y40.18617
G01 X-22.66614 Y40.40453
G01 X-22.55786 Y40.60476
G01 X-22.36525 Y40.81865
G01 X-22.20449 Y40.93349
G01 X-22.02466 Y41.01530
G01 X-21.80340 Y41.06879
G01 X-21.65949 Y41.07954
G01 X-20.05949 Y41.07954
G01 X-19.91557 Y41.06879
G01 X-19.69431 Y41.01530
G01 X-19.51448 Y40.93349
G01 X-19.30866 Y40.77809
G01 X-19.16112 Y40.60476
G01 X-19.06373 Y40.43288
G01 X-18.99330 Y40.21614
G01 X-18.97107 Y39.95919
G01 X-19.16002 Y39.97905
G01 X-19.18187 Y39.79226
G01 X-19.23356 Y39.63321
G01 X-19.33795 Y39.45236
G01 X-19.44986 Y39.32808
G01 X-19.60071 Y39.21578
G01 X-19.78138 Y39.13354
G01 X-20.05949 Y39.08950
G01 X-21.65949 Y39.08950
G01 X-21.93762 Y39.13354
G01 X-22.11826 Y39.21578
G01 X-22.26911 Y39.32808
G01 X-22.38102 Y39.45236
G01 X-22.48542 Y39.63321
G01 X-22.53982 Y39.80237
G01 X-22.55895 Y39.97908
G01 X-22.53711 Y40.18675
G01 X-22.48168 Y40.35558
G01 X-22.39329 Y40.50976
G01 X-22.25357 Y40.66493
G01 X-22.10950 Y40.76894
G01 X-21.94737 Y40.84172
G01 X-21.76390 Y40.88296
G01 X-20.05949 Y40.88952
G01 X-19.78138 Y40.84547
G01 X-19.61882 Y40.77369
G01 X-19.46541 Y40.66493
G01 X-19.32568 Y40.50976
G01 X-19.23729 Y40.35558
G01 X-19.18187 Y40.18675
G01 X-19.16002 Y39.97905
G04 P0 ( dwell for no time -- G64 should not smooth over this point )
G00 Z2.00000 ( retract )

G00 X-18.90247 Y39.78383 ( rapid move to begin. )
G01 F250.00000
G01 Z-0.20000
G04 P0 ( dwell for no time -- G64 should not smooth over this point )
G01 F500.00000
G01 X-18.90247 Y39.78383
G01 X-18.89147 Y39.90585
G01 X-18.91014 Y39.77230
G01 X-18.90026 Y39.80514
G01 X-18.95365 Y39.61213
G01 X-18.90247 Y39.78383
G01 X-18.96274 Y39.57662
G01 X-18.93767 Y39.63994
G04 P0 ( dwell for no time -- G64 should not smooth over this point )
G00 Z2.00000 ( retract )

G00 X-18.97110 Y39.54794 ( rapid move to begin. )
G01 F250.00000
G01 Z-0.20000
G04 P0 ( dwell for no time -- G64 should not smooth over this point )
G01 F500.00000
G01 X-18.97110 Y39.54794
G01 X-18.95365 Y39.61213
G01 X-19.00734 Y39.46407
G01 X-18.98880 Y39.51515
G01 X-19.10437 Y39.30143
G01 X-19.00734 Y39.46407
G04 P0 ( dwell for no time -- G64 should not smooth over this point )
G00 Z2.00000 ( retract )

G00 X-15.28276 Y39.60011 ( rapid move to begin. )
G01 F250.00000
G01 Z-0.20000
G04 P0 ( dwell for no time -- G64 should not smooth over this point )
G01 F500.00000
G01 X-15.28276 Y39.60011
G01 X-15.34225 Y39.78317
G01 X-15.37039 Y40.07481
G01 X-15.36001 Y40.21632
G01 X-15.37072 Y39.97342
G01 X-15.34225 Y39.78317
G01 X-15.37072 Y40.00684
G01 X-15.37072 Y40.16562
G01 X-15.34225 Y40.35589
G01 X-15.34817 Y40.30918
G01 X-15.28276 Y40.53895
G01 X-15.30913 Y40.44634
G01 X-15.25167 Y40.60331
G01 X-15.15960 Y40.75792
G01 X-15.26229 Y40.57428
G01 X-14.99145 Y41.05690
G01 X-15.02757 Y40.97969
G04 P0 ( dwell for no time -- G64 should not smooth over this point )
G00 Z2.00000 ( retract )

G00 X-14.95432 Y41.12297 ( rapid move to begin. )
G01 F250.00000
G01 Z-0.20000
G04 P0 ( dwell for no time -- G64 should not smooth over this point )
G01 F500.00000
G01 X-14.95432 Y41.12297
G01 X-14.99145 Y41.05690
G01 X-14.95493 Y41.13501
G01 X-14.95960 Y41.22406
G01 X-15.05805 Y41.49091
G01 X-15.16496 Y41.61918
G01 X-15.06671 Y41.58253
G01 X-14.85935 Y41.33950
G01 X-14.95432 Y41.12297
G01 X-14.76971 Y41.24413
G01 X-14.54144 Y41.33950
G01 X-14.85935 Y41.33950
G01 X-15.04662 Y41.55899
G01 X-15.17357 Y41.62952
G01 X-15.04781 Y41.62952
G01 X-14.76971 Y41.43488
G01 X-14.54141 Y41.33953
G04 P0 ( dwell for no time -- G64 should not smooth over this point )
G00 Z2.00000 ( retract )

G00 X-15.35820 Y41.69129 ( rapid move to begin. )
G01 F250.00000
G01 Z-0.20000
G04 P0 ( dwell for no time -- G64 should not smooth over this point )
G01 F500.00000
G01 X-15.35820 Y41.69129
G01 X-15.16496 Y41.61918
G01 X-15.35820 Y41.69129
G01 X-15.26450 Y41.65632
G01 X-15.40372 Y41.69736
G01 X-15.35820 Y41.69129
G01 X-15.64487 Y41.72962
G01 X-15.41931 Y41.70196
G01 X-15.45536 Y41.71260
G01 X-15.67961 Y41.73427
G01 X-15.64487 Y41.72962
G01 X-18.65012 Y41.73427
G01 X-15.67961 Y41.73427
G04 P0 ( dwell for no time -- G64 should not smooth over this point )
G00 Z2.00000 ( retract )

G00 X-14.69023 Y43.81953 ( rapid move to begin. )
G01 F250.00000
G01 Z-0.20000
G04 P0 ( dwell for no time -- G64 should not smooth over this point )
G01 F500.00000
G01 X-14.69023 Y43.81953
G01 X-14.23832 Y43.87719
G01 X-13.87172 Y43.85791
G01 X-13.70680 Y43.83384
G01 X-13.97182 Y43.87254
G01 X-14.23832 Y43.87719
G01 X-14.50484 Y43.85385
G01 X-14.70921 Y43.80976
G01 X-14.69023 Y43.81953
G01 X-14.99948 Y43.81951
G01 X-15.18317 Y43.85606
G01 X-15.28236 Y43.91486
G01 X-15.21416 Y43.72390
G01 X-15.09282 Y43.70818
G01 X-14.70921 Y43.80976
G01 X-14.85663 Y43.73396
G01 X-15.04781 Y43.58951
G01 X-15.48751 Y43.58951
G01 X-15.52130 Y43.57757
G01 X-15.21416 Y43.72390
G04 P0 ( dwell for no time -- G64 should not smooth over this point )
G00 Z2.00000 ( retract )

G00 X-15.98594 Y43.48476 ( rapid move to begin. )
G01 F250.00000
G01 Z-0.20000
G04 P0 ( dwell for no time -- G64 should not smooth over this point )
G01 F500.00000
G01 X-15.98594 Y43.48476
G01 X-18.60313 Y43.48672
G01 X-15.95937 Y43.48837
G01 X-15.98594 Y43.48476
G01 X-15.81190 Y43.50851
G01 X-15.89544 Y43.49175
G01 X-15.81487 Y43.49797
G01 X-15.59463 Y43.55217
G01 X-15.65719 Y43.52967
G04 P0 ( dwell for no time -- G64 should not smooth over this point )
G00 Z2.00000 ( retract )

G00 X-15.56006 Y43.55913 ( rapid move to begin. )
G01 F250.00000
G01 Z-0.20000
G04 P0 ( dwell for no time -- G64 should not smooth over this point )
G01 F500.00000
G01 X-15.56006 Y43.55913
G01 X-15.60258 Y43.54890
G01 X-15.46653 Y43.59830
G01 X-15.35678 Y43.74704
G01 X-15.28652 Y43.91539
G01 X-15.29562 Y43.95195
G01 X-15.28236 Y43.91486
G01 X-15.32229 Y44.02660
G04 P0 ( dwell for no time -- G64 should not smooth over this point )
G00 Z2.00000 ( retract )

G00 X-15.37403 Y44.26696 ( rapid move to begin. )
G01 F250.00000
G01 Z-0.20000
G04 P0 ( dwell for no time -- G64 should not smooth over this point )
G01 F500.00000
G01 X-15.37403 Y44.26696
G01 X-15.37403 Y44.29594
G01 X-15.29562 Y43.95195
G01 X-15.37393 Y44.29551
G01 X-15.36897 Y46.04999
G01 X-15.37410 Y46.03038
G01 X-15.37403 Y44.29594
G01 X-15.36892 Y46.07300
G01 X-15.34073 Y46.15865
G01 X-15.29483 Y46.23304
G01 X-15.26029 Y46.26032
G01 X-15.34073 Y46.15865
G01 X-15.36897 Y46.05004
G04 P0 ( dwell for no time -- G64 should not smooth over this point )
G00 Z2.00000 ( retract )

G00 X-15.15858 Y46.34079 ( rapid move to begin. )
G01 F250.00000
G01 Z-0.20000
G04 P0 ( dwell for no time -- G64 should not smooth over this point )
G01 F500.00000
G01 X-15.15858 Y46.34079
G01 X-15.26029 Y46.26032
G01 X-15.23301 Y46.29487
G01 X-15.15858 Y46.34079
G01 X-15.03034 Y46.37414
G01 X-13.26860 Y46.37414
G01 X-13.14035 Y46.34079
G01 X-13.06593 Y46.29487
G01 X-12.88094 Y46.07475
G01 X-12.70652 Y46.03797
G01 X-12.53548 Y46.02476
G01 X-11.52262 Y46.02387
G01 X-11.35496 Y46.00147
G01 X-11.10170 Y45.89657
G01 X-10.99090 Y45.81526
G01 X-9.96977 Y44.79761
G01 X-9.77670 Y44.63947
G01 X-9.52837 Y44.61478
G04 P0 ( dwell for no time -- G64 should not smooth over this point )
G00 Z2.00000 ( retract )

G00 X-9.32027 Y42.81938 ( rapid move to begin. )
G01 F250.00000
G01 Z-0.20000
G04 P0 ( dwell for no time -- G64 should not smooth over this point )
G01 F500.00000
G01 X-9.32027 Y42.81938
G01 X-9.47792 Y42.85106
G01 X-9.12949 Y42.75952
G01 X-9.06962 Y42.56876
G01 X-9.12967 Y42.75065
G01 X-9.06962 Y42.56876
G01 X-9.02471 Y42.24001
G01 X-9.02834 Y37.71642
G01 X-9.02471 Y42.24001
G04 P0 ( dwell for no time -- G64 should not smooth over this point )
G00 Z2.00000 ( retract )

G00 X-10.48493 Y42.92965 ( rapid move to begin. )
G01 F250.00000
G01 Z-0.20000
G04 P0 ( dwell for no time -- G64 should not smooth over this point )
G01 F500.00000
G01 X-10.48493 Y42.92965
G01 X-10.27066 Y42.87478
G01 X-9.47792 Y42.85106
G01 X-10.21816 Y42.86673
G01 X-10.35400 Y42.88758
G01 X-10.48493 Y42.92965
G01 X-10.60726 Y42.99249
G01 X-10.76215 Y43.11568
G01 X-10.60726 Y42.99249
G04 P0 ( dwell for no time -- G64 should not smooth over this point )
G00 Z2.00000 ( retract )

G00 X-11.73919 Y44.09144 ( rapid move to begin. )
G01 F250.00000
G01 Z-0.20000
G04 P0 ( dwell for no time -- G64 should not smooth over this point )
G01 F500.00000
G01 X-11.73919 Y44.09144
G01 X-10.76215 Y43.11568
G01 X-11.73919 Y44.09144
G01 X-11.93225 Y44.24958
G01 X-12.18061 Y44.27427
G01 X-12.70652 Y44.26106
G01 X-12.18061 Y44.27427
G04 P0 ( dwell for no time -- G64 should not smooth over this point )
G00 Z2.00000 ( retract )

G00 X-13.35879 Y43.75410 ( rapid move to begin. )
G01 F250.00000
G01 Z-0.20000
G04 P0 ( dwell for no time -- G64 should not smooth over this point )
G01 F500.00000
G01 X-13.35879 Y43.75410
G01 X-13.27776 Y43.82182
G01 X-13.60865 Y43.81951
G01 X-13.35879 Y43.75410
G01 X-13.26580 Y43.55271
G01 X-13.31068 Y43.63831
G01 X-13.44236 Y43.73396
G01 X-13.58005 Y43.80480
G01 X-13.70680 Y43.83384
G01 X-13.60865 Y43.81951
G04 P0 ( dwell for no time -- G64 should not smooth over this point )
G00 Z2.00000 ( retract )

G00 X-12.70652 Y44.26106 ( rapid move to begin. )
G01 F250.00000
G01 Z-0.20000
G04 P0 ( dwell for no time -- G64 should not smooth over this point )
G01 F500.00000
G01 X-12.70652 Y44.26106
G01 X-12.88097 Y44.22431
G01 X-13.07721 Y43.98951
G01 X-13.27776 Y43.82182
G01 X-13.07721 Y43.98951
G01 X-13.27520 Y43.82228
G01 X-13.30383 Y43.69507
G01 X-13.30870 Y43.64562
G01 X-13.26710 Y43.55553
G01 X-13.01617 Y43.07895
G01 X-12.95077 Y42.84928
G01 X-12.92526 Y42.64887
G01 X-12.92824 Y42.51342
G01 X-12.95671 Y42.32314
G01 X-12.92824 Y42.54679
G01 X-12.94195 Y42.79731
G01 X-12.92854 Y42.61484
G01 X-12.95671 Y42.32314
G01 X-13.04149 Y42.09137
G01 X-13.01391 Y42.14700
G04 P0 ( dwell for no time -- G64 should not smooth over this point )
G00 Z2.00000 ( retract )

G00 X-13.00949 Y42.60950 ( rapid move to begin. )
G01 F250.00000
G01 Z-0.20000
G04 P0 ( dwell for no time -- G64 should not smooth over this point )
G01 F500.00000
G01 X-13.00949 Y42.60950
G01 X-13.04226 Y42.87585
G01 X-13.12183 Y43.10023
G01 X-13.22722 Y43.27958
G01 X-13.38668 Y43.45670
G01 X-13.60654 Y43.61057
G01 X-13.79722 Y43.69373
G01 X-14.00034 Y43.73851
G01 X-14.23834 Y43.74486
G01 X-14.50177 Y43.69373
G01 X-14.69244 Y43.61057
G01 X-14.88871 Y43.47580
G01 X-14.96592 Y43.39952
G01 X-19.40996 Y43.39952
G01 X-19.51448 Y43.47349
G01 X-19.69431 Y43.55530
G01 X-19.94554 Y43.61354
G01 X-21.77343 Y43.61354
G01 X-22.02466 Y43.55530
G01 X-22.20449 Y43.47349
G01 X-22.36525 Y43.35865
G01 X-22.52222 Y43.19381
G01 X-22.66614 Y42.94453
G01 X-22.72568 Y42.75614
G01 X-22.74790 Y42.49919
G01 X-22.73043 Y42.33285
G01 X-22.66614 Y42.11451
G01 X-22.52222 Y41.86523
G01 X-22.38885 Y41.71946
G01 X-22.20449 Y41.58553
G01 X-22.02466 Y41.50374
G01 X-21.80340 Y41.45022
G01 X-20.05949 Y41.43950
G01 X-19.91557 Y41.45022
G01 X-19.69431 Y41.50374
G01 X-19.51448 Y41.58553
G01 X-19.33013 Y41.71946
G01 X-19.23793 Y41.81951
G01 X-14.96592 Y41.81951
G01 X-14.91231 Y41.76234
G01 X-14.74494 Y41.63877
G01 X-14.50177 Y41.52531
G01 X-14.29864 Y41.48050
G01 X-14.06064 Y41.47418
G01 X-13.76887 Y41.53618
G01 X-13.55404 Y41.63877
G01 X-13.36522 Y41.78380
G01 X-13.22722 Y41.93943
G01 X-13.09717 Y42.17417
G01 X-13.02966 Y42.40247
G01 X-13.00949 Y42.60950
G01 X-13.19948 Y42.60950
G01 X-13.21861 Y42.42233
G01 X-13.27787 Y42.23287
G01 X-13.38091 Y42.05111
G01 X-13.50642 Y41.91093
G01 X-13.68381 Y41.78205
G01 X-13.85592 Y41.70600
G01 X-14.03984 Y41.66635
G01 X-14.23834 Y41.66417
G01 X-14.45282 Y41.70976
G01 X-14.63326 Y41.79249
G01 X-14.77703 Y41.89693
G01 X-14.88134 Y42.00951
G01 X-19.32553 Y42.00951
G01 X-19.44986 Y41.86808
G01 X-19.60071 Y41.75578
G01 X-19.78138 Y41.67354
G01 X-19.95507 Y41.63607
G01 X-21.74310 Y41.63389
G01 X-21.94737 Y41.67730
G01 X-22.11826 Y41.75578
G01 X-22.26911 Y41.86808
G01 X-22.38102 Y41.99236
G01 X-22.47693 Y42.15411
G01 X-22.54145 Y42.35271
G01 X-22.55895 Y42.53996
G01 X-22.53982 Y42.71664
G01 X-22.48168 Y42.89558
G01 X-22.38102 Y43.06665
G01 X-22.25357 Y43.20493
G01 X-22.10015 Y43.31369
G01 X-21.92748 Y43.38819
G01 X-21.65949 Y43.42952
G01 X-19.96541 Y43.42459
G01 X-19.77160 Y43.38172
G01 X-19.61882 Y43.31369
G01 X-19.47171 Y43.20950
G01 X-14.88132 Y43.20950
G01 X-14.77703 Y43.32208
G01 X-14.63326 Y43.42655
G01 X-14.45282 Y43.50927
G01 X-14.25912 Y43.55268
G01 X-14.06064 Y43.55487
G01 X-13.84614 Y43.50927
G01 X-13.66570 Y43.42655
G01 X-13.50642 Y43.30811
G01 X-13.38091 Y43.16790
G01 X-13.27787 Y42.98614
G01 X-13.21861 Y42.79670
G01 X-13.19948 Y42.60950
G04 P0 ( dwell for no time -- G64 should not smooth over this point )
G00 Z2.00000 ( retract )

G00 X-12.95671 Y42.89589 ( rapid move to begin. )
G01 F250.00000
G01 Z-0.20000
G04 P0 ( dwell for no time -- G64 should not smooth over this point )
G01 F500.00000
G01 X-12.95671 Y42.89589
G01 X-12.94195 Y42.79731
G01 X-12.95671 Y42.89589
G01 X-13.01617 Y43.07895
G01 X-13.26580 Y43.55271
G01 X-13.01617 Y43.07895
G04 P0 ( dwell for no time -- G64 should not smooth over this point )
G00 Z2.00000 ( retract )

G00 X-13.75744 Y41.33953 ( rapid move to begin. )
G01 F250.00000
G01 Z-0.20000
G04 P0 ( dwell for no time -- G64 should not smooth over this point )
G01 F500.00000
G01 X-13.75744 Y41.33953
G01 X-14.54144 Y41.33950
G01 X-13.75742 Y41.33950
G01 X-13.52173 Y41.43958
G01 X-13.59377 Y41.33953
G01 X-13.75742 Y41.33950
G01 X-13.52229 Y41.24011
G01 X-13.46918 Y41.17260
G01 X-13.52366 Y41.24918
G01 X-13.26893 Y40.92091
G01 X-13.59377 Y41.33953
G01 X-13.36026 Y41.65289
G01 X-13.29293 Y41.73044
G01 X-13.48490 Y41.48558
G01 X-13.18218 Y41.85810
G01 X-13.14563 Y41.91702
G01 X-13.29293 Y41.73044
G01 X-13.08909 Y42.00821
G01 X-13.12145 Y41.94847
G01 X-13.10497 Y41.96945
G01 X-13.03621 Y42.10582
G01 X-13.13593 Y41.92177
G01 X-13.52265 Y41.43115
G01 X-13.52366 Y41.25038
G01 X-13.59377 Y41.33953
G01 X-13.18218 Y40.82094
G01 X-13.16801 Y40.79810
G01 X-13.26893 Y40.92091
G01 X-13.13593 Y40.75729
G01 X-13.12138 Y40.73074
G01 X-13.14571 Y40.76214
G01 X-13.04154 Y40.58774
G01 X-13.10497 Y40.70961
G01 X-13.12084 Y40.72980
G01 X-13.08381 Y40.66226
G01 X-13.14363 Y40.75876
G01 X-13.36026 Y41.02617
G04 P0 ( dwell for no time -- G64 should not smooth over this point )
G00 Z2.00000 ( retract )

G00 X-13.01617 Y40.53895 ( rapid move to begin. )
G01 F250.00000
G01 Z-0.20000
G04 P0 ( dwell for no time -- G64 should not smooth over this point )
G01 F500.00000
G01 X-13.01617 Y40.53895
G01 X-13.08381 Y40.66226
G01 X-13.01617 Y40.53895
G01 X-13.03880 Y40.58020
G01 X-12.95671 Y40.35589
G04 P0 ( dwell for no time -- G64 should not smooth over this point )
G00 Z2.00000 ( retract )

G00 X-12.92824 Y40.16564 ( rapid move to begin. )
G01 F250.00000
G01 Z-0.20000
G04 P0 ( dwell for no time -- G64 should not smooth over this point )
G01 F500.00000
G01 X-12.92824 Y40.16564
G01 X-12.94292 Y39.87519
G01 X-12.92824 Y40.16564
G01 X-12.95671 Y40.35589
G01 X-12.93169 Y40.09694
G01 X-12.95077 Y39.82978
G01 X-12.94292 Y39.87519
G01 X-12.94403 Y39.85345
G01 X-13.03875 Y39.55889
G01 X-13.01617 Y39.60009
G04 P0 ( dwell for no time -- G64 should not smooth over this point )
G00 Z2.00000 ( retract )

G00 X-13.19948 Y40.06950 ( rapid move to begin. )
G01 F250.00000
G01 Z-0.20000
G04 P0 ( dwell for no time -- G64 should not smooth over this point )
G01 F500.00000
G01 X-13.19948 Y40.06950
G01 X-13.22295 Y40.27715
G01 X-13.28638 Y40.46524
G01 X-13.38752 Y40.63605
G01 X-13.50642 Y40.76811
G01 X-13.66570 Y40.88655
G01 X-13.85592 Y40.97301
G01 X-14.03984 Y41.01268
G01 X-14.23834 Y41.01487
G01 X-14.45282 Y40.96927
G01 X-14.63326 Y40.88655
G01 X-14.79257 Y40.76811
G01 X-14.91147 Y40.63605
G01 X-15.02112 Y40.44614
G01 X-15.08038 Y40.25670
G01 X-15.09948 Y40.06950
G01 X-15.08038 Y39.88233
G01 X-15.02112 Y39.69287
G01 X-14.91805 Y39.51111
G01 X-14.79257 Y39.37093
G01 X-14.61515 Y39.24205
G01 X-14.44307 Y39.16600
G01 X-14.25912 Y39.12635
G01 X-14.03984 Y39.12635
G01 X-13.84614 Y39.16976
G01 X-13.66570 Y39.25249
G01 X-13.52196 Y39.35693
G01 X-13.38091 Y39.51111
G01 X-13.27787 Y39.69287
G01 X-13.21861 Y39.88233
G01 X-13.19948 Y40.06950
G01 X-13.00949 Y40.06950
G01 X-13.02966 Y40.27654
G01 X-13.09717 Y40.50486
G01 X-13.22722 Y40.73958
G01 X-13.38668 Y40.91670
G01 X-13.60654 Y41.07057
G01 X-13.79722 Y41.15373
G01 X-14.00034 Y41.19851
G01 X-14.23834 Y41.20486
G01 X-14.50177 Y41.15373
G01 X-14.69244 Y41.07057
G01 X-14.93377 Y40.89523
G01 X-15.07177 Y40.73958
G01 X-15.20181 Y40.50486
G01 X-15.26933 Y40.27654
G01 X-15.28950 Y40.06950
G01 X-15.25673 Y39.80319
G01 X-15.17715 Y39.57878
G01 X-15.07177 Y39.39943
G01 X-14.91231 Y39.22234
G01 X-14.74494 Y39.09877
G01 X-14.50177 Y38.98531
G01 X-14.29864 Y38.94050
G01 X-14.06064 Y38.93418
G01 X-13.76887 Y38.99618
G01 X-13.55404 Y39.09877
G01 X-13.36522 Y39.24380
G01 X-13.22722 Y39.39943
G01 X-13.09717 Y39.63417
G01 X-13.02966 Y39.86247
G01 X-13.00949 Y40.06950
G04 P0 ( dwell for no time -- G64 should not smooth over this point )
G00 Z2.00000 ( retract )

G00 X-13.87502 Y38.79953 ( rapid move to begin. )
G01 F250.00000
G01 Z-0.20000
G04 P0 ( dwell for no time -- G64 should not smooth over this point )
G01 F500.00000
G01 X-13.87502 Y38.79953
G01 X-13.35221 Y39.13730
G01 X-13.18046 Y39.33143
G01 X-13.03875 Y39.55889
G01 X-13.13593 Y39.38177
G01 X-13.35221 Y39.13730
G01 X-13.87502 Y38.79953
G01 X-14.42391 Y38.79953
G01 X-14.79635 Y39.02709
G01 X-14.42391 Y38.79953
G04 P0 ( dwell for no time -- G64 should not smooth over this point )
G00 Z2.00000 ( retract )

G00 X-14.79635 Y39.02709 ( rapid move to begin. )
G01 F250.00000
G01 Z-0.20000
G04 P0 ( dwell for no time -- G64 should not smooth over this point )
G01 F500.00000
G01 X-14.79635 Y39.02709
G01 X-14.79686 Y39.02742
G04 P0 ( dwell for no time -- G64 should not smooth over this point )
G00 Z2.00000 ( retract )

G00 X-15.16300 Y39.38177 ( rapid move to begin. )
G01 F250.00000
G01 Z-0.20000
G04 P0 ( dwell for no time -- G64 should not smooth over this point )
G01 F500.00000
G01 X-15.16300 Y39.38177
G01 X-15.28276 Y39.60011
G01 X-15.11678 Y39.31812
G01 X-14.97753 Y39.17022
G01 X-15.13687 Y39.35226
G01 X-14.94555 Y39.13626
G01 X-14.97121 Y39.16521
G01 X-14.79785 Y39.02813
G01 X-14.94555 Y39.13626
G04 P0 ( dwell for no time -- G64 should not smooth over this point )
G00 Z2.00000 ( retract )

G00 X-15.07111 Y37.95615 ( rapid move to begin. )
G01 F250.00000
G01 Z-0.20000
G04 P0 ( dwell for no time -- G64 should not smooth over this point )
G01 F500.00000
G01 X-15.07111 Y37.95615
G01 X-15.24593 Y38.13098
G01 X-15.30789 Y38.00936
G01 X-15.36872 Y37.82221
G01 X-15.39945 Y37.62806
G01 X-15.07111 Y37.95615
G04 P0 ( dwell for no time -- G64 should not smooth over this point )
G00 Z2.00000 ( retract )

G00 X-12.89948 Y37.43110 ( rapid move to begin. )
G01 F250.00000
G01 Z-0.20000
G04 P0 ( dwell for no time -- G64 should not smooth over this point )
G01 F500.00000
G01 X-12.89948 Y37.43110
G01 X-12.93027 Y37.23677
G01 X-12.99105 Y37.04970
G01 X-13.05305 Y36.92806
G01 X-13.27787 Y37.15287
G01 X-13.21861 Y37.34233
G01 X-13.19948 Y37.52950
G01 X-13.21861 Y37.71670
G01 X-13.27779 Y37.90591
G01 X-13.05247 Y38.12986
G01 X-12.99107 Y38.00936
G01 X-12.93027 Y37.82226
G01 X-12.89948 Y37.62790
G01 X-12.89948 Y37.43110
G04 P0 ( dwell for no time -- G64 should not smooth over this point )
G00 Z2.00000 ( retract )

G00 X-13.54802 Y36.43306 ( rapid move to begin. )
G01 F250.00000
G01 Z-0.20000
G04 P0 ( dwell for no time -- G64 should not smooth over this point )
G01 F500.00000
G01 X-13.54802 Y36.43306
G01 X-13.77596 Y36.66100
G01 X-13.85592 Y36.62600
G01 X-14.03984 Y36.58635
G01 X-14.23834 Y36.58417
G01 X-14.44307 Y36.62600
G01 X-14.52303 Y36.66100
G01 X-14.75096 Y36.43306
G01 X-14.62930 Y36.37109
G01 X-14.44218 Y36.31030
G01 X-14.24784 Y36.27952
G01 X-14.05114 Y36.27952
G01 X-13.85678 Y36.31028
G01 X-13.66964 Y36.37109
G01 X-13.54802 Y36.43306
G04 P0 ( dwell for no time -- G64 should not smooth over this point )
G00 Z2.00000 ( retract )

G00 X-11.75816 Y34.48232 ( rapid move to begin. )
G01 F250.00000
G01 Z-0.20000
G04 P0 ( dwell for no time -- G64 should not smooth over this point )
G01 F500.00000
G01 X-11.75816 Y34.48232
G01 X-11.80881 Y34.47117
G01 X-11.71048 Y34.48237
G01 X-11.75816 Y34.48232
G01 X-9.98592 Y34.48478
G01 X-9.94008 Y34.48831
G01 X-11.70967 Y34.48247
G01 X-9.91201 Y34.48841
G01 X-9.93960 Y34.48834
G01 X-9.81486 Y34.49799
G01 X-9.60607 Y34.54805
G01 X-9.89522 Y34.49177
G01 X-9.59479 Y34.55212
G01 X-9.65727 Y34.52964
G04 P0 ( dwell for no time -- G64 should not smooth over this point )
G00 Z2.00000 ( retract )

G00 X-15.30494 Y28.93757 ( rapid move to begin. )
G01 F250.00000
G01 Z-0.20000
G04 P0 ( dwell for no time -- G64 should not smooth over this point )
G01 F500.00000
G01 X-15.30494 Y28.93757
G01 X-15.05168 Y29.04248
G01 X-14.89663 Y29.16582
G01 X-15.05168 Y29.04248
G01 X-15.17400 Y28.97966
G01 X-15.30494 Y28.93757
G01 X-15.50948 Y28.91428
G01 X-18.63551 Y28.91062
G01 X-18.94585 Y28.84824
G01 X-18.63551 Y28.91062
G04 P0 ( dwell for no time -- G64 should not smooth over this point )
G00 Z2.00000 ( retract )

G00 X-19.25926 Y28.24860 ( rapid move to begin. )
G01 F250.00000
G01 Z-0.20000
G04 P0 ( dwell for no time -- G64 should not smooth over this point )
G01 F500.00000
G01 X-19.25926 Y28.24860
G01 X-19.27884 Y28.29191
G01 X-18.97110 Y27.73112
G01 X-18.98194 Y27.75063
G01 X-18.93767 Y27.63910
G01 X-18.89599 Y27.40296
G01 X-18.97110 Y27.73112
G04 P0 ( dwell for no time -- G64 should not smooth over this point )
G00 Z2.00000 ( retract )

G00 X-19.00831 Y27.81698 ( rapid move to begin. )
G01 F250.00000
G01 Z-0.20000
G04 P0 ( dwell for no time -- G64 should not smooth over this point )
G01 F500.00000
G01 X-19.00831 Y27.81698
G01 X-19.28812 Y28.31240
G01 X-19.23506 Y28.56899
G01 X-19.08431 Y28.79566
G01 X-19.26241 Y28.71492
G01 X-19.39995 Y28.55955
G01 X-19.27884 Y28.29191
G01 X-19.46426 Y28.42084
G01 X-19.61705 Y28.48888
G01 X-19.90689 Y28.55955
G01 X-19.39995 Y28.55955
G01 X-19.26241 Y28.71492
G01 X-18.89028 Y28.86937
G01 X-19.08431 Y28.79566
G01 X-18.95578 Y28.84626
G01 X-19.06000 Y28.80951
G01 X-19.29317 Y28.80951
G01 X-19.46426 Y28.69818
G01 X-19.61705 Y28.63016
G01 X-19.87608 Y28.56437
G01 X-21.79685 Y28.55955
G01 X-19.90689 Y28.55955
G04 P0 ( dwell for no time -- G64 should not smooth over this point )
G00 Z2.00000 ( retract )

G00 X-19.16002 Y27.27905 ( rapid move to begin. )
G01 F250.00000
G01 Z-0.20000
G04 P0 ( dwell for no time -- G64 should not smooth over this point )
G01 F500.00000
G01 X-19.16002 Y27.27905
G01 X-19.18187 Y27.48675
G01 X-19.24204 Y27.66491
G01 X-19.33137 Y27.81853
G01 X-19.45728 Y27.95835
G01 X-19.60071 Y28.06325
G01 X-19.78138 Y28.14547
G01 X-20.05949 Y28.18952
G01 X-21.76390 Y28.18296
G01 X-21.94737 Y28.14172
G01 X-22.11826 Y28.06325
G01 X-22.25357 Y27.96493
G01 X-22.39329 Y27.80976
G01 X-22.48168 Y27.65558
G01 X-22.53711 Y27.48675
G01 X-22.55895 Y27.27908
G01 X-22.53982 Y27.10237
G01 X-22.48542 Y26.93321
G01 X-22.38102 Y26.75236
G01 X-22.26169 Y26.62066
G01 X-22.11826 Y26.51578
G01 X-21.93762 Y26.43354
G01 X-21.65949 Y26.38950
G01 X-20.05949 Y26.38950
G01 X-19.78138 Y26.43354
G01 X-19.60071 Y26.51578
G01 X-19.45728 Y26.62066
G01 X-19.33795 Y26.75236
G01 X-19.23356 Y26.93321
G01 X-19.17915 Y27.10237
G01 X-19.16002 Y27.27905
G01 X-18.97107 Y27.25919
G01 X-18.99330 Y27.51614
G01 X-19.05284 Y27.70453
G01 X-19.17765 Y27.93021
G01 X-19.30866 Y28.07809
G01 X-19.48903 Y28.21695
G01 X-19.69431 Y28.31530
G01 X-19.91557 Y28.36879
G01 X-20.05949 Y28.37954
G01 X-21.65949 Y28.37954
G01 X-21.80340 Y28.36879
G01 X-22.02466 Y28.31530
G01 X-22.17744 Y28.24728
G01 X-22.36525 Y28.11865
G01 X-22.55786 Y27.90476
G01 X-22.66614 Y27.70453
G01 X-22.73043 Y27.48617
G01 X-22.74790 Y27.31985
G01 X-22.72568 Y27.06288
G01 X-22.65524 Y26.84616
G01 X-22.55786 Y26.67428
G01 X-22.41031 Y26.50095
G01 X-22.22994 Y26.36206
G01 X-22.02466 Y26.26374
G01 X-21.80340 Y26.21022
G01 X-21.65949 Y26.19950
G01 X-20.05949 Y26.19950
G01 X-19.91557 Y26.21022
G01 X-19.69431 Y26.26374
G01 X-19.48903 Y26.36206
G01 X-19.35372 Y26.46036
G01 X-19.16112 Y26.67428
G01 X-19.05284 Y26.87451
G01 X-18.98855 Y27.09285
G01 X-18.97107 Y27.25919
G04 P0 ( dwell for no time -- G64 should not smooth over this point )
G00 Z2.00000 ( retract )

G00 X-18.88527 Y27.25020 ( rapid move to begin. )
G01 F250.00000
G01 Z-0.20000
G04 P0 ( dwell for no time -- G64 should not smooth over this point )
G01 F500.00000
G01 X-18.88527 Y27.25020
G01 X-18.89599 Y27.40296
G01 X-18.89243 Y27.19884
G01 X-18.88527 Y27.25020
G01 X-18.91014 Y27.07230
G01 X-18.89370 Y27.16844
G01 X-18.90026 Y27.10514
G01 X-18.89548 Y27.12627
G04 P0 ( dwell for no time -- G64 should not smooth over this point )
G00 Z2.00000 ( retract )

G00 X-18.93767 Y26.93994 ( rapid move to begin. )
G01 F250.00000
G01 Z-0.20000
G04 P0 ( dwell for no time -- G64 should not smooth over this point )
G01 F500.00000
G01 X-18.93767 Y26.93994
G01 X-18.90026 Y27.10514
G01 X-18.95365 Y26.91213
G01 X-18.91408 Y27.04410
G01 X-18.93767 Y26.93994
G01 X-18.98880 Y26.81515
G01 X-18.96449 Y26.87220
G01 X-18.97110 Y26.84794
G01 X-19.10437 Y26.60143
G01 X-19.00734 Y26.76407
G04 P0 ( dwell for no time -- G64 should not smooth over this point )
G00 Z2.00000 ( retract )

G00 X-19.49063 Y26.14644 ( rapid move to begin. )
G01 F250.00000
G01 Z-0.20000
G04 P0 ( dwell for no time -- G64 should not smooth over this point )
G01 F500.00000
G01 X-19.49063 Y26.14644
G01 X-19.61705 Y26.09016
G01 X-19.92213 Y26.01955
G01 X-19.90689 Y26.01955
G04 P0 ( dwell for no time -- G64 should not smooth over this point )
G00 Z2.00000 ( retract )

G00 X-19.92213 Y26.01955 ( rapid move to begin. )
G01 F250.00000
G01 Z-0.20000
G04 P0 ( dwell for no time -- G64 should not smooth over this point )
G01 F500.00000
G01 X-19.92213 Y26.01955
G01 X-21.81209 Y26.01955
G01 X-22.10193 Y25.94888
G01 X-22.22832 Y25.89265
G01 X-22.13464 Y26.01955
G01 X-21.81209 Y26.01955
G04 P0 ( dwell for no time -- G64 should not smooth over this point )
G00 Z2.00000 ( retract )

G00 X-19.58431 Y26.01955 ( rapid move to begin. )
G01 F250.00000
G01 Z-0.20000
G04 P0 ( dwell for no time -- G64 should not smooth over this point )
G01 F500.00000
G01 X-19.58431 Y26.01955
G01 X-19.40960 Y26.25277
G01 X-19.10437 Y26.60143
G01 X-19.49088 Y26.14421
G01 X-19.50648 Y26.01952
G01 X-19.49083 Y25.89475
G01 X-19.58431 Y26.01955
G01 X-19.90689 Y26.01955
G01 X-19.66393 Y25.96687
G01 X-19.49083 Y25.89475
G01 X-19.10437 Y25.43761
G01 X-19.00734 Y25.27499
G01 X-18.93767 Y25.09910
G01 X-19.00493 Y25.26892
G01 X-19.10437 Y25.43761
G01 X-19.49058 Y25.89257
G04 P0 ( dwell for no time -- G64 should not smooth over this point )
G00 Z2.00000 ( retract )

G00 X-18.90247 Y24.95521 ( rapid move to begin. )
G01 F250.00000
G01 Z-0.20000
G04 P0 ( dwell for no time -- G64 should not smooth over this point )
G01 F500.00000
G01 X-18.90247 Y24.95521
G01 X-18.93767 Y25.09910
G01 X-18.89548 Y24.91279
G01 X-18.88959 Y24.77180
G01 X-18.90148 Y24.93931
G01 X-18.89175 Y24.66006
G01 X-18.89548 Y24.91279
G01 X-18.88624 Y24.69138
G01 X-18.88527 Y24.71020
G04 P0 ( dwell for no time -- G64 should not smooth over this point )
G00 Z2.00000 ( retract )

G00 X-18.97107 Y24.71919 ( rapid move to begin. )
G01 F250.00000
G01 Z-0.20000
G04 P0 ( dwell for no time -- G64 should not smooth over this point )
G01 F500.00000
G01 X-18.97107 Y24.71919
G01 X-18.98855 Y24.55285
G01 X-19.05284 Y24.33451
G01 X-19.16112 Y24.13428
G01 X-19.35372 Y23.92036
G01 X-19.48903 Y23.82206
G01 X-19.69431 Y23.72374
G01 X-19.91557 Y23.67022
G01 X-20.05949 Y23.65950
G01 X-21.65949 Y23.65950
G01 X-21.80340 Y23.67022
G01 X-22.02466 Y23.72374
G01 X-22.22994 Y23.82206
G01 X-22.41031 Y23.96095
G01 X-22.54132 Y24.10880
G01 X-22.66614 Y24.33451
G01 X-22.72568 Y24.52288
G01 X-22.74790 Y24.77985
G01 X-22.73043 Y24.94617
G01 X-22.66614 Y25.16453
G01 X-22.55786 Y25.36476
G01 X-22.36525 Y25.57865
G01 X-22.17744 Y25.70728
G01 X-22.02466 Y25.77530
G01 X-21.80340 Y25.82879
G01 X-21.65949 Y25.83954
G01 X-20.05949 Y25.83954
G01 X-19.91557 Y25.82879
G01 X-19.69431 Y25.77530
G01 X-19.48903 Y25.67695
G01 X-19.30866 Y25.53809
G01 X-19.17765 Y25.39021
G01 X-19.05284 Y25.16453
G01 X-18.99330 Y24.97614
G01 X-18.97107 Y24.71919
G01 X-19.16002 Y24.73905
G01 X-19.17915 Y24.56237
G01 X-19.23356 Y24.39321
G01 X-19.33795 Y24.21236
G01 X-19.45728 Y24.08066
G01 X-19.60071 Y23.97578
G01 X-19.78138 Y23.89354
G01 X-20.05949 Y23.84950
G01 X-21.65949 Y23.84950
G01 X-21.93762 Y23.89354
G01 X-22.10015 Y23.96532
G01 X-22.25357 Y24.07408
G01 X-22.38760 Y24.22049
G01 X-22.48542 Y24.39321
G01 X-22.53982 Y24.56237
G01 X-22.55895 Y24.73908
G01 X-22.53711 Y24.94675
G01 X-22.48168 Y25.11558
G01 X-22.39329 Y25.26976
G01 X-22.25357 Y25.42493
G01 X-22.11826 Y25.52325
G01 X-21.94737 Y25.60172
G01 X-21.76390 Y25.64296
G01 X-20.05949 Y25.64952
G01 X-19.78138 Y25.60547
G01 X-19.60071 Y25.52325
G01 X-19.45728 Y25.41835
G01 X-19.33137 Y25.27853
G01 X-19.24204 Y25.12491
G01 X-19.18187 Y24.94675
G01 X-19.16002 Y24.73905
G04 P0 ( dwell for no time -- G64 should not smooth over this point )
G00 Z2.00000 ( retract )

G00 X-18.93767 Y24.39994 ( rapid move to begin. )
G01 F250.00000
G01 Z-0.20000
G04 P0 ( dwell for no time -- G64 should not smooth over this point )
G01 F500.00000
G01 X-18.93767 Y24.39994
G01 X-18.88951 Y24.66903
G01 X-18.91928 Y24.46694
G01 X-18.93206 Y24.43166
G01 X-18.92203 Y24.48851
G01 X-18.95365 Y24.37213
G01 X-18.93206 Y24.43166
G01 X-18.93767 Y24.39994
G01 X-19.00734 Y24.22407
G01 X-18.98880 Y24.27515
G01 X-19.10437 Y24.06143
G01 X-19.00734 Y24.22407
G04 P0 ( dwell for no time -- G64 should not smooth over this point )
G00 Z2.00000 ( retract )

G00 X-19.50734 Y23.68069 ( rapid move to begin. )
G01 F250.00000
G01 Z-0.20000
G04 P0 ( dwell for no time -- G64 should not smooth over this point )
G01 F500.00000
G01 X-19.50734 Y23.68069
G01 X-19.23724 Y23.91030
G01 X-19.10437 Y24.06143
G01 X-19.24397 Y23.90268
G01 X-19.65878 Y23.53334
G01 X-19.91908 Y23.48018
G01 X-19.71334 Y23.48028
G01 X-19.65878 Y23.53334
G01 X-19.68428 Y23.43088
G01 X-19.91908 Y23.48018
G01 X-22.21219 Y23.48950
G01 X-22.22636 Y23.60050
G01 X-22.17043 Y23.53304
G01 X-21.85766 Y23.48907
G01 X-22.00650 Y23.51914
G01 X-22.22705 Y23.60586
G01 X-22.17043 Y23.53304
G04 P0 ( dwell for no time -- G64 should not smooth over this point )
G00 Z2.00000 ( retract )

G00 X-19.54829 Y20.77409 ( rapid move to begin. )
G01 F250.00000
G01 Z-0.20000
G04 P0 ( dwell for no time -- G64 should not smooth over this point )
G01 F500.00000
G01 X-19.54829 Y20.77409
G01 X-19.23719 Y20.50881
G01 X-19.10437 Y20.35761
G01 X-18.96272 Y20.08235
G01 X-19.00734 Y20.19499
G01 X-19.10437 Y20.35761
G01 X-19.24389 Y20.51643
G01 X-19.65987 Y20.88610
G01 X-19.90412 Y20.93886
G01 X-19.71235 Y20.93881
G01 X-19.65987 Y20.88610
G01 X-19.68342 Y20.98841
G01 X-19.91763 Y20.93962
G01 X-19.90412 Y20.93886
G01 X-22.21219 Y20.92951
G01 X-22.22692 Y20.81427
G01 X-22.17043 Y20.88603
G01 X-21.85550 Y20.93027
G01 X-22.10193 Y20.86888
G01 X-22.23690 Y20.80160
G01 X-22.22707 Y20.81318
G04 P0 ( dwell for no time -- G64 should not smooth over this point )
G00 Z2.00000 ( retract )

G00 X-22.61458 Y20.35761 ( rapid move to begin. )
G01 F250.00000
G01 Z-0.20000
