( pcb2gcode 2.0.0 )
( Software-independent Gcode )

G94 ( Millimeters per minute feed rate. )
G21 ( Units == Millimeters. )

G90 ( Absolute coordinates. )
G00 S1000 ( RPM spindle speed. )
G01 F500.00000 ( Feedrate. )


G00 Z5.00000 (Retract to tool change height)
T0
M5      (Spindle stop.)
G04 P1.00000 (Wait for spindle to stop)
(MSG, Change tool bit to mill diameter 0.33000mm)
M6      (Tool change.)
M0      (Temporary machine stop.)
M3 ( Spindle on clockwise. )
G04 P1.00000 (Wait for spindle to get up to speed)
G04 P0 ( dwell for no time -- G64 should not smooth over this point )
G00 Z2.00000 ( retract )

G00 X-8.16699 Y62.91148 ( rapid move to begin. )
G01 F250.00000
G01 Z-0.20000
G04 P0 ( dwell for no time -- G64 should not smooth over this point )
G01 F500.00000
G01 X-8.16699 Y62.91148
G01 X-8.42752 Y63.16701
G01 X-8.16699 Y63.16701
G01 X-8.16699 Y8.37154
G01 X-8.37301 Y8.16702
G01 X-8.16699 Y8.16702
G01 X-8.16699 Y8.37154
G04 P0 ( dwell for no time -- G64 should not smooth over this point )
G00 Z2.00000 ( retract )

G00 X-8.50245 Y9.59508 ( rapid move to begin. )
G01 F250.00000
G01 Z-0.20000
G04 P0 ( dwell for no time -- G64 should not smooth over this point )
G01 F500.00000
G01 X-8.50245 Y9.59508
G01 X-8.50245 Y47.18307
G01 X-8.54378 Y47.36130
G01 X-8.71192 Y47.59277
G01 X-8.94784 Y47.83168
G01 X-9.21815 Y48.04578
G01 X-9.47756 Y48.20615
G01 X-9.79912 Y48.35553
G01 X-10.14763 Y48.46569
G01 X-10.45734 Y48.52335
G01 X-10.79287 Y48.54707
G01 X-13.22200 Y48.57044
G01 X-13.22525 Y49.28974
G01 X-13.25362 Y49.41598
G01 X-13.34339 Y49.55030
G01 X-13.47768 Y49.64001
G01 X-13.60389 Y49.66833
G01 X-13.69967 Y49.66833
G01 X-13.82591 Y49.64001
G01 X-13.93523 Y49.57077
G01 X-14.03472 Y49.44448
G01 X-14.08148 Y49.25751
G01 X-14.08148 Y44.78101
G01 X-14.03472 Y44.59407
G01 X-13.96023 Y44.48828
G01 X-13.85456 Y44.38262
G01 X-13.78273 Y44.26616
G01 X-13.73930 Y44.13504
G01 X-13.73930 Y42.19895
G01 X-13.78273 Y42.06789
G01 X-13.98405 Y41.77736
G01 X-14.01555 Y41.61894
G01 X-13.98598 Y41.46543
G01 X-13.83665 Y41.17805
G01 X-13.76683 Y40.96319
G01 X-13.73150 Y40.74000
G01 X-13.73150 Y40.51402
G01 X-13.76683 Y40.29090
G01 X-13.83665 Y40.07599
G01 X-13.93924 Y39.87462
G01 X-14.18865 Y39.54399
G01 X-14.23541 Y39.35702
G01 X-14.18865 Y39.17005
G01 X-13.93924 Y38.83937
G01 X-13.83665 Y38.63808
G01 X-13.76683 Y38.42319
G01 X-13.73150 Y38.20003
G01 X-13.73150 Y37.97402
G01 X-13.76683 Y37.75088
G01 X-13.83665 Y37.53597
G01 X-13.93924 Y37.33465
G01 X-14.07206 Y37.15185
G01 X-14.23157 Y36.99233
G01 X-14.51605 Y36.78484
G01 X-14.80782 Y36.49307
G01 X-15.07813 Y36.55736
G01 X-15.29014 Y36.55375
G01 X-15.52614 Y36.49307
G01 X-15.81791 Y36.78484
G01 X-16.10193 Y36.99185
G01 X-16.26192 Y37.15185
G01 X-16.39474 Y37.33465
G01 X-16.49733 Y37.53597
G01 X-16.56715 Y37.75088
G01 X-16.60249 Y37.97402
G01 X-16.60249 Y38.20003
G01 X-16.56715 Y38.42314
G01 X-16.49733 Y38.63805
G01 X-16.34584 Y38.91209
G01 X-16.29014 Y39.06292
G01 X-16.28821 Y39.19230
G01 X-16.33002 Y39.31473
G01 X-16.45379 Y39.46246
G01 X-16.59421 Y39.52847
G01 X-16.69713 Y39.54150
G01 X-18.08587 Y39.54150
G01 X-18.24432 Y39.51001
G01 X-18.37861 Y39.42024
G01 X-21.81985 Y35.97903
G01 X-21.95805 Y35.87862
G01 X-22.11030 Y35.80105
G01 X-22.27281 Y35.74824
G01 X-22.44154 Y35.72152
G01 X-25.57905 Y35.72152
G01 X-25.73749 Y35.69000
G01 X-25.89231 Y35.57524
G01 X-25.96155 Y35.46595
G01 X-25.98989 Y35.27532
G01 X-25.96327 Y35.15345
G01 X-25.83381 Y34.92899
G01 X-25.74991 Y34.72051
G01 X-25.70059 Y34.50151
G01 X-25.70059 Y34.11251
G01 X-25.74991 Y33.89346
G01 X-25.83343 Y33.68596
G01 X-25.94918 Y33.49450
G01 X-26.16221 Y33.22396
G01 X-26.20897 Y33.03702
G01 X-26.16221 Y32.85005
G01 X-25.94918 Y32.57951
G01 X-25.83343 Y32.38805
G01 X-25.74991 Y32.18056
G01 X-25.70059 Y31.96151
G01 X-25.69149 Y31.70131
G01 X-25.70059 Y31.57253
G01 X-25.74991 Y31.35346
G01 X-25.83343 Y31.14596
G01 X-25.94918 Y30.95450
G01 X-26.09414 Y30.78412
G01 X-26.25362 Y30.64845
G01 X-26.33638 Y30.54899
G01 X-26.39228 Y30.39824
G01 X-26.39746 Y30.33408
G01 X-26.36647 Y30.17629
G01 X-26.30706 Y30.07279
G01 X-26.12352 Y29.85201
G01 X-26.34273 Y29.85201
G01 X-26.47780 Y29.98262
G01 X-26.63673 Y30.08498
G01 X-26.81257 Y30.15440
G01 X-26.96637 Y30.18498
G01 X-29.27698 Y30.19202
G01 X-29.34821 Y30.18501
G01 X-29.47978 Y30.13050
G01 X-29.58046 Y30.02979
G01 X-29.63497 Y29.89821
G01 X-29.64198 Y29.64200
G01 X-29.81699 Y29.64200
G01 X-29.81521 Y29.89573
G01 X-29.78704 Y30.00606
G01 X-29.74635 Y30.09857
G01 X-29.57508 Y30.33715
G01 X-29.54673 Y30.52778
G01 X-29.58765 Y30.67840
G01 X-29.80480 Y30.95450
G01 X-29.92054 Y31.14596
G01 X-30.00406 Y31.35346
G01 X-30.05339 Y31.57253
G01 X-30.05339 Y31.96148
G01 X-30.00406 Y32.18056
G01 X-29.92054 Y32.38805
G01 X-29.80480 Y32.57951
G01 X-29.59177 Y32.85005
G01 X-29.54500 Y33.03702
G01 X-29.59177 Y33.22396
G01 X-29.80480 Y33.49450
G01 X-29.92054 Y33.68596
G01 X-30.00406 Y33.89346
G01 X-30.05339 Y34.11253
G01 X-30.06248 Y34.24134
G01 X-30.05339 Y34.50151
G01 X-30.00406 Y34.72056
G01 X-29.92054 Y34.92805
G01 X-29.80480 Y35.11951
G01 X-29.59177 Y35.39005
G01 X-29.54500 Y35.57702
G01 X-29.59177 Y35.76396
G01 X-29.80480 Y36.03450
G01 X-29.92054 Y36.22596
G01 X-30.00406 Y36.43346
G01 X-30.05339 Y36.65256
G01 X-30.06248 Y36.78134
G01 X-30.05339 Y37.04151
G01 X-30.00406 Y37.26056
G01 X-29.92054 Y37.46808
G01 X-29.80480 Y37.65951
G01 X-29.59177 Y37.93005
G01 X-29.54500 Y38.11702
G01 X-29.59177 Y38.30396
G01 X-29.80480 Y38.57450
G01 X-29.92054 Y38.76596
G01 X-30.00406 Y38.97346
G01 X-30.05339 Y39.19253
G01 X-30.05339 Y39.58151
G01 X-30.00406 Y39.80058
G01 X-29.92054 Y40.00805
G01 X-29.80480 Y40.19951
G01 X-29.58765 Y40.47564
G01 X-29.54673 Y40.62629
G01 X-29.57508 Y40.81686
G01 X-29.70698 Y40.99644
G01 X-29.80088 Y41.18717
G01 X-29.81699 Y41.29903
G01 X-29.81699 Y41.51203
G01 X-29.64198 Y41.51203
G01 X-29.63497 Y41.25580
G01 X-29.58046 Y41.12423
G01 X-29.47978 Y41.02352
G01 X-29.37914 Y40.97841
G01 X-29.27698 Y40.96202
G01 X-26.99858 Y40.96588
G01 X-26.81257 Y40.99964
G01 X-26.63673 Y41.06903
G01 X-26.42274 Y41.22202
G01 X-26.17895 Y41.22202
G01 X-26.29866 Y41.08869
G01 X-26.36787 Y40.97937
G01 X-26.39939 Y40.82095
G01 X-26.37727 Y40.69344
G01 X-26.28486 Y40.53533
G01 X-26.09429 Y40.37010
G01 X-25.94918 Y40.19951
G01 X-25.83343 Y40.00805
G01 X-25.74991 Y39.80058
G01 X-25.70059 Y39.58151
G01 X-25.70059 Y39.19251
G01 X-25.74991 Y38.97351
G01 X-25.83320 Y38.76655
G01 X-26.01471 Y38.46330
G01 X-26.03450 Y38.40203
G01 X-26.04054 Y38.24135
G01 X-26.00211 Y38.11781
G01 X-25.92431 Y38.01443
G01 X-25.76391 Y37.91357
G01 X-25.63363 Y37.89251
G01 X-23.14809 Y37.89251
G01 X-23.02063 Y37.91466
G01 X-22.85536 Y38.01377
G01 X-19.41414 Y41.45501
G01 X-19.27591 Y41.55542
G01 X-19.12372 Y41.63296
G01 X-18.96121 Y41.68577
G01 X-18.79242 Y41.71252
G01 X-17.00342 Y41.71252
G01 X-16.84500 Y41.74404
G01 X-16.71069 Y41.83378
G01 X-16.62095 Y41.96809
G01 X-16.58966 Y42.11795
G01 X-16.60249 Y42.27464
G01 X-16.59469 Y44.13509
G01 X-16.55125 Y44.26613
G01 X-16.47940 Y44.38264
G01 X-16.35324 Y44.51327
G01 X-16.28400 Y44.62259
G01 X-16.25250 Y44.78101
G01 X-16.25250 Y49.25751
G01 X-16.28400 Y49.41596
G01 X-16.37373 Y49.55025
G01 X-16.53901 Y49.64938
G01 X-16.66649 Y49.67151
G01 X-17.25240 Y49.67151
G01 X-17.42115 Y49.69825
G01 X-17.58366 Y49.75103
G01 X-17.73594 Y49.82863
G01 X-17.87414 Y49.92904
G01 X-18.90535 Y50.96025
G01 X-19.01114 Y51.03475
G01 X-19.19811 Y51.08151
G01 X-19.58516 Y51.07833
G01 X-19.71142 Y51.04999
G01 X-19.82072 Y50.98077
G01 X-19.91482 Y50.88667
G01 X-19.99344 Y50.74641
G01 X-20.01556 Y50.61893
G01 X-19.98597 Y50.46541
G01 X-19.83667 Y50.17808
G01 X-19.76684 Y49.96317
G01 X-19.73149 Y49.74001
G01 X-19.73149 Y49.51403
G01 X-19.76684 Y49.29084
G01 X-19.83664 Y49.07600
G01 X-19.93926 Y48.87463
G01 X-20.18864 Y48.54397
G01 X-20.23540 Y48.35700
G01 X-20.20388 Y48.19858
G01 X-19.93923 Y47.83938
G01 X-19.83667 Y47.63806
G01 X-19.76684 Y47.42317
G01 X-19.73149 Y47.20001
G01 X-19.73149 Y46.97403
G01 X-19.76684 Y46.75084
G01 X-19.83667 Y46.53598
G01 X-19.93923 Y46.33463
G01 X-20.07205 Y46.15183
G01 X-20.23159 Y45.99232
G01 X-20.51607 Y45.78485
G01 X-20.80784 Y45.49305
G01 X-21.07814 Y45.55737
G01 X-21.27309 Y45.55645
G01 X-21.52615 Y45.49308
G01 X-21.81792 Y45.78482
G01 X-22.10192 Y45.99186
G01 X-22.26191 Y46.15185
G01 X-22.39473 Y46.33466
G01 X-22.49732 Y46.53598
G01 X-22.56714 Y46.75089
G01 X-22.60250 Y46.97403
G01 X-22.60250 Y47.20001
G01 X-22.56714 Y47.42315
G01 X-22.49732 Y47.63806
G01 X-22.34583 Y47.91207
G01 X-22.29013 Y48.06290
G01 X-22.28822 Y48.19229
G01 X-22.33001 Y48.31471
G01 X-22.45378 Y48.46244
G01 X-22.59422 Y48.52843
G01 X-22.69714 Y48.54151
G01 X-25.66764 Y48.54151
G01 X-25.82609 Y48.50999
G01 X-25.98090 Y48.39526
G01 X-26.05014 Y48.28594
G01 X-26.08164 Y48.12752
G01 X-26.05139 Y47.97217
G01 X-25.83343 Y47.62805
G01 X-25.74991 Y47.42051
G01 X-25.70059 Y47.20151
G01 X-25.70059 Y46.81253
G01 X-25.74991 Y46.59346
G01 X-25.83343 Y46.38596
G01 X-25.94918 Y46.19450
G01 X-26.16221 Y45.92396
G01 X-26.20897 Y45.73702
G01 X-26.16221 Y45.55005
G01 X-25.94918 Y45.27951
G01 X-25.83343 Y45.08805
G01 X-25.74991 Y44.88056
G01 X-25.70059 Y44.66151
G01 X-25.69149 Y44.40131
G01 X-25.70059 Y44.27251
G01 X-25.74991 Y44.05346
G01 X-25.83343 Y43.84596
G01 X-25.94918 Y43.65450
G01 X-26.09411 Y43.48412
G01 X-26.25362 Y43.34845
G01 X-26.33638 Y43.24899
G01 X-26.39228 Y43.09824
G01 X-26.39746 Y43.03408
G01 X-26.36647 Y42.87629
G01 X-26.30706 Y42.77279
G01 X-26.12352 Y42.55201
G01 X-26.34273 Y42.55201
G01 X-26.47780 Y42.68262
G01 X-26.63673 Y42.78498
G01 X-26.81257 Y42.85440
G01 X-26.96637 Y42.88498
G01 X-29.27698 Y42.89202
G01 X-29.34821 Y42.88501
G01 X-29.47978 Y42.83050
G01 X-29.58046 Y42.72979
G01 X-29.63497 Y42.59821
G01 X-29.64198 Y42.34200
G01 X-29.81699 Y42.34200
G01 X-29.81521 Y42.59573
G01 X-29.78704 Y42.70604
G01 X-29.74635 Y42.79860
G01 X-29.57508 Y43.03715
G01 X-29.54358 Y43.19560
G01 X-29.58765 Y43.37840
G01 X-29.80480 Y43.65450
G01 X-29.92054 Y43.84596
G01 X-30.00406 Y44.05346
G01 X-30.05339 Y44.27253
G01 X-30.06248 Y44.40134
G01 X-30.05339 Y44.66151
G01 X-30.00406 Y44.88056
G01 X-29.92054 Y45.08805
G01 X-29.80480 Y45.27951
G01 X-29.59177 Y45.55005
G01 X-29.54500 Y45.73702
G01 X-29.59177 Y45.92396
G01 X-29.80480 Y46.19450
G01 X-29.92054 Y46.38596
G01 X-30.00406 Y46.59346
G01 X-30.05339 Y46.81253
G01 X-30.06248 Y46.94131
G01 X-30.05339 Y47.20148
G01 X-30.00406 Y47.42056
G01 X-29.92054 Y47.62805
G01 X-29.80480 Y47.81951
G01 X-29.59177 Y48.09005
G01 X-29.54500 Y48.27702
G01 X-29.59177 Y48.46396
G01 X-29.80480 Y48.73450
G01 X-29.92054 Y48.92596
G01 X-30.00406 Y49.13346
G01 X-30.05339 Y49.35253
G01 X-30.06248 Y49.48134
G01 X-30.05339 Y49.74151
G01 X-30.00406 Y49.96056
G01 X-29.92054 Y50.16805
G01 X-29.80480 Y50.35951
G01 X-29.59177 Y50.63005
G01 X-29.54500 Y50.81702
G01 X-29.59177 Y51.00396
G01 X-29.80480 Y51.27450
G01 X-29.92054 Y51.46596
G01 X-30.00406 Y51.67346
G01 X-30.05339 Y51.89253
G01 X-30.05339 Y52.28148
G01 X-30.00406 Y52.50056
G01 X-29.92054 Y52.70805
G01 X-29.80480 Y52.89951
G01 X-29.58765 Y53.17564
G01 X-29.54673 Y53.32626
G01 X-29.57508 Y53.51686
G01 X-29.76517 Y53.79453
G01 X-29.80591 Y53.92202
G01 X-29.62441 Y53.92202
G01 X-29.58046 Y53.82423
G01 X-29.47978 Y53.72352
G01 X-29.37914 Y53.67841
G01 X-29.27698 Y53.66202
G01 X-26.99858 Y53.66586
G01 X-26.81257 Y53.69964
G01 X-26.63673 Y53.76903
G01 X-26.42271 Y53.92202
G01 X-26.17895 Y53.92202
G01 X-26.29866 Y53.78867
G01 X-26.36787 Y53.67937
G01 X-26.39939 Y53.52093
G01 X-26.37727 Y53.39344
G01 X-26.28486 Y53.23533
G01 X-26.09429 Y53.07010
G01 X-25.94918 Y52.89951
G01 X-25.83343 Y52.70805
G01 X-25.74991 Y52.50056
G01 X-25.70059 Y52.28151
G01 X-25.70059 Y51.89253
G01 X-25.74991 Y51.67351
G01 X-25.83343 Y51.46596
G01 X-25.92312 Y51.31151
G01 X-25.96416 Y51.18880
G01 X-25.95685 Y51.02743
G01 X-25.86670 Y50.85710
G01 X-25.76904 Y50.77221
G01 X-25.64852 Y50.72520
G01 X-25.56731 Y50.71298
G01 X-23.00344 Y50.71252
G01 X-22.84499 Y50.74402
G01 X-22.71068 Y50.83376
G01 X-22.62094 Y50.96807
G01 X-22.59259 Y51.09431
G01 X-22.59468 Y53.13507
G01 X-22.55124 Y53.26614
G01 X-22.47939 Y53.38265
G01 X-22.38259 Y53.47942
G01 X-22.26610 Y53.55128
G01 X-22.13504 Y53.59471
G01 X-20.27535 Y53.60251
G01 X-20.19895 Y53.59471
G01 X-20.06783 Y53.55125
G01 X-19.95137 Y53.47942
G01 X-19.84571 Y53.37376
G01 X-19.73994 Y53.29929
G01 X-19.58518 Y53.25567
G01 X-18.49159 Y53.25252
G01 X-18.32280 Y53.22578
G01 X-18.16032 Y53.17300
G01 X-18.00807 Y53.09543
G01 X-17.86982 Y52.99499
G01 X-16.83860 Y51.96378
G01 X-16.70431 Y51.87402
G01 X-16.57805 Y51.84569
G01 X-16.07894 Y51.84569
G01 X-15.95270 Y51.87402
G01 X-15.84341 Y51.94326
G01 X-15.74391 Y52.06954
G01 X-15.71928 Y52.12903
G01 X-15.69715 Y52.25651
G01 X-15.72481 Y52.40228
G01 X-15.52614 Y52.60096
G01 X-15.25583 Y52.53668
G01 X-15.06088 Y52.53756
G01 X-14.80782 Y52.60096
G01 X-14.60627 Y52.39941
G01 X-14.63173 Y52.32128
G01 X-14.62982 Y52.19190
G01 X-14.55776 Y52.01316
G01 X-14.43914 Y51.90353
G01 X-14.31890 Y51.85578
G01 X-14.22284 Y51.84252
G01 X-13.63645 Y51.84252
G01 X-13.47801 Y51.87402
G01 X-13.32319 Y51.98877
G01 X-13.25395 Y52.09809
G01 X-13.22561 Y52.22433
G01 X-13.22256 Y53.08280
G01 X-13.25408 Y53.24122
G01 X-13.34384 Y53.37554
G01 X-13.47816 Y53.46525
G01 X-13.63660 Y53.49675
G01 X-13.76406 Y53.47462
G01 X-13.90432 Y53.39598
G01 X-13.94984 Y53.35047
G01 X-14.01489 Y53.25037
G01 X-14.08783 Y53.05476
G01 X-14.22124 Y53.18816
G01 X-14.17148 Y53.35303
G01 X-14.15200 Y53.54701
G01 X-14.17148 Y53.74099
G01 X-14.22124 Y53.90586
G01 X-14.08783 Y54.03926
G01 X-14.01743 Y53.85405
G01 X-13.95146 Y53.74274
G01 X-13.82461 Y53.64274
G01 X-13.66914 Y53.59890
G01 X-13.50871 Y53.61788
G01 X-13.39431 Y53.67830
G01 X-13.26777 Y53.82367
G01 X-13.22342 Y53.99197
G01 X-13.22279 Y55.04655
G01 X-13.25431 Y55.20507
G01 X-13.32355 Y55.31437
G01 X-13.44986 Y55.41386
G01 X-13.63683 Y55.46060
G01 X-13.79525 Y55.42908
G01 X-13.92642 Y55.34236
G01 X-14.07122 Y55.15267
G01 X-14.23183 Y54.99207
G01 X-14.51605 Y54.78483
G01 X-14.80782 Y54.49306
G01 X-15.07813 Y54.55735
G01 X-15.27307 Y54.55646
G01 X-15.52614 Y54.49306
G01 X-15.81791 Y54.78483
G01 X-16.10193 Y54.99184
G01 X-16.26195 Y55.15186
G01 X-16.39474 Y55.33464
G01 X-16.49733 Y55.53598
G01 X-16.56715 Y55.75087
G01 X-16.60249 Y55.97401
G01 X-16.60566 Y56.22910
G01 X-16.63401 Y56.35534
G01 X-16.74874 Y56.51015
G01 X-16.85806 Y56.57939
G01 X-17.01648 Y56.61089
G01 X-17.20345 Y56.56413
G01 X-17.30924 Y56.48965
G01 X-17.49982 Y56.29905
G01 X-17.63807 Y56.19862
G01 X-17.79027 Y56.12105
G01 X-17.95278 Y56.06824
G01 X-18.12153 Y56.04152
G01 X-25.88588 Y56.04152
G01 X-26.04433 Y56.01000
G01 X-26.15362 Y55.94078
G01 X-26.25314 Y55.81447
G01 X-26.27778 Y55.75498
G01 X-26.29990 Y55.62750
G01 X-26.26988 Y55.47284
G01 X-26.12352 Y55.25201
G01 X-26.34273 Y55.25201
G01 X-26.47780 Y55.38262
G01 X-26.63673 Y55.48498
G01 X-26.81257 Y55.55440
G01 X-27.07699 Y55.59202
G01 X-29.34821 Y55.58501
G01 X-29.47978 Y55.53050
G01 X-29.55997 Y55.45481
G01 X-29.62557 Y55.32918
G01 X-29.63952 Y55.25201
G01 X-29.81493 Y55.25201
G01 X-29.78704 Y55.40606
G01 X-29.74635 Y55.49857
G01 X-29.67970 Y55.58760
G01 X-29.60670 Y55.65752
G01 X-29.51104 Y55.71427
G01 X-29.16891 Y55.81841
G01 X-29.04874 Y55.92636
G01 X-28.97902 Y56.07208
G01 X-28.97810 Y56.26479
G01 X-29.01933 Y56.37705
G01 X-29.16098 Y56.63517
G01 X-29.22837 Y56.84259
G01 X-29.26248 Y57.05795
G01 X-29.26248 Y57.27609
G01 X-29.22837 Y57.49143
G01 X-29.16098 Y57.69884
G01 X-29.05651 Y57.91088
G01 X-29.02509 Y58.06857
G01 X-29.04343 Y58.19666
G01 X-29.12237 Y58.33758
G01 X-29.22197 Y58.42015
G01 X-29.50830 Y58.59013
G01 X-29.71023 Y58.77380
G01 X-29.87244 Y58.99328
G01 X-29.98869 Y59.24022
G01 X-30.05455 Y59.50501
G01 X-30.06748 Y59.63636
G01 X-30.05455 Y59.90900
G01 X-29.98869 Y60.17382
G01 X-29.80947 Y60.55480
G01 X-29.79692 Y60.71509
G01 X-29.86190 Y60.89653
G01 X-30.00464 Y61.02599
G01 X-30.11747 Y61.07080
G01 X-32.86946 Y61.08052
G01 X-33.05640 Y61.03376
G01 X-33.16219 Y60.95927
G01 X-33.23669 Y60.85347
G01 X-33.28345 Y60.66650
G01 X-33.25193 Y60.50808
G01 X-33.02806 Y60.19836
G01 X-32.94332 Y60.03206
G01 X-32.88566 Y59.85459
G01 X-32.85648 Y59.67029
G01 X-32.85648 Y59.48373
G01 X-32.88566 Y59.29943
G01 X-32.94332 Y59.12196
G01 X-33.02806 Y58.95569
G01 X-33.13773 Y58.80471
G01 X-33.26966 Y58.67278
G01 X-33.42064 Y58.56308
G01 X-33.58688 Y58.47837
G01 X-33.76435 Y58.42071
G01 X-33.94868 Y58.39150
G01 X-34.13529 Y58.39150
G01 X-34.31962 Y58.42071
G01 X-34.49709 Y58.47837
G01 X-34.66331 Y58.56308
G01 X-34.81431 Y58.67281
G01 X-34.94621 Y58.80468
G01 X-35.05592 Y58.95569
G01 X-35.14062 Y59.12193
G01 X-35.19828 Y59.29938
G01 X-35.22749 Y59.48370
G01 X-35.22749 Y59.67034
G01 X-35.19828 Y59.85464
G01 X-35.14062 Y60.03211
G01 X-35.05592 Y60.19836
G01 X-34.83204 Y60.50808
G01 X-34.80052 Y60.66650
G01 X-34.84728 Y60.85347
G01 X-34.92178 Y60.95927
G01 X-35.02757 Y61.03376
G01 X-35.21451 Y61.08052
G01 X-38.31946 Y61.08052
G01 X-38.44692 Y61.05838
G01 X-38.58720 Y60.97979
G01 X-38.70193 Y60.82495
G01 X-38.73345 Y60.66650
G01 X-38.70193 Y60.50808
G01 X-38.47806 Y60.19836
G01 X-38.39335 Y60.03209
G01 X-38.33567 Y59.85459
G01 X-38.30648 Y59.67029
G01 X-38.30648 Y59.48373
G01 X-38.33567 Y59.29943
G01 X-38.39332 Y59.12196
G01 X-38.47806 Y58.95569
G01 X-38.58774 Y58.80471
G01 X-38.71966 Y58.67278
G01 X-38.87064 Y58.56308
G01 X-39.03688 Y58.47837
G01 X-39.21435 Y58.42071
G01 X-39.39866 Y58.39153
G01 X-39.58529 Y58.39150
G01 X-39.76962 Y58.42071
G01 X-39.94707 Y58.47837
G01 X-40.11331 Y58.56308
G01 X-40.26431 Y58.67278
G01 X-40.39622 Y58.80468
G01 X-40.50592 Y58.95569
G01 X-40.59063 Y59.12193
G01 X-40.64831 Y59.29943
G01 X-40.67749 Y59.48370
G01 X-40.67749 Y59.67029
G01 X-40.64831 Y59.85459
G01 X-40.59063 Y60.03211
G01 X-40.50592 Y60.19836
G01 X-40.28204 Y60.50808
G01 X-40.25370 Y60.63432
G01 X-40.28204 Y60.82495
G01 X-40.39677 Y60.97979
G01 X-40.50610 Y61.04900
G01 X-40.66452 Y61.08052
G01 X-43.33426 Y61.08052
G01 X-43.49270 Y61.04900
G01 X-43.60200 Y60.97979
G01 X-43.70152 Y60.85347
G01 X-43.74828 Y60.66650
G01 X-43.72616 Y60.53905
G01 X-43.61389 Y60.32917
G01 X-43.52991 Y60.12056
G01 X-43.48059 Y59.90151
G01 X-43.48059 Y59.51251
G01 X-43.52991 Y59.29351
G01 X-43.61343 Y59.08596
G01 X-43.72915 Y58.89452
G01 X-43.94221 Y58.62396
G01 X-43.98897 Y58.43702
G01 X-43.94221 Y58.25005
G01 X-43.72915 Y57.97949
G01 X-43.61343 Y57.78805
G01 X-43.52991 Y57.58053
G01 X-43.48059 Y57.36151
G01 X-43.48059 Y56.97253
G01 X-43.52991 Y56.75351
G01 X-43.61343 Y56.54596
G01 X-43.72915 Y56.35452
G01 X-43.94632 Y56.07840
G01 X-43.98724 Y55.92778
G01 X-43.95890 Y55.73715
G01 X-43.76972 Y55.46105
G01 X-43.73306 Y55.36685
G01 X-43.71699 Y55.25201
G01 X-43.89446 Y55.25201
G01 X-43.90840 Y55.32918
G01 X-43.97401 Y55.45481
G01 X-44.05420 Y55.53050
G01 X-44.18577 Y55.58501
G01 X-46.53540 Y55.58816
G01 X-46.75236 Y55.54500
G01 X-46.92577 Y55.46974
G01 X-47.05617 Y55.38262
G01 X-47.21258 Y55.22621
G01 X-47.32544 Y55.04200
G01 X-47.51901 Y55.04200
G01 X-47.41650 Y55.30022
G01 X-47.41972 Y55.46098
G01 X-47.50217 Y55.63515
G01 X-47.62704 Y55.73763
G01 X-47.81411 Y55.78633
G01 X-49.54743 Y55.78650
G01 X-49.71616 Y55.81325
G01 X-49.87870 Y55.86606
G01 X-50.03092 Y55.94363
G01 X-50.16914 Y56.04403
G01 X-50.99497 Y56.86987
G01 X-51.09538 Y57.00807
G01 X-51.17298 Y57.16034
G01 X-51.22576 Y57.32282
G01 X-51.25248 Y57.49161
G01 X-51.25248 Y61.25241
G01 X-51.22576 Y61.42116
G01 X-51.17295 Y61.58370
G01 X-51.09541 Y61.73595
G01 X-50.99492 Y61.87420
G01 X-50.74435 Y62.12477
G01 X-50.64522 Y62.29005
G01 X-50.62627 Y62.44971
G01 X-50.65461 Y62.57595
G01 X-50.72383 Y62.68525
G01 X-50.87867 Y62.80000
G01 X-51.03709 Y62.83152
G01 X-51.73312 Y62.83152
G01 X-51.88507 Y62.80252
G01 X-52.15499 Y62.62263
G01 X-52.40513 Y62.39711
G01 X-52.62352 Y62.15423
G01 X-52.75316 Y61.97598
G01 X-52.81821 Y61.83419
G01 X-52.83028 Y61.73503
G01 X-52.80615 Y33.43313
G01 X-52.82908 Y33.34746
G01 X-52.87305 Y33.27126
G01 X-52.93546 Y33.20872
G01 X-53.01191 Y33.16450
G01 X-53.09756 Y33.14152
G01 X-82.72971 Y33.14152
G01 X-82.90484 Y33.10197
G01 X-83.12247 Y32.95637
G01 X-83.38798 Y32.72242
G01 X-83.63753 Y32.44568
G01 X-83.77124 Y32.25439
G01 X-83.81945 Y32.14177
G01 X-83.83149 Y32.04302
G01 X-83.83149 Y9.59295
G01 X-83.79194 Y9.41786
G01 X-83.64411 Y9.19856
G01 X-83.40814 Y8.93361
G01 X-83.14442 Y8.69701
G01 X-82.95252 Y8.56282
G01 X-82.83989 Y8.51459
G01 X-82.74104 Y8.50252
G01 X-73.94903 Y8.50252
G01 X-73.76206 Y8.54929
G01 X-73.65627 Y8.62376
G01 X-73.56653 Y8.75807
G01 X-73.53501 Y8.91652
G01 X-73.55713 Y9.04400
G01 X-73.65627 Y9.20925
G01 X-75.91497 Y11.46795
G01 X-76.01540 Y11.60618
G01 X-76.09297 Y11.75842
G01 X-76.14575 Y11.92088
G01 X-76.17366 Y12.17425
G01 X-76.20884 Y12.30592
G01 X-76.30229 Y12.43757
G01 X-76.40945 Y12.51026
G01 X-76.56582 Y12.54958
G01 X-76.66518 Y12.54252
G01 X-76.78705 Y12.49876
G01 X-77.07592 Y12.33671
G01 X-77.29086 Y12.26686
G01 X-77.51400 Y12.23152
G01 X-77.73993 Y12.23150
G01 X-77.96312 Y12.26686
G01 X-78.17805 Y12.33671
G01 X-78.37935 Y12.43927
G01 X-78.71003 Y12.68867
G01 X-78.89698 Y12.73543
G01 X-79.08395 Y12.68867
G01 X-79.41460 Y12.43927
G01 X-79.61592 Y12.33671
G01 X-79.83086 Y12.26686
G01 X-80.05400 Y12.23152
G01 X-80.27993 Y12.23150
G01 X-80.50312 Y12.26686
G01 X-80.71805 Y12.33671
G01 X-80.91938 Y12.43927
G01 X-81.10215 Y12.57209
G01 X-81.26192 Y12.73185
G01 X-81.39474 Y12.91466
G01 X-81.49733 Y13.11598
G01 X-81.56715 Y13.33089
G01 X-81.60248 Y13.55405
G01 X-81.60248 Y13.78001
G01 X-81.56715 Y14.00315
G01 X-81.49733 Y14.21806
G01 X-81.39474 Y14.41938
G01 X-81.14533 Y14.75006
G01 X-81.09857 Y14.93701
G01 X-81.14533 Y15.12397
G01 X-81.39474 Y15.45463
G01 X-81.49733 Y15.65600
G01 X-81.56715 Y15.87089
G01 X-81.60248 Y16.09405
G01 X-81.60248 Y16.32001
G01 X-81.56715 Y16.54315
G01 X-81.49733 Y16.75803
G01 X-81.39474 Y16.95940
G01 X-81.31518 Y17.07426
G01 X-81.26555 Y17.18678
G01 X-81.25364 Y17.27030
G01 X-81.25250 Y20.75246
G01 X-81.22575 Y20.92122
G01 X-81.17297 Y21.08370
G01 X-81.09540 Y21.23593
G01 X-80.99497 Y21.37415
G01 X-73.19313 Y29.17599
G01 X-73.05490 Y29.27642
G01 X-72.90265 Y29.35399
G01 X-72.74019 Y29.40678
G01 X-72.57144 Y29.43352
G01 X-68.64848 Y29.43352
G01 X-68.49006 Y29.46502
G01 X-68.35575 Y29.55478
G01 X-68.25661 Y29.72003
G01 X-68.23652 Y29.87332
G01 X-68.30960 Y30.14429
G01 X-68.34249 Y30.35188
G01 X-68.34249 Y30.56215
G01 X-68.30962 Y30.76971
G01 X-68.24462 Y30.96971
G01 X-68.14922 Y31.15696
G01 X-68.02565 Y31.32702
G01 X-67.87701 Y31.47568
G01 X-67.70696 Y31.59923
G01 X-67.51963 Y31.69468
G01 X-67.31973 Y31.75963
G01 X-67.11211 Y31.79252
G01 X-66.90185 Y31.79252
G01 X-65.40528 Y31.54251
G01 X-52.79810 Y31.54251
G01 X-52.63968 Y31.57403
G01 X-52.50536 Y31.66377
G01 X-51.32322 Y32.85038
G01 X-51.25400 Y32.95970
G01 X-51.22248 Y33.11812
G01 X-51.22248 Y47.53247
G01 X-51.19576 Y47.70123
G01 X-51.14298 Y47.86369
G01 X-51.06538 Y48.01596
G01 X-50.96498 Y48.15416
G01 X-48.78413 Y50.33500
G01 X-48.64591 Y50.43544
G01 X-48.49366 Y50.51298
G01 X-48.33120 Y50.56579
G01 X-48.16244 Y50.59251
G01 X-47.86816 Y50.59568
G01 X-47.74192 Y50.62403
G01 X-47.60761 Y50.71377
G01 X-47.53311 Y50.81956
G01 X-47.48635 Y51.00650
G01 X-47.50847 Y51.13399
G01 X-47.70077 Y51.46652
G01 X-47.78406 Y51.67346
G01 X-47.83339 Y51.89253
G01 X-47.83339 Y52.28148
G01 X-47.78406 Y52.50056
G01 X-47.70054 Y52.70805
G01 X-47.58482 Y52.89949
G01 X-47.43986 Y53.06990
G01 X-47.28035 Y53.20558
G01 X-47.19760 Y53.30503
G01 X-47.13593 Y53.48763
G01 X-47.16750 Y53.67772
G01 X-47.22691 Y53.78123
G01 X-47.36559 Y53.93490
G01 X-47.44413 Y54.05245
G01 X-47.51901 Y54.21201
G01 X-47.32544 Y54.21201
G01 X-47.21258 Y54.02783
G01 X-47.05617 Y53.87142
G01 X-46.92577 Y53.78427
G01 X-46.75236 Y53.70901
G01 X-46.53540 Y53.66586
G01 X-44.25699 Y53.66202
G01 X-44.15483 Y53.67841
G01 X-44.05420 Y53.72352
G01 X-43.95351 Y53.82423
G01 X-43.90957 Y53.92202
G01 X-43.72803 Y53.92202
G01 X-43.78762 Y53.75544
G01 X-43.95890 Y53.51686
G01 X-43.98724 Y53.32626
G01 X-43.94632 Y53.17564
G01 X-43.72915 Y52.89949
G01 X-43.61343 Y52.70805
G01 X-43.52991 Y52.50053
G01 X-43.48059 Y52.28151
G01 X-43.48059 Y51.89253
G01 X-43.52991 Y51.67351
G01 X-43.61343 Y51.46596
G01 X-43.72915 Y51.27452
G01 X-43.94221 Y51.00396
G01 X-43.98897 Y50.81702
G01 X-43.94221 Y50.63005
G01 X-43.72915 Y50.35949
G01 X-43.61343 Y50.16805
G01 X-43.52991 Y49.96053
G01 X-43.48059 Y49.74151
G01 X-43.47149 Y49.48141
G01 X-43.48059 Y49.35251
G01 X-43.52991 Y49.13348
G01 X-43.61343 Y48.92596
G01 X-43.72915 Y48.73452
G01 X-43.94221 Y48.46396
G01 X-43.98897 Y48.27702
G01 X-43.94221 Y48.09005
G01 X-43.72915 Y47.81949
G01 X-43.61343 Y47.62805
G01 X-43.52991 Y47.42053
G01 X-43.48059 Y47.20151
G01 X-43.47149 Y46.94141
G01 X-43.48059 Y46.81253
G01 X-43.52991 Y46.59348
G01 X-43.61343 Y46.38596
G01 X-43.72915 Y46.19452
G01 X-43.94221 Y45.92396
G01 X-43.98897 Y45.73702
G01 X-43.94221 Y45.55005
G01 X-43.72915 Y45.27949
G01 X-43.61343 Y45.08805
G01 X-43.52991 Y44.88053
G01 X-43.48059 Y44.66151
G01 X-43.48059 Y44.27251
G01 X-43.52991 Y44.05348
G01 X-43.61320 Y43.84655
G01 X-43.80736 Y43.51396
G01 X-43.82603 Y43.35351
G01 X-43.78336 Y43.20108
G01 X-43.61107 Y42.98798
G01 X-43.53819 Y42.85740
G01 X-43.48384 Y42.70573
G01 X-43.46649 Y42.55717
G01 X-43.47431 Y41.19626
G01 X-43.51511 Y41.05240
G01 X-43.58392 Y40.90670
G01 X-43.72664 Y40.73495
G01 X-43.79585 Y40.62568
G01 X-43.82737 Y40.46721
G01 X-43.79702 Y40.31173
G01 X-43.61323 Y40.00752
G01 X-43.52991 Y39.80053
G01 X-43.48059 Y39.58151
G01 X-43.47149 Y39.32141
G01 X-43.48059 Y39.19251
G01 X-43.52991 Y38.97348
G01 X-43.61343 Y38.76596
G01 X-43.72915 Y38.57452
G01 X-43.94221 Y38.30396
G01 X-43.98897 Y38.11702
G01 X-43.94221 Y37.93005
G01 X-43.72915 Y37.65951
G01 X-43.61343 Y37.46808
G01 X-43.52991 Y37.26053
G01 X-43.48059 Y37.04153
G01 X-43.47149 Y36.78141
G01 X-43.48059 Y36.65256
G01 X-43.52991 Y36.43348
G01 X-43.61343 Y36.22596
G01 X-43.72915 Y36.03452
G01 X-43.94221 Y35.76396
G01 X-43.98897 Y35.57702
G01 X-43.94221 Y35.39005
G01 X-43.72915 Y35.11949
G01 X-43.61343 Y34.92805
G01 X-43.52991 Y34.72053
G01 X-43.48059 Y34.50151
G01 X-43.47149 Y34.24141
G01 X-43.48059 Y34.11251
G01 X-43.52991 Y33.89348
G01 X-43.61343 Y33.68596
G01 X-43.72915 Y33.49452
G01 X-43.94221 Y33.22396
G01 X-43.98897 Y33.03702
G01 X-43.94221 Y32.85005
G01 X-43.72915 Y32.57949
G01 X-43.61343 Y32.38805
G01 X-43.52991 Y32.18053
G01 X-43.48059 Y31.96151
G01 X-43.47833 Y31.55955
G01 X-43.44574 Y31.40212
G01 X-43.37889 Y31.29135
G01 X-43.27861 Y31.20959
G01 X-43.09573 Y31.14980
G01 X-42.96924 Y31.16214
G01 X-42.75552 Y31.22841
G01 X-42.54015 Y31.26250
G01 X-42.32202 Y31.26250
G01 X-42.10668 Y31.22841
G01 X-41.89923 Y31.16100
G01 X-41.70492 Y31.06199
G01 X-41.52850 Y30.93382
G01 X-41.42883 Y30.83862
G01 X-41.31953 Y30.76941
G01 X-41.16109 Y30.73789
G01 X-40.97414 Y30.78465
G01 X-40.61725 Y31.06199
G01 X-40.42291 Y31.16103
G01 X-40.21552 Y31.22839
G01 X-40.00015 Y31.26250
G01 X-39.78202 Y31.26250
G01 X-39.56668 Y31.22839
G01 X-39.35926 Y31.16103
G01 X-38.94021 Y30.92610
G01 X-38.78055 Y30.90726
G01 X-38.60092 Y30.96258
G01 X-38.38535 Y31.13639
G01 X-38.24397 Y31.21023
G01 X-38.08936 Y31.25447
G01 X-36.61281 Y31.25447
G01 X-36.45820 Y31.21023
G01 X-36.31662 Y31.13626
G01 X-36.19279 Y31.03530
G01 X-36.09183 Y30.91150
G01 X-36.01789 Y30.76992
G01 X-35.97362 Y30.61528
G01 X-35.96559 Y29.22920
G01 X-35.97362 Y29.13873
G01 X-36.01786 Y28.98409
G01 X-36.09183 Y28.84251
G01 X-36.19282 Y28.71871
G01 X-36.31659 Y28.61775
G01 X-36.45820 Y28.54379
G01 X-36.61281 Y28.49956
G01 X-38.08936 Y28.49956
G01 X-38.24397 Y28.54379
G01 X-38.38598 Y28.61798
G01 X-38.61738 Y28.80083
G01 X-38.80325 Y28.84795
G01 X-38.95761 Y28.82240
G01 X-39.16492 Y28.69202
G01 X-39.35923 Y28.59301
G01 X-39.56668 Y28.52562
G01 X-39.78202 Y28.49151
G01 X-40.00015 Y28.49151
G01 X-40.21552 Y28.52562
G01 X-40.42294 Y28.59301
G01 X-40.61725 Y28.69202
G01 X-40.97414 Y28.96939
G01 X-41.16109 Y29.01612
G01 X-41.31950 Y28.98463
G01 X-41.42883 Y28.91541
G01 X-41.52850 Y28.82019
G01 X-41.70492 Y28.69204
G01 X-41.89926 Y28.59301
G01 X-42.10665 Y28.52562
G01 X-42.32207 Y28.49151
G01 X-42.54015 Y28.49151
G01 X-42.75552 Y28.52562
G01 X-42.96291 Y28.59301
G01 X-43.19296 Y28.70668
G01 X-43.31831 Y28.73873
G01 X-43.50835 Y28.70678
G01 X-43.61716 Y28.64292
G01 X-43.70363 Y28.54257
G01 X-43.95343 Y28.12870
G01 X-43.98109 Y28.04241
G01 X-43.98927 Y27.93911
G01 X-43.95044 Y27.78257
G01 X-43.90380 Y27.70551
G01 X-43.72923 Y27.49962
G01 X-43.61343 Y27.30805
G01 X-43.52991 Y27.10053
G01 X-43.48059 Y26.88151
G01 X-43.48059 Y26.49253
G01 X-43.52991 Y26.27351
G01 X-43.61343 Y26.06596
G01 X-43.72915 Y25.87452
G01 X-43.94221 Y25.60396
G01 X-43.98897 Y25.41702
G01 X-43.94221 Y25.23005
G01 X-43.72915 Y24.95949
G01 X-43.61343 Y24.76805
G01 X-43.52991 Y24.56053
G01 X-43.48059 Y24.34151
G01 X-43.47149 Y24.08141
G01 X-43.48059 Y23.95251
G01 X-43.52991 Y23.73348
G01 X-43.61343 Y23.52596
G01 X-43.72915 Y23.33452
G01 X-43.94221 Y23.06396
G01 X-43.98897 Y22.87702
G01 X-43.94221 Y22.69005
G01 X-43.72915 Y22.41949
G01 X-43.61343 Y22.22805
G01 X-43.52991 Y22.02053
G01 X-43.48059 Y21.80151
G01 X-43.47149 Y21.54141
G01 X-43.48059 Y21.41253
G01 X-43.52991 Y21.19348
G01 X-43.61343 Y20.98596
G01 X-43.72915 Y20.79452
G01 X-43.94221 Y20.52396
G01 X-43.98897 Y20.33702
G01 X-43.94221 Y20.15005
G01 X-43.72915 Y19.87949
G01 X-43.61343 Y19.68805
G01 X-43.52991 Y19.48053
G01 X-43.48059 Y19.26151
G01 X-43.48181 Y18.85516
G01 X-43.46873 Y18.72646
G01 X-43.38148 Y18.55463
G01 X-43.25382 Y18.45564
G01 X-43.06883 Y18.41200
G01 X-30.46515 Y18.41200
G01 X-30.27818 Y18.45877
G01 X-30.17238 Y18.53326
G01 X-30.07325 Y18.69854
G01 X-30.05148 Y18.81533
G01 X-30.06248 Y19.00108
G01 X-30.05339 Y19.26151
G01 X-30.00406 Y19.48056
G01 X-29.92054 Y19.68805
G01 X-29.80480 Y19.87951
G01 X-29.59177 Y20.15005
G01 X-29.54500 Y20.33702
G01 X-29.59177 Y20.52396
G01 X-29.80480 Y20.79450
G01 X-29.92054 Y20.98596
G01 X-30.00406 Y21.19346
G01 X-30.05339 Y21.41253
G01 X-30.06248 Y21.54131
G01 X-30.05339 Y21.80148
G01 X-30.00406 Y22.02056
G01 X-29.92054 Y22.22805
G01 X-29.80480 Y22.41951
G01 X-29.59177 Y22.69005
G01 X-29.54500 Y22.87702
G01 X-29.59177 Y23.06396
G01 X-29.80480 Y23.33450
G01 X-29.92054 Y23.52596
G01 X-30.00406 Y23.73346
G01 X-30.05339 Y23.95253
G01 X-30.06248 Y24.08134
G01 X-30.05339 Y24.34151
G01 X-30.00406 Y24.56056
G01 X-29.92054 Y24.76805
G01 X-29.80480 Y24.95951
G01 X-29.59177 Y25.23005
G01 X-29.54500 Y25.41702
G01 X-29.59177 Y25.60396
G01 X-29.80480 Y25.87450
G01 X-29.92054 Y26.06596
G01 X-30.00406 Y26.27346
G01 X-30.05339 Y26.49253
G01 X-30.05339 Y26.88148
G01 X-30.00406 Y27.10056
G01 X-29.92054 Y27.30805
G01 X-29.80480 Y27.49951
G01 X-29.58765 Y27.77564
G01 X-29.54673 Y27.92626
G01 X-29.57508 Y28.11686
G01 X-29.70698 Y28.29644
G01 X-29.80088 Y28.48714
G01 X-29.81699 Y28.59903
G01 X-29.81699 Y28.81201
G01 X-29.64198 Y28.81201
G01 X-29.63497 Y28.55580
G01 X-29.58046 Y28.42423
G01 X-29.47978 Y28.32352
G01 X-29.37914 Y28.27841
G01 X-29.27698 Y28.26202
G01 X-26.99858 Y28.26586
G01 X-26.81257 Y28.29964
G01 X-26.63673 Y28.36903
G01 X-26.42271 Y28.52202
G01 X-26.17895 Y28.52202
G01 X-26.29866 Y28.38867
G01 X-26.36787 Y28.27937
G01 X-26.39939 Y28.12093
G01 X-26.37727 Y27.99344
G01 X-26.28486 Y27.83533
G01 X-26.09429 Y27.67010
G01 X-25.94918 Y27.49951
G01 X-25.83343 Y27.30805
G01 X-25.74991 Y27.10056
G01 X-25.70059 Y26.88151
G01 X-25.69149 Y26.75270
G01 X-25.70059 Y26.49253
G01 X-25.74991 Y26.27351
G01 X-25.83343 Y26.06596
G01 X-25.94918 Y25.87450
G01 X-26.16221 Y25.60396
G01 X-26.20897 Y25.41702
G01 X-26.16221 Y25.23005
G01 X-25.94918 Y24.95951
G01 X-25.83343 Y24.76805
G01 X-25.74991 Y24.56056
G01 X-25.70059 Y24.34151
G01 X-25.69149 Y24.21273
G01 X-25.70059 Y23.95251
G01 X-25.74991 Y23.73351
G01 X-25.83343 Y23.52596
G01 X-25.94918 Y23.33450
G01 X-26.16221 Y23.06396
G01 X-26.20897 Y22.87702
G01 X-26.16221 Y22.69005
G01 X-25.94918 Y22.41951
G01 X-25.83343 Y22.22805
G01 X-25.74991 Y22.02056
G01 X-25.70059 Y21.80151
G01 X-25.69149 Y21.67270
G01 X-25.70059 Y21.41253
G01 X-25.74991 Y21.19351
G01 X-25.83343 Y20.98596
G01 X-25.94918 Y20.79450
G01 X-26.16221 Y20.52396
G01 X-26.20897 Y20.33702
G01 X-26.16221 Y20.15005
G01 X-25.94918 Y19.87951
G01 X-25.83343 Y19.68805
G01 X-25.74991 Y19.48056
G01 X-25.70059 Y19.26151
G01 X-25.69149 Y19.13273
G01 X-25.70059 Y18.87251
G01 X-25.74991 Y18.65351
G01 X-25.83343 Y18.44596
G01 X-25.94918 Y18.25450
G01 X-26.09411 Y18.08412
G01 X-26.25362 Y17.94845
G01 X-26.33638 Y17.84899
G01 X-26.39228 Y17.69824
G01 X-26.39746 Y17.63408
G01 X-26.36647 Y17.47629
G01 X-26.30706 Y17.37279
G01 X-26.12352 Y17.15201
G01 X-26.34273 Y17.15201
G01 X-26.47780 Y17.28262
G01 X-26.63673 Y17.38498
G01 X-26.81257 Y17.45440
G01 X-26.99858 Y17.48816
G01 X-29.27698 Y17.49202
G01 X-29.34821 Y17.48501
G01 X-29.45125 Y17.44574
G01 X-29.58046 Y17.32979
G01 X-29.63497 Y17.19821
G01 X-29.64198 Y17.12702
G01 X-29.64198 Y15.92702
G01 X-29.62557 Y15.82486
G01 X-29.55997 Y15.69923
G01 X-29.45125 Y15.60828
G01 X-29.34821 Y15.56903
G01 X-29.27698 Y15.56202
G01 X-26.96637 Y15.56903
G01 X-26.78161 Y15.60901
G01 X-26.60821 Y15.68427
G01 X-26.42274 Y15.82199
G01 X-26.17895 Y15.82202
G01 X-26.27305 Y15.71425
G01 X-26.34229 Y15.60495
G01 X-26.37379 Y15.44650
G01 X-26.35167 Y15.31905
G01 X-26.27305 Y15.17876
G01 X-26.22754 Y15.13325
G01 X-26.11824 Y15.06403
G01 X-25.95979 Y15.03251
G01 X-22.91802 Y15.03568
G01 X-22.76326 Y15.07927
G01 X-22.41477 Y15.35811
G01 X-22.23471 Y15.46207
G01 X-22.04273 Y15.54160
G01 X-21.84197 Y15.59537
G01 X-21.63588 Y15.62253
G01 X-21.42808 Y15.62253
G01 X-21.22201 Y15.59537
G01 X-21.02125 Y15.54160
G01 X-20.82917 Y15.46202
G01 X-20.64926 Y15.35816
G01 X-20.30073 Y15.07927
G01 X-20.14596 Y15.03568
G01 X-16.45021 Y15.03251
G01 X-16.26324 Y15.07927
G01 X-15.91473 Y15.35814
G01 X-15.73477 Y15.46205
G01 X-15.54272 Y15.54160
G01 X-15.34196 Y15.59537
G01 X-15.13589 Y15.62253
G01 X-14.92809 Y15.62253
G01 X-14.72200 Y15.59537
G01 X-14.52126 Y15.54160
G01 X-14.32921 Y15.46205
G01 X-14.14923 Y15.35811
G01 X-13.98436 Y15.23162
G01 X-13.83742 Y15.08468
G01 X-13.71087 Y14.91976
G01 X-13.60694 Y14.73975
G01 X-13.53516 Y14.57475
G01 X-13.46066 Y14.46896
G01 X-13.32634 Y14.37922
G01 X-13.13572 Y14.35087
G01 X-13.00948 Y14.37922
G01 X-12.87516 Y14.46896
G01 X-12.48875 Y14.85539
G01 X-12.38962 Y15.02065
G01 X-12.36749 Y15.14813
G01 X-12.37067 Y15.78867
G01 X-12.39543 Y15.90546
G01 X-12.47318 Y16.06316
G01 X-12.53584 Y16.25600
G01 X-12.56749 Y16.45587
G01 X-12.56749 Y16.65816
G01 X-12.53584 Y16.85801
G01 X-12.47331 Y17.05049
G01 X-12.38144 Y17.23075
G01 X-12.26251 Y17.39446
G01 X-12.11941 Y17.53756
G01 X-11.95573 Y17.65648
G01 X-11.77544 Y17.74833
G01 X-11.58299 Y17.81086
G01 X-11.38319 Y17.84251
G01 X-11.18080 Y17.84251
G01 X-10.98098 Y17.81086
G01 X-10.78855 Y17.74835
G01 X-10.60821 Y17.65646
G01 X-10.44454 Y17.53753
G01 X-10.30146 Y17.39443
G01 X-10.18253 Y17.23078
G01 X-10.09066 Y17.05046
G01 X-10.02813 Y16.85801
G01 X-9.99648 Y16.65821
G01 X-9.99648 Y16.45582
G01 X-10.02815 Y16.25595
G01 X-10.09066 Y16.06357
G01 X-10.16315 Y15.91430
G01 X-10.19417 Y15.79867
G01 X-10.19648 Y14.44165
G01 X-10.22320 Y14.27285
G01 X-10.27601 Y14.11036
G01 X-10.35360 Y13.95806
G01 X-10.45401 Y13.81986
G01 X-13.69485 Y10.57903
G01 X-13.83307 Y10.47862
G01 X-13.98527 Y10.40105
G01 X-14.14778 Y10.34824
G01 X-14.31654 Y10.32152
G01 X-15.51798 Y10.32152
G01 X-15.67643 Y10.29000
G01 X-15.81074 Y10.20026
G01 X-15.90048 Y10.06595
G01 X-15.93198 Y9.90750
G01 X-15.93198 Y8.91652
G01 X-15.88522 Y8.72955
G01 X-15.78572 Y8.60326
G01 X-15.67643 Y8.53402
G01 X-15.51798 Y8.50252
G01 X-9.57591 Y8.50354
G01 X-9.44901 Y8.52927
G01 X-9.35376 Y8.57966
G01 X-9.17654 Y8.70875
G01 X-8.91426 Y8.94675
G01 X-8.70870 Y9.17687
G01 X-8.57951 Y9.35457
G01 X-8.51452 Y9.49633
G01 X-8.50245 Y9.59508
G01 X-8.18899 Y9.59508
G01 X-8.21208 Y9.41385
G01 X-8.32518 Y9.17126
G01 X-8.47489 Y8.96803
G01 X-8.68043 Y8.73791
G01 X-9.00710 Y8.44322
G01 X-9.26763 Y8.26770
G01 X-9.39361 Y8.21787
G01 X-9.54080 Y8.19204
G01 X-15.51798 Y8.18901
G01 X-15.70663 Y8.21716
G01 X-15.87912 Y8.28861
G01 X-16.03241 Y8.40209
G01 X-16.19012 Y8.63811
G01 X-16.24549 Y8.91652
G01 X-16.24549 Y9.90750
G01 X-16.19012 Y10.18591
G01 X-16.03789 Y10.41423
G01 X-15.78722 Y10.49498
G01 X-15.54366 Y10.52825
G01 X-14.33330 Y10.53425
G01 X-14.19744 Y10.55507
G01 X-14.06652 Y10.59714
G01 X-13.94420 Y10.65998
G01 X-13.78309 Y10.78814
G01 X-10.64969 Y13.92494
G01 X-10.56120 Y14.03619
G01 X-10.48109 Y14.18247
G01 X-10.41723 Y14.42169
G01 X-10.39915 Y15.87993
G01 X-10.39247 Y15.92821
G01 X-10.28736 Y16.14505
G01 X-10.23516 Y16.30571
G01 X-10.21012 Y16.54282
G01 X-10.23516 Y16.30571
G04 P0 ( dwell for no time -- G64 should not smooth over this point )
G00 Z2.00000 ( retract )

G00 X-10.41698 Y16.55702 ( rapid move to begin. )
G01 F250.00000
G01 Z-0.20000
G04 P0 ( dwell for no time -- G64 should not smooth over this point )
G01 F500.00000
G01 X-10.41698 Y16.55702
G01 X-10.43318 Y16.39423
G01 X-10.48558 Y16.22131
G01 X-10.61698 Y16.00858
G01 X-10.61779 Y14.51084
G01 X-10.63369 Y14.38158
G01 X-10.72073 Y14.17145
G01 X-10.81177 Y14.05679
G01 X-13.93175 Y10.93678
G01 X-14.04643 Y10.84575
G01 X-14.25654 Y10.75873
G01 X-14.40198 Y10.74202
G01 X-26.41913 Y10.74202
G01 X-26.60988 Y10.60343
G01 X-26.77879 Y10.52924
G01 X-26.95906 Y10.49000
G01 X-28.67699 Y10.48200
G01 X-28.79492 Y10.49000
G01 X-28.97518 Y10.52924
G01 X-29.14409 Y10.60343
G01 X-29.30927 Y10.71900
G01 X-29.46710 Y10.89426
G01 X-29.55857 Y11.05451
G01 X-29.61643 Y11.22970
G01 X-29.64109 Y11.42977
G01 X-29.62359 Y11.63061
G01 X-29.55857 Y11.83953
G01 X-29.45768 Y12.01423
G01 X-29.32270 Y12.16416
G01 X-29.14409 Y12.29058
G01 X-28.97518 Y12.36480
G01 X-28.77785 Y12.40673
G01 X-26.97612 Y12.40673
G01 X-26.77879 Y12.36480
G01 X-26.60988 Y12.29058
G01 X-26.43043 Y12.16340
G01 X-26.34905 Y12.07201
G01 X-14.67745 Y12.07201
G01 X-11.94700 Y14.80246
G01 X-11.94700 Y16.00858
G01 X-12.07839 Y16.22131
G01 X-12.13079 Y16.39423
G01 X-12.14700 Y16.55702
G01 X-12.12363 Y16.75354
G01 X-12.07219 Y16.90883
G01 X-11.99119 Y17.05097
G01 X-11.87301 Y17.18762
G01 X-11.69909 Y17.31396
G01 X-11.54928 Y17.37967
G01 X-11.38947 Y17.41457
G01 X-11.19157 Y17.41726
G01 X-10.99856 Y17.37347
G01 X-10.86488 Y17.31396
G01 X-10.71662 Y17.21071
G01 X-10.57278 Y17.05097
G01 X-10.49178 Y16.90883
G01 X-10.44037 Y16.75354
G01 X-10.41698 Y16.55702
G04 P0 ( dwell for no time -- G64 should not smooth over this point )
G00 Z2.00000 ( retract )

G00 X-10.23514 Y16.80832 ( rapid move to begin. )
G01 F250.00000
G01 Z-0.20000
G04 P0 ( dwell for no time -- G64 should not smooth over this point )
G01 F500.00000
G01 X-10.23514 Y16.80832
G01 X-10.21012 Y16.54282
G01 X-10.23514 Y16.80832
G01 X-10.28736 Y16.96901
G01 X-10.36524 Y17.11881
G01 X-10.46440 Y17.25529
G01 X-10.58281 Y17.37566
G01 X-10.75342 Y17.48963
G01 X-10.58281 Y17.37566
G04 P0 ( dwell for no time -- G64 should not smooth over this point )
G00 Z2.00000 ( retract )

G00 X-11.19749 Y17.63027 ( rapid move to begin. )
G01 F250.00000
G01 Z-0.20000
G04 P0 ( dwell for no time -- G64 should not smooth over this point )
G01 F500.00000
G01 X-11.19749 Y17.63027
G01 X-11.01286 Y17.59560
G01 X-10.75342 Y17.48963
G01 X-10.98741 Y17.59082
G01 X-11.19749 Y17.63027
G01 X-11.36645 Y17.63027
G01 X-11.62680 Y17.57198
G01 X-11.36645 Y17.63027
G04 P0 ( dwell for no time -- G64 should not smooth over this point )
G00 Z2.00000 ( retract )

G00 X-11.84448 Y17.47495 ( rapid move to begin. )
G01 F250.00000
G01 Z-0.20000
G04 P0 ( dwell for no time -- G64 should not smooth over this point )
G01 F500.00000
G01 X-11.84448 Y17.47495
G01 X-11.62680 Y17.57198
G01 X-11.84448 Y17.47495
G01 X-11.98113 Y17.37566
G01 X-12.15195 Y17.18181
G01 X-12.11525 Y17.23365
G01 X-12.12789 Y17.22029
G01 X-12.21202 Y17.08577
G01 X-12.15751 Y17.17548
G01 X-12.19871 Y17.11881
G01 X-12.27659 Y16.96901
G01 X-12.27991 Y16.95874
G01 X-12.25843 Y16.99890
G01 X-12.32881 Y16.80832
G01 X-12.35383 Y16.49938
G01 X-12.32878 Y16.30571
G01 X-12.35383 Y16.47266
G01 X-12.35383 Y16.64137
G01 X-12.32881 Y16.80832
G01 X-12.27991 Y16.95874
G01 X-12.32881 Y16.80832
G01 X-12.35246 Y16.55704
G01 X-12.32878 Y16.30571
G01 X-12.27631 Y16.14422
G01 X-12.17041 Y15.92755
G01 X-12.15723 Y15.75649
G01 X-12.15723 Y15.14813
G01 X-12.18192 Y14.89979
G01 X-12.34006 Y14.70673
G01 X-12.82581 Y14.23851
G01 X-12.34006 Y14.70673
G04 P0 ( dwell for no time -- G64 should not smooth over this point )
G00 Z2.00000 ( retract )

G00 X-10.66308 Y13.90813 ( rapid move to begin. )
G01 F250.00000
G01 Z-0.20000
G04 P0 ( dwell for no time -- G64 should not smooth over this point )
G01 F500.00000
G01 X-10.66308 Y13.90813
G01 X-10.53493 Y14.06924
G01 X-10.48530 Y14.16850
G01 X-10.53493 Y14.06924
G04 P0 ( dwell for no time -- G64 should not smooth over this point )
G00 Z2.00000 ( retract )

G00 X-10.47209 Y14.19157 ( rapid move to begin. )
G01 F250.00000
G01 Z-0.20000
G04 P0 ( dwell for no time -- G64 should not smooth over this point )
G01 F500.00000
G01 X-10.47209 Y14.19157
G01 X-10.48530 Y14.16850
G01 X-10.41761 Y14.39268
G04 P0 ( dwell for no time -- G64 should not smooth over this point )
G00 Z2.00000 ( retract )

G00 X-10.39915 Y15.87993 ( rapid move to begin. )
G01 F250.00000
G01 Z-0.20000
G04 P0 ( dwell for no time -- G64 should not smooth over this point )
G01 F500.00000
G01 X-10.39915 Y15.87993
G01 X-10.40918 Y14.45842
G01 X-10.47209 Y14.19157
G01 X-10.59061 Y13.99334
G01 X-13.78309 Y10.78814
G01 X-13.88575 Y10.70084
G01 X-14.08944 Y10.59091
G01 X-14.38240 Y10.53399
G01 X-15.56416 Y10.52820
G01 X-15.84671 Y10.48687
G01 X-16.17122 Y10.35327
G01 X-16.53398 Y10.10882
G01 X-16.55898 Y9.90750
G01 X-16.55898 Y8.91652
G01 X-16.52481 Y8.66671
G01 X-16.47975 Y8.51815
G01 X-16.35258 Y8.30044
G01 X-16.23777 Y8.16702
G01 X-8.85411 Y8.16702
G04 P0 ( dwell for no time -- G64 should not smooth over this point )
G00 Z2.00000 ( retract )

G00 X-8.37301 Y8.16702 ( rapid move to begin. )
G01 F250.00000
G01 Z-0.20000
G04 P0 ( dwell for no time -- G64 should not smooth over this point )
G01 F500.00000
G01 X-8.37301 Y8.16702
G01 X-8.85411 Y8.16702
G01 X-8.50669 Y8.46869
G01 X-8.16699 Y8.85459
G01 X-8.18899 Y9.59508
G01 X-8.18899 Y47.18307
G01 X-8.23888 Y47.44761
G01 X-8.34213 Y47.62957
G01 X-8.48802 Y47.81215
G01 X-8.75320 Y48.07743
G01 X-9.02348 Y48.29152
G01 X-9.19699 Y48.40189
G01 X-8.62112 Y48.38286
G01 X-8.30502 Y48.67984
G01 X-8.16699 Y48.84303
G01 X-8.18899 Y49.57234
G01 X-8.18899 Y61.68436
G01 X-8.23705 Y61.94400
G01 X-8.29463 Y62.05992
G01 X-8.45701 Y62.29119
G01 X-8.69468 Y62.56099
G01 X-9.00509 Y62.84209
G01 X-9.23859 Y63.01120
G01 X-9.40882 Y63.09726
G01 X-9.55051 Y63.13584
G01 X-13.77453 Y63.13582
G01 X-13.95959 Y63.08964
G01 X-14.19561 Y62.93193
G01 X-14.35329 Y62.69591
G01 X-14.40099 Y62.49551
G01 X-16.10411 Y62.48692
G01 X-16.47508 Y62.85792
G01 X-16.66365 Y63.00374
G01 X-16.93055 Y63.11430
G01 X-17.16698 Y63.14450
G01 X-49.16798 Y63.14450
G01 X-49.31243 Y63.13259
G01 X-49.58489 Y63.04996
G01 X-49.74933 Y62.95164
G01 X-50.31878 Y62.39904
G01 X-50.23691 Y62.62634
G01 X-50.17250 Y62.98867
G01 X-49.98106 Y63.16701
G01 X-8.91622 Y63.16701
G04 P0 ( dwell for no time -- G64 should not smooth over this point )
G00 Z2.00000 ( retract )

G00 X-8.42752 Y63.16701 ( rapid move to begin. )
G01 F250.00000
G01 Z-0.20000
G04 P0 ( dwell for no time -- G64 should not smooth over this point )
G01 F500.00000
G01 X-8.42752 Y63.16701
G01 X-8.91622 Y63.16701
G01 X-8.52399 Y62.83287
G01 X-8.16699 Y62.42495
G04 P0 ( dwell for no time -- G64 should not smooth over this point )
G00 Z2.00000 ( retract )

G00 X-14.40094 Y63.16701 ( rapid move to begin. )
G01 F250.00000
G01 Z-0.20000
G04 P0 ( dwell for no time -- G64 should not smooth over this point )
G01 F500.00000
G01 X-14.40094 Y63.16701
G01 X-14.51577 Y63.03358
G01 X-14.64503 Y62.80902
G01 X-15.98283 Y62.80902
G01 X-16.35392 Y63.16701
G04 P0 ( dwell for no time -- G64 should not smooth over this point )
G00 Z2.00000 ( retract )

G00 X-15.89746 Y63.16701 ( rapid move to begin. )
G01 F250.00000
G01 Z-0.20000
G04 P0 ( dwell for no time -- G64 should not smooth over this point )
G01 F500.00000
G01 X-15.89746 Y63.16701
G01 X-15.85296 Y63.12251
G01 X-14.83282 Y63.12251
G01 X-14.80366 Y63.16701
G04 P0 ( dwell for no time -- G64 should not smooth over this point )
G00 Z2.00000 ( retract )

G00 X-17.86669 Y60.15188 ( rapid move to begin. )
G01 F250.00000
G01 Z-0.20000
G04 P0 ( dwell for no time -- G64 should not smooth over this point )
G01 F500.00000
G01 X-17.86669 Y60.15188
G01 X-17.96187 Y60.24702
G01 X-24.85797 Y60.24702
G01 X-24.25746 Y59.64652
G01 X-19.25059 Y59.64652
G01 X-17.99799 Y60.15977
G04 P0 ( dwell for no time -- G64 should not smooth over this point )
G00 Z2.00000 ( retract )

G00 X-18.55770 Y59.93354 ( rapid move to begin. )
G01 F250.00000
G01 Z-0.20000
G04 P0 ( dwell for no time -- G64 should not smooth over this point )
G01 F500.00000
G01 X-18.55770 Y59.93354
G01 X-19.13172 Y59.35952
G01 X-24.54448 Y59.35952
G01 X-24.25746 Y59.64652
G04 P0 ( dwell for no time -- G64 should not smooth over this point )
G00 Z2.00000 ( retract )

G00 X-24.54446 Y59.93351 ( rapid move to begin. )
G01 F250.00000
G01 Z-0.20000
G04 P0 ( dwell for no time -- G64 should not smooth over this point )
G01 F500.00000
G01 X-24.54446 Y59.93351
G01 X-24.54446 Y59.36298
G01 X-24.86424 Y59.04710
G01 X-24.85799 Y60.24116
G01 X-25.06478 Y60.44591
G01 X-24.85797 Y60.24702
G04 P0 ( dwell for no time -- G64 should not smooth over this point )
G00 Z2.00000 ( retract )

G00 X-25.06478 Y60.44591 ( rapid move to begin. )
G01 F250.00000
G01 Z-0.20000
G04 P0 ( dwell for no time -- G64 should not smooth over this point )
G01 F500.00000
G01 X-25.06478 Y60.44591
G01 X-25.19538 Y60.54969
G01 X-25.17148 Y60.30702
G01 X-25.17534 Y59.06801
G01 X-24.95507 Y58.95739
G01 X-24.54448 Y59.35952
G04 P0 ( dwell for no time -- G64 should not smooth over this point )
G00 Z2.00000 ( retract )

G00 X-24.95507 Y58.95739 ( rapid move to begin. )
G01 F250.00000
G01 Z-0.20000
G04 P0 ( dwell for no time -- G64 should not smooth over this point )
G01 F500.00000
G01 X-24.95507 Y58.95739
G01 X-25.23821 Y58.73252
G01 X-18.87200 Y58.73252
G01 X-17.76187 Y59.83514
G01 X-17.50591 Y60.01771
G01 X-17.35806 Y60.08932
G01 X-16.79540 Y59.97334
G01 X-17.36154 Y60.09005
G01 X-17.83200 Y60.56051
G01 X-25.20900 Y60.56051
G01 X-25.19538 Y60.54969
G01 X-25.43168 Y60.72917
G01 X-25.20900 Y60.56051
G04 P0 ( dwell for no time -- G64 should not smooth over this point )
G00 Z2.00000 ( retract )

G00 X-25.20902 Y60.56054 ( rapid move to begin. )
G01 F250.00000
G01 Z-0.20000
G04 P0 ( dwell for no time -- G64 should not smooth over this point )
G01 F500.00000
G01 X-25.20902 Y60.56054
G01 X-25.43554 Y60.73216
G01 X-25.39896 Y60.71146
G04 P0 ( dwell for no time -- G64 should not smooth over this point )
G00 Z2.00000 ( retract )

G00 X-25.47699 Y60.76358 ( rapid move to begin. )
G01 F250.00000
G01 Z-0.20000
G04 P0 ( dwell for no time -- G64 should not smooth over this point )
G01 F500.00000
G01 X-25.47699 Y60.76358
G01 X-25.83150 Y60.94657
G01 X-25.43168 Y60.72917
G01 X-25.64925 Y60.85251
G01 X-25.57897 Y60.72122
G01 X-25.50404 Y60.50054
G01 X-25.48499 Y60.30702
G01 X-25.49503 Y59.00499
G01 X-25.17534 Y59.06801
G01 X-25.19658 Y58.85234
G01 X-25.23122 Y58.73809
G01 X-25.39604 Y58.61703
G04 P0 ( dwell for no time -- G64 should not smooth over this point )
G00 Z2.00000 ( retract )

G00 X-26.11199 Y59.10702 ( rapid move to begin. )
G01 F250.00000
G01 Z-0.20000
G04 P0 ( dwell for no time -- G64 should not smooth over this point )
G01 F500.00000
G01 X-26.11199 Y59.10702
G01 X-26.11900 Y60.37821
G01 X-26.19401 Y60.53481
G01 X-26.27420 Y60.61050
G01 X-26.40577 Y60.66501
G01 X-28.78760 Y60.66498
G01 X-28.97236 Y60.62500
G01 X-29.14577 Y60.54974
G01 X-29.27617 Y60.46262
G01 X-29.41206 Y60.33120
G01 X-29.51971 Y60.17580
G01 X-29.59499 Y60.00237
G01 X-29.63497 Y59.81761
G01 X-29.63497 Y59.59640
G01 X-29.59499 Y59.41164
G01 X-29.53497 Y59.26676
G01 X-29.41206 Y59.08281
G01 X-29.27617 Y58.95142
G01 X-29.14577 Y58.86427
G01 X-28.97236 Y58.78901
G01 X-28.78760 Y58.74903
G01 X-26.40577 Y58.74903
G01 X-26.27420 Y58.80352
G01 X-26.19401 Y58.87923
G01 X-26.12840 Y59.00486
G01 X-26.11199 Y59.10702
G01 X-25.80234 Y59.06801
G01 X-25.49503 Y59.00499
G01 X-25.50404 Y58.91347
G01 X-25.54913 Y58.76491
G01 X-25.65218 Y58.55589
G01 X-25.76462 Y58.42247
G01 X-25.34847 Y58.65195
G01 X-25.74367 Y58.42889
G01 X-25.96287 Y58.35658
G01 X-25.79640 Y58.40966
G01 X-25.82170 Y58.39658
G01 X-26.10452 Y58.30987
G01 X-25.96287 Y58.35658
G01 X-26.18258 Y58.29435
G01 X-26.15454 Y58.30293
G01 X-26.45118 Y58.26941
G01 X-26.39462 Y58.26968
G04 P0 ( dwell for no time -- G64 should not smooth over this point )
G00 Z2.00000 ( retract )

G00 X-26.47699 Y58.26702 ( rapid move to begin. )
G01 F250.00000
G01 Z-0.20000
G04 P0 ( dwell for no time -- G64 should not smooth over this point )
G01 F500.00000
G01 X-26.47699 Y58.26702
G01 X-26.45118 Y58.26941
G01 X-26.94912 Y58.26702
G04 P0 ( dwell for no time -- G64 should not smooth over this point )
G00 Z2.00000 ( retract )

G00 X-26.10452 Y58.30987 ( rapid move to begin. )
G01 F250.00000
G01 Z-0.20000
G04 P0 ( dwell for no time -- G64 should not smooth over this point )
G01 F500.00000
G01 X-26.10452 Y58.30987
G01 X-25.76752 Y58.41904
G01 X-18.74216 Y58.41901
G01 X-17.62057 Y59.54060
G01 X-17.48722 Y59.65498
G01 X-17.27167 Y59.78744
G01 X-17.12824 Y59.84685
G01 X-16.88217 Y59.90560
G01 X-16.70028 Y59.91901
G01 X-16.40863 Y59.78647
G01 X-16.69723 Y59.91764
G01 X-16.74915 Y60.01540
G01 X-17.02397 Y60.20123
G01 X-17.70215 Y60.87402
G01 X-25.68139 Y60.87420
G01 X-25.65253 Y60.85858
G01 X-25.87166 Y60.96729
G01 X-25.83150 Y60.94657
G01 X-26.12878 Y61.04611
G01 X-26.00028 Y61.00349
G01 X-26.16777 Y61.05063
G01 X-26.12878 Y61.04611
G01 X-26.30445 Y61.07062
G01 X-26.20684 Y61.06163
G04 P0 ( dwell for no time -- G64 should not smooth over this point )
G00 Z2.00000 ( retract )

G00 X-26.47699 Y61.08652 ( rapid move to begin. )
G01 F250.00000
G01 Z-0.20000
G04 P0 ( dwell for no time -- G64 should not smooth over this point )
G01 F500.00000
G01 X-26.47699 Y61.08652
G01 X-26.30445 Y61.07062
G01 X-26.47699 Y61.08652
G01 X-28.67699 Y61.08652
G01 X-29.02669 Y61.06353
G04 P0 ( dwell for no time -- G64 should not smooth over this point )
G00 Z2.00000 ( retract )

G00 X-29.36141 Y61.00163 ( rapid move to begin. )
G01 F250.00000
G01 Z-0.20000
G04 P0 ( dwell for no time -- G64 should not smooth over this point )
G01 F500.00000
G01 X-29.36141 Y61.00163
G01 X-29.49530 Y60.67509
G01 X-29.31994 Y60.81040
G01 X-29.09233 Y60.91464
G01 X-28.84877 Y60.97247
G01 X-28.67699 Y60.98550
G01 X-26.47699 Y60.98550
G01 X-26.34463 Y60.97247
G01 X-26.10003 Y60.87115
G01 X-25.97234 Y60.75647
G01 X-25.86861 Y60.60125
G01 X-25.81154 Y60.43938
G01 X-25.79848 Y60.30702
G01 X-25.80234 Y59.06801
G01 X-25.83876 Y58.88487
G01 X-25.91283 Y58.73006
G01 X-26.10003 Y58.54286
G01 X-26.25487 Y58.46877
G01 X-26.34463 Y58.44154
G01 X-26.47699 Y58.42851
G01 X-27.78491 Y58.43392
G01 X-27.64714 Y58.41929
G01 X-27.90409 Y58.42899
G01 X-28.11770 Y58.41779
G01 X-28.27206 Y58.38294
G01 X-28.47160 Y58.29696
G01 X-28.71651 Y58.13006
G01 X-28.73668 Y58.08828
G04 P0 ( dwell for no time -- G64 should not smooth over this point )
G00 Z2.00000 ( retract )

G00 X-28.79840 Y57.93910 ( rapid move to begin. )
G01 F250.00000
G01 Z-0.20000
G04 P0 ( dwell for no time -- G64 should not smooth over this point )
G01 F500.00000
G01 X-28.79840 Y57.93910
G01 X-28.64056 Y58.32059
G01 X-28.22710 Y58.41205
G01 X-27.78491 Y58.43392
G01 X-28.81577 Y58.43821
G01 X-28.64056 Y58.32059
G01 X-28.22710 Y58.41205
G01 X-28.64056 Y58.32059
G01 X-28.81181 Y58.43011
G01 X-28.74529 Y58.29354
G01 X-28.71747 Y58.13463
G01 X-28.96403 Y57.61731
G01 X-28.79840 Y57.93910
G01 X-28.96403 Y57.61731
G01 X-29.02911 Y57.38820
G01 X-29.02110 Y57.44172
G04 P0 ( dwell for no time -- G64 should not smooth over this point )
G00 Z2.00000 ( retract )

G00 X-29.04841 Y57.07484 ( rapid move to begin. )
G01 F250.00000
G01 Z-0.20000
G04 P0 ( dwell for no time -- G64 should not smooth over this point )
G01 F500.00000
G01 X-29.04841 Y57.07484
G01 X-29.03812 Y57.30840
G01 X-29.04841 Y57.10606
G01 X-29.04841 Y57.25922
G01 X-29.02700 Y57.39552
G01 X-29.04564 Y57.12983
G01 X-29.03812 Y57.02562
G01 X-29.04727 Y57.09725
G01 X-29.04841 Y57.07484
G01 X-29.02110 Y56.89232
G01 X-29.02700 Y56.93855
G01 X-28.96403 Y56.71673
G01 X-28.67897 Y56.19854
G01 X-28.96403 Y56.71673
G01 X-29.02110 Y56.89232
G04 P0 ( dwell for no time -- G64 should not smooth over this point )
G00 Z2.00000 ( retract )

G00 X-28.65720 Y56.15897 ( rapid move to begin. )
G01 F250.00000
G01 Z-0.20000
G04 P0 ( dwell for no time -- G64 should not smooth over this point )
G01 F500.00000
G01 X-28.65720 Y56.15897
G01 X-28.67897 Y56.19854
G01 X-28.65776 Y56.15369
G01 X-28.47160 Y56.03705
G01 X-28.31882 Y55.96903
G01 X-28.10444 Y55.91556
G01 X-28.27043 Y55.93093
G01 X-28.58290 Y55.99529
G01 X-28.65776 Y56.15369
G01 X-28.67526 Y55.99456
G01 X-28.70767 Y55.90550
G01 X-28.03416 Y55.90550
G01 X-28.10444 Y55.91556
G01 X-27.79337 Y55.89920
G01 X-27.83881 Y55.90159
G01 X-27.74356 Y55.90345
G01 X-27.91313 Y55.90550
G01 X-27.69411 Y55.90444
G01 X-27.73221 Y55.90444
G01 X-27.66690 Y55.91002
G01 X-27.73411 Y55.90550
G01 X-27.42164 Y55.93873
G04 P0 ( dwell for no time -- G64 should not smooth over this point )
G00 Z2.00000 ( retract )

G00 X-27.07168 Y56.02702 ( rapid move to begin. )
G01 F250.00000
G01 Z-0.20000
G04 P0 ( dwell for no time -- G64 should not smooth over this point )
G01 F500.00000
G01 X-27.07168 Y56.02702
G01 X-27.42164 Y55.93873
G01 X-27.68562 Y55.90550
G01 X-27.07699 Y55.90550
G01 X-26.75141 Y55.86187
G01 X-26.58766 Y55.80400
G01 X-26.55802 Y55.90591
G01 X-26.51379 Y55.98864
G01 X-26.40234 Y56.13944
G01 X-26.68022 Y55.99885
G01 X-27.07168 Y56.02702
G01 X-27.36439 Y55.95315
G01 X-27.64049 Y55.91543
G01 X-27.53028 Y55.93812
G01 X-27.28237 Y56.03705
G01 X-27.10955 Y56.14970
G01 X-26.38075 Y56.14851
G01 X-26.26985 Y56.18744
G01 X-26.40234 Y56.13944
G01 X-26.15512 Y56.21498
G01 X-26.21461 Y56.20687
G04 P0 ( dwell for no time -- G64 should not smooth over this point )
G00 Z2.00000 ( retract )

G00 X-25.88588 Y56.25178 ( rapid move to begin. )
G01 F250.00000
G01 Z-0.20000
G04 P0 ( dwell for no time -- G64 should not smooth over this point )
G01 F500.00000
G01 X-25.88588 Y56.25178
G01 X-26.15512 Y56.21498
G01 X-25.88588 Y56.25178
G01 X-18.13830 Y56.25425
G01 X-17.90650 Y56.30520
G01 X-17.74919 Y56.37998
G01 X-17.63840 Y56.46131
G01 X-17.32760 Y56.74993
G04 P0 ( dwell for no time -- G64 should not smooth over this point )
G00 Z2.00000 ( retract )

G00 X-16.35976 Y55.80065 ( rapid move to begin. )
G01 F250.00000
G01 Z-0.20000
G04 P0 ( dwell for no time -- G64 should not smooth over this point )
G01 F500.00000
G01 X-16.35976 Y55.80065
G01 X-16.39118 Y56.04772
G01 X-16.39702 Y56.55242
G01 X-16.47033 Y57.05904
G01 X-16.16716 Y57.35704
G01 X-15.55316 Y57.35701
G04 P0 ( dwell for no time -- G64 should not smooth over this point )
G00 Z2.00000 ( retract )

G00 X-16.47033 Y57.05904 ( rapid move to begin. )
G01 F250.00000
G01 Z-0.20000
G04 P0 ( dwell for no time -- G64 should not smooth over this point )
G01 F500.00000
G01 X-16.47033 Y57.05904
G01 X-16.80782 Y56.99704
G01 X-17.01331 Y56.92409
G01 X-17.19370 Y56.83903
G01 X-17.14389 Y56.86250
G01 X-17.32760 Y56.74993
G01 X-17.19370 Y56.83903
G04 P0 ( dwell for no time -- G64 should not smooth over this point )
G00 Z2.00000 ( retract )

G00 X-17.44099 Y60.10453 ( rapid move to begin. )
G01 F250.00000
G01 Z-0.20000
G04 P0 ( dwell for no time -- G64 should not smooth over this point )
G01 F500.00000
G01 X-17.44099 Y60.10453
G01 X-17.86669 Y60.15188
G01 X-18.06393 Y59.98396
G01 X-19.00187 Y59.04601
G01 X-24.86142 Y59.04601
G01 X-24.95507 Y58.95739
G01 X-25.35703 Y58.64713
G01 X-25.78199 Y58.41713
G01 X-26.14842 Y58.30481
G01 X-26.45636 Y58.26938
G01 X-26.94912 Y58.26702
G01 X-27.42164 Y58.39534
G01 X-27.64714 Y58.41929
G01 X-27.48192 Y58.38294
G01 X-27.19573 Y58.24695
G01 X-27.00988 Y58.10552
G01 X-18.61229 Y58.10552
G01 X-17.39890 Y59.31891
G01 X-17.21033 Y59.46475
G01 X-17.03723 Y59.54685
G01 X-16.85143 Y59.59361
G01 X-16.06469 Y59.60552
G01 X-15.87325 Y59.75025
G01 X-15.70620 Y59.83567
G01 X-16.11031 Y59.72569
G01 X-16.40863 Y59.78647
G01 X-16.79540 Y59.97334
G01 X-17.44099 Y60.10453
G01 X-17.99799 Y60.15977
G01 X-18.55770 Y59.93354
G01 X-24.54446 Y59.93351
G01 X-25.06478 Y60.44591
G01 X-25.43386 Y60.73036
G01 X-25.83579 Y60.94786
G01 X-26.17290 Y61.05121
G01 X-26.45522 Y61.08398
G01 X-28.70653 Y61.08456
G01 X-29.02669 Y61.06353
G01 X-29.36141 Y61.00163
G01 X-29.70500 Y61.18751
G01 X-17.57228 Y61.18751
G01 X-16.82509 Y60.44357
G01 X-16.67135 Y60.32927
G01 X-16.48831 Y60.24418
G01 X-16.45905 Y60.13389
G01 X-16.41486 Y60.05116
G01 X-16.28283 Y59.91916
G01 X-16.20010 Y59.87494
G01 X-16.01699 Y59.83852
G01 X-15.70620 Y59.83567
G01 X-15.58641 Y59.85955
G01 X-16.11031 Y59.72569
G04 P0 ( dwell for no time -- G64 should not smooth over this point )
G00 Z2.00000 ( retract )

G00 X-15.52225 Y59.87136 ( rapid move to begin. )
G01 F250.00000
G01 Z-0.20000
G04 P0 ( dwell for no time -- G64 should not smooth over this point )
G01 F500.00000
G01 X-15.52225 Y59.87136
G01 X-15.66429 Y59.84377
G01 X-15.25583 Y59.89467
G01 X-15.29957 Y59.89003
G01 X-14.98938 Y59.89003
G01 X-15.16728 Y59.89003
G01 X-14.88801 Y59.87535
G01 X-14.98938 Y59.89003
G01 X-14.62372 Y59.83346
G01 X-14.71689 Y59.85630
G04 P0 ( dwell for no time -- G64 should not smooth over this point )
G00 Z2.00000 ( retract )

G00 X-14.48557 Y59.80562 ( rapid move to begin. )
G01 F250.00000
G01 Z-0.20000
G04 P0 ( dwell for no time -- G64 should not smooth over this point )
G01 F500.00000
G01 X-14.48557 Y59.80562
G01 X-14.63325 Y59.83852
G01 X-14.45189 Y59.83852
G01 X-14.44531 Y59.73979
G01 X-14.24001 Y59.45947
G01 X-14.48557 Y59.80562
G01 X-14.62372 Y59.83346
G01 X-14.44435 Y59.73834
G01 X-14.24001 Y59.45947
G01 X-13.94869 Y59.16371
G01 X-14.24001 Y59.45947
G01 X-13.95611 Y59.16714
G01 X-13.87486 Y58.92508
G01 X-13.86271 Y58.72224
G01 X-13.90409 Y59.11843
G01 X-13.94869 Y59.16371
G01 X-13.87508 Y59.14357
G01 X-13.85779 Y58.57878
G01 X-13.87354 Y58.89859
G01 X-13.90409 Y59.11843
G04 P0 ( dwell for no time -- G64 should not smooth over this point )
G00 Z2.00000 ( retract )

G00 X-14.15200 Y58.62701 ( rapid move to begin. )
G01 F250.00000
G01 Z-0.20000
G04 P0 ( dwell for no time -- G64 should not smooth over this point )
G01 F500.00000
G01 X-14.15200 Y58.62701
G01 X-14.17864 Y58.85472
G01 X-14.23973 Y59.03984
G01 X-14.34582 Y59.22361
G01 X-14.48781 Y59.38132
G01 X-14.67488 Y59.51388
G01 X-14.85334 Y59.59234
G01 X-15.06088 Y59.63646
G01 X-15.27307 Y59.63646
G01 X-15.48064 Y59.59234
G01 X-15.65910 Y59.51388
G01 X-15.84615 Y59.38132
G01 X-15.92776 Y59.29201
G01 X-16.72316 Y59.29122
G01 X-16.94622 Y59.24685
G01 X-17.06256 Y59.18828
G01 X-17.17721 Y59.09724
G01 X-18.48244 Y57.79201
G01 X-27.14265 Y57.78706
G01 X-27.24470 Y57.89501
G01 X-27.38001 Y57.99333
G01 X-27.56266 Y58.07860
G01 X-27.77612 Y58.12673
G01 X-27.97785 Y58.12673
G01 X-28.17518 Y58.08477
G01 X-28.34409 Y58.01058
G01 X-28.50927 Y57.89501
G01 X-28.65768 Y57.73423
G01 X-28.75857 Y57.55953
G01 X-28.81643 Y57.38434
G01 X-28.84198 Y57.16702
G01 X-28.82359 Y56.98343
G01 X-28.75072 Y56.75912
G01 X-28.65768 Y56.59981
G01 X-28.53492 Y56.46209
G01 X-28.34409 Y56.32346
G01 X-28.17518 Y56.24924
G01 X-27.96060 Y56.20639
G01 X-27.77612 Y56.20731
G01 X-27.57879 Y56.24924
G01 X-27.38001 Y56.34071
G01 X-27.20846 Y56.47388
G01 X-27.08700 Y56.46202
G01 X-18.20698 Y56.46202
G01 X-18.09326 Y56.47241
G01 X-17.93787 Y56.51955
G01 X-17.74876 Y56.64591
G01 X-16.43154 Y57.96201
G01 X-15.92776 Y57.96201
G01 X-15.84615 Y57.87273
G01 X-15.65910 Y57.74015
G01 X-15.48064 Y57.66168
G01 X-15.27307 Y57.61756
G01 X-15.04384 Y57.62028
G01 X-14.85334 Y57.66168
G01 X-14.67488 Y57.74015
G01 X-14.48781 Y57.87273
G01 X-14.33642 Y58.04489
G01 X-14.23973 Y58.21419
G01 X-14.17864 Y58.39930
G01 X-14.15200 Y58.62701
G04 P0 ( dwell for no time -- G64 should not smooth over this point )
G00 Z2.00000 ( retract )

G00 X-15.55314 Y57.35701 ( rapid move to begin. )
G01 F250.00000
G01 Z-0.20000
G04 P0 ( dwell for no time -- G64 should not smooth over this point )
G01 F500.00000
G01 X-15.55314 Y57.35701
G01 X-15.78661 Y57.26026
G01 X-16.05593 Y57.07428
G01 X-16.21026 Y56.90680
G01 X-16.35788 Y56.67200
G01 X-16.40023 Y56.57553
G01 X-16.38880 Y56.02905
G01 X-16.36568 Y55.84731
G01 X-16.30028 Y55.61762
G01 X-16.13426 Y55.33560
G01 X-15.96307 Y55.15376
G04 P0 ( dwell for no time -- G64 should not smooth over this point )
G00 Z2.00000 ( retract )

G00 X-14.89253 Y54.81704 ( rapid move to begin. )
G01 F250.00000
G01 Z-0.20000
G04 P0 ( dwell for no time -- G64 should not smooth over this point )
G01 F500.00000
G01 X-14.89253 Y54.81704
G01 X-14.51590 Y55.04724
G01 X-14.37033 Y55.15425
G01 X-14.89253 Y54.81704
G01 X-15.44143 Y54.81701
G01 X-15.81435 Y55.04488
G01 X-15.96307 Y55.15376
G01 X-16.11806 Y55.31841
G01 X-16.30028 Y55.61762
G01 X-16.35976 Y55.80065
G01 X-16.37770 Y55.92062
G01 X-16.39992 Y56.55790
G01 X-16.44257 Y56.63880
G01 X-16.57457 Y56.77083
G01 X-16.73810 Y56.86903
G01 X-17.00726 Y56.92287
G01 X-17.05908 Y56.90362
G01 X-16.30167 Y57.64850
G01 X-16.06469 Y57.64850
G01 X-15.78661 Y57.45376
G01 X-15.55316 Y57.35701
G01 X-14.78075 Y57.35701
G04 P0 ( dwell for no time -- G64 should not smooth over this point )
G00 Z2.00000 ( retract )

G00 X-14.78072 Y57.35701 ( rapid move to begin. )
G01 F250.00000
G01 Z-0.20000
G04 P0 ( dwell for no time -- G64 should not smooth over this point )
G01 F500.00000
G01 X-14.78072 Y57.35701
G01 X-14.54737 Y57.45376
G01 X-14.27806 Y57.63974
G01 X-14.06492 Y57.88815
G01 X-13.97607 Y58.04202
G01 X-13.88047 Y58.30243
G01 X-13.86025 Y58.62882
G01 X-13.87747 Y58.30143
G01 X-13.96470 Y57.89122
G01 X-14.16564 Y57.35701
G01 X-14.78075 Y57.35701
G01 X-14.46073 Y57.21025
G01 X-14.27806 Y57.07428
G01 X-14.09220 Y56.86788
G01 X-13.97607 Y56.67200
G01 X-13.88047 Y56.41160
G01 X-13.84420 Y56.00743
G01 X-13.87663 Y56.41289
G01 X-13.92817 Y56.69963
G01 X-14.01689 Y57.00299
G01 X-14.16564 Y57.35701
G01 X-13.97625 Y57.83697
G01 X-13.92873 Y58.01472
G01 X-13.87219 Y58.37573
G01 X-13.87260 Y56.37469
G01 X-13.83137 Y55.96524
G01 X-13.84420 Y56.00743
G01 X-13.89363 Y55.72199
G01 X-13.91240 Y55.69829
G01 X-13.88959 Y55.72648
G01 X-13.73008 Y55.76448
G01 X-13.81491 Y55.80233
G01 X-13.83137 Y55.96524
G01 X-13.72632 Y55.76563
G01 X-13.39287 Y55.61673
G01 X-13.81491 Y55.80233
G01 X-14.23366 Y55.29334
G01 X-13.91240 Y55.69829
G01 X-14.23366 Y55.29334
G01 X-14.37033 Y55.15425
G04 P0 ( dwell for no time -- G64 should not smooth over this point )
G00 Z2.00000 ( retract )

G00 X-14.15200 Y56.08701 ( rapid move to begin. )
G01 F250.00000
G01 Z-0.20000
G04 P0 ( dwell for no time -- G64 should not smooth over this point )
G01 F500.00000
G01 X-14.15200 Y56.08701
G01 X-14.17864 Y55.85930
G01 X-14.23973 Y55.67419
G01 X-14.34582 Y55.49042
G01 X-14.47562 Y55.34493
G01 X-14.67488 Y55.20015
G01 X-14.85334 Y55.12168
G01 X-15.07813 Y55.07668
G01 X-15.27307 Y55.07756
G01 X-15.48064 Y55.12168
G01 X-15.68897 Y55.21739
G01 X-15.84615 Y55.33273
G01 X-15.98814 Y55.49042
G01 X-16.09423 Y55.67419
G01 X-16.15534 Y55.85930
G01 X-16.18199 Y56.08701
G01 X-16.15534 Y56.31472
G01 X-16.09423 Y56.49984
G01 X-15.98814 Y56.68361
G01 X-15.85837 Y56.82910
G01 X-15.65910 Y56.97388
G01 X-15.48064 Y57.05234
G01 X-15.25583 Y57.09735
G01 X-15.06088 Y57.09646
G01 X-14.85334 Y57.05234
G01 X-14.67488 Y56.97388
G01 X-14.48781 Y56.84132
G01 X-14.34582 Y56.68361
G01 X-14.23973 Y56.49984
G01 X-14.17864 Y56.31472
G01 X-14.15200 Y56.08701
G04 P0 ( dwell for no time -- G64 should not smooth over this point )
G00 Z2.00000 ( retract )

G00 X-13.33246 Y55.58976 ( rapid move to begin. )
G01 F250.00000
G01 Z-0.20000
G04 P0 ( dwell for no time -- G64 should not smooth over this point )
G01 F500.00000
G01 X-13.33246 Y55.58976
G01 X-13.73008 Y55.76448
G01 X-13.33246 Y55.58976
G01 X-13.32187 Y55.58234
G01 X-13.37054 Y55.60406
G01 X-13.25129 Y55.53637
G01 X-13.24219 Y55.52720
G01 X-13.27745 Y55.55122
G01 X-13.18461 Y55.46913
G01 X-13.20920 Y55.50340
G04 P0 ( dwell for no time -- G64 should not smooth over this point )
G00 Z2.00000 ( retract )

G00 X-13.14776 Y55.43195 ( rapid move to begin. )
G01 F250.00000
G01 Z-0.20000
G04 P0 ( dwell for no time -- G64 should not smooth over this point )
G01 F500.00000
G01 X-13.14776 Y55.43195
G01 X-13.20920 Y55.50340
G01 X-13.06693 Y55.30502
G01 X-13.08375 Y55.32847
G01 X-13.02893 Y55.16100
G01 X-13.05182 Y55.25041
G01 X-13.03749 Y55.21536
G01 X-13.02063 Y55.10822
G01 X-13.06693 Y55.30502
G04 P0 ( dwell for no time -- G64 should not smooth over this point )
G00 Z2.00000 ( retract )

G00 X-13.01098 Y53.99044 ( rapid move to begin. )
G01 F250.00000
G01 Z-0.20000
G04 P0 ( dwell for no time -- G64 should not smooth over this point )
G01 F500.00000
G01 X-13.01098 Y53.99044
G01 X-13.02083 Y55.13024
G01 X-13.01098 Y53.99044
G01 X-13.04710 Y53.81064
G01 X-13.14964 Y53.54871
G01 X-13.03727 Y53.25153
G01 X-13.01768 Y53.12730
G01 X-13.01070 Y52.26932
G01 X-13.01070 Y53.08285
G01 X-13.03727 Y53.25153
G04 P0 ( dwell for no time -- G64 should not smooth over this point )
G00 Z2.00000 ( retract )

G00 X-11.33199 Y51.77201 ( rapid move to begin. )
G01 F250.00000
G01 Z-0.20000
G04 P0 ( dwell for no time -- G64 should not smooth over this point )
G01 F500.00000
G01 X-11.33199 Y51.77201
G01 X-11.33199 Y51.94201
G01 X-11.58611 Y51.93879
G01 X-11.67920 Y51.90406
G01 X-11.75629 Y51.84633
G01 X-11.81403 Y51.76921
G01 X-11.84875 Y51.67615
G01 X-11.85200 Y51.42202
G01 X-11.68200 Y51.42202
G01 X-11.67882 Y51.63919
G01 X-11.65418 Y51.69868
G01 X-11.60867 Y51.74420
G01 X-11.54918 Y51.76883
G01 X-11.33199 Y51.77201
G04 P0 ( dwell for no time -- G64 should not smooth over this point )
G00 Z2.00000 ( retract )

G00 X-9.48195 Y51.17201 ( rapid move to begin. )
G01 F250.00000
G01 Z-0.20000
G04 P0 ( dwell for no time -- G64 should not smooth over this point )
G01 F500.00000
G01 X-9.48195 Y51.17201
G01 X-9.48195 Y51.64600
G01 X-9.51990 Y51.76921
G01 X-9.57766 Y51.84633
G01 X-9.65480 Y51.90406
G01 X-9.74786 Y51.93879
G01 X-10.00199 Y51.94201
G01 X-10.00199 Y51.77201
G01 X-9.78480 Y51.76883
G01 X-9.70032 Y51.72370
G01 X-9.66455 Y51.67015
G01 X-9.65198 Y51.60701
G01 X-9.65198 Y51.17201
G01 X-9.48195 Y51.17201
G04 P0 ( dwell for no time -- G64 should not smooth over this point )
G00 Z2.00000 ( retract )

G00 X-8.50245 Y49.57234 ( rapid move to begin. )
G01 F250.00000
G01 Z-0.20000
G04 P0 ( dwell for no time -- G64 should not smooth over this point )
G01 F500.00000
G01 X-8.50245 Y49.57234
G01 X-8.50565 Y61.71654
G01 X-8.53148 Y61.83633
G01 X-8.57954 Y61.92487
G01 X-8.72226 Y62.12154
G01 X-8.92836 Y62.35200
G01 X-9.22836 Y62.61976
G01 X-9.41980 Y62.75535
G01 X-9.58548 Y62.82429
G01 X-13.68118 Y62.83152
G01 X-13.80866 Y62.80938
G01 X-13.94892 Y62.73079
G01 X-14.06365 Y62.57595
G01 X-14.09200 Y62.44971
G01 X-14.06525 Y62.26307
G01 X-13.98522 Y62.08614
G01 X-13.98199 Y61.83201
G01 X-14.15200 Y61.83201
G01 X-14.16454 Y62.08017
G01 X-14.20031 Y62.13368
G01 X-14.28479 Y62.17885
G01 X-16.01699 Y62.18202
G01 X-16.10866 Y62.15421
G01 X-16.15941 Y62.09889
G01 X-16.78453 Y62.70930
G01 X-16.92776 Y62.78586
G01 X-17.05326 Y62.82060
G01 X-17.16698 Y62.83102
G01 X-49.16798 Y62.83102
G01 X-49.28169 Y62.82060
G01 X-49.43712 Y62.77346
G01 X-49.55045 Y62.70930
G01 X-49.63821 Y62.63625
G01 X-50.64809 Y61.62525
G01 X-50.72825 Y61.52259
G01 X-50.81527 Y61.31245
G01 X-50.83198 Y61.16701
G01 X-50.83120 Y57.56085
G01 X-50.81527 Y57.43156
G01 X-50.77445 Y57.30789
G01 X-50.71027 Y57.19455
G01 X-50.63722 Y57.10680
G01 X-49.92022 Y56.39092
G01 X-49.73112 Y56.26456
G01 X-49.57570 Y56.21742
G01 X-47.35198 Y56.20700
G01 X-47.21373 Y56.22156
G01 X-47.09762 Y56.25831
G01 X-46.95335 Y56.34030
G01 X-46.75518 Y56.24924
G01 X-46.54060 Y56.20639
G01 X-44.77337 Y56.20639
G01 X-44.55879 Y56.24924
G01 X-44.36001 Y56.34071
G01 X-44.19905 Y56.46207
G01 X-44.08717 Y56.58638
G01 X-43.97541 Y56.77451
G01 X-43.91038 Y56.98343
G01 X-43.89288 Y57.18424
G01 X-43.91754 Y57.38434
G01 X-43.97541 Y57.55953
G01 X-44.06687 Y57.71975
G01 X-44.19905 Y57.87195
G01 X-44.36001 Y57.99333
G01 X-44.55879 Y58.08480
G01 X-44.75613 Y58.12673
G01 X-46.45699 Y58.13202
G01 X-46.73852 Y58.08927
G01 X-46.93948 Y58.00273
G01 X-47.11492 Y57.87195
G01 X-47.24710 Y57.71975
G01 X-47.34690 Y57.53674
G01 X-49.18655 Y57.53702
G01 X-49.50199 Y57.85246
G01 X-49.50199 Y60.89157
G01 X-48.89254 Y61.50102
G01 X-17.44244 Y61.50102
G01 X-16.55044 Y60.62373
G01 X-16.40724 Y60.54718
G01 X-16.18199 Y60.50270
G01 X-16.16942 Y60.25388
G01 X-16.10866 Y60.17982
G01 X-16.04917 Y60.15518
G01 X-14.28479 Y60.15518
G01 X-14.20031 Y60.20034
G01 X-14.16454 Y60.25388
G01 X-14.15200 Y60.50201
G01 X-13.98199 Y60.50201
G01 X-13.98522 Y60.24789
G01 X-14.01994 Y60.15482
G01 X-14.11798 Y59.98693
G01 X-14.13391 Y59.92455
G01 X-14.13767 Y59.79523
G01 X-14.09761 Y59.67220
G01 X-13.97597 Y59.52272
G01 X-13.86068 Y59.46404
G01 X-13.74656 Y59.44136
G01 X-13.56183 Y59.44108
G01 X-13.55893 Y56.19595
G01 X-13.53671 Y56.06850
G01 X-13.43975 Y55.90571
G01 X-13.13821 Y55.71739
G01 X-13.06142 Y55.65668
G01 X-12.96447 Y55.54284
G01 X-12.87176 Y55.39006
G01 X-12.81021 Y55.16987
G01 X-12.79729 Y55.03870
G01 X-12.79858 Y53.97343
G01 X-12.88972 Y53.53754
G01 X-12.82551 Y53.28392
G01 X-12.79706 Y53.07475
G01 X-12.79696 Y52.26472
G01 X-12.80988 Y52.13335
G01 X-12.85266 Y51.95832
G01 X-12.92076 Y51.82517
G01 X-13.02645 Y51.68108
G01 X-13.14031 Y51.58413
G01 X-13.40709 Y51.42202
G01 X-16.89154 Y51.42202
G01 X-18.10675 Y52.63723
G01 X-18.22143 Y52.72827
G01 X-18.33774 Y52.78684
G01 X-18.46326 Y52.82161
G01 X-18.57698 Y52.83200
G01 X-20.15198 Y52.83203
G01 X-20.16456 Y53.08016
G01 X-20.22531 Y53.15420
G01 X-20.28480 Y53.17884
G01 X-22.01698 Y53.18201
G01 X-22.08012 Y53.16944
G01 X-22.13367 Y53.13368
G01 X-22.16943 Y53.08016
G01 X-22.18198 Y53.01702
G01 X-22.18198 Y51.31702
G01 X-22.16943 Y51.25387
G01 X-22.13367 Y51.20033
G01 X-22.08012 Y51.16457
G01 X-22.01698 Y51.15202
G01 X-20.31698 Y51.15202
G01 X-20.22531 Y51.17981
G01 X-20.16456 Y51.25387
G01 X-20.15198 Y51.50201
G01 X-18.85244 Y51.50201
G01 X-17.63721 Y50.28679
G01 X-17.54945 Y50.21372
G01 X-17.43611 Y50.14956
G01 X-17.31244 Y50.10872
G01 X-17.16698 Y50.09200
G01 X-15.83198 Y50.09200
G01 X-15.83200 Y44.18201
G01 X-16.08013 Y44.16946
G01 X-16.13365 Y44.13370
G01 X-16.17881 Y44.04922
G01 X-16.18199 Y42.31701
G01 X-16.16942 Y42.25387
G01 X-16.13365 Y42.20035
G01 X-16.08013 Y42.16456
G01 X-16.01699 Y42.15201
G01 X-14.31699 Y42.15201
G01 X-14.25385 Y42.16456
G01 X-14.20031 Y42.20035
G01 X-14.15517 Y42.28483
G01 X-14.15517 Y44.04922
G01 X-14.20031 Y44.13370
G01 X-14.25385 Y44.16946
G01 X-14.50198 Y44.18201
G01 X-14.50198 Y50.09200
G01 X-13.36173 Y50.09200
G01 X-13.05893 Y49.86617
G01 X-12.94771 Y49.73467
G01 X-12.87087 Y49.60150
G01 X-12.75962 Y49.20483
G01 X-12.65822 Y49.08197
G01 X-12.49287 Y49.00064
G01 X-12.07623 Y48.98494
G01 X-11.91751 Y49.01492
G01 X-11.78233 Y49.10338
G01 X-11.69129 Y49.23681
G01 X-11.66175 Y49.36277
G01 X-11.68629 Y49.54854
G01 X-11.81403 Y49.74481
G01 X-11.84875 Y49.83790
G01 X-11.85197 Y50.09200
G01 X-11.68200 Y50.09200
G01 X-11.66942 Y49.84387
G01 X-11.60867 Y49.76983
G01 X-11.54918 Y49.74519
G01 X-9.78480 Y49.74519
G01 X-9.70032 Y49.79035
G01 X-9.65513 Y49.87483
G01 X-9.65198 Y50.34201
G01 X-9.48195 Y50.34201
G01 X-9.48198 Y49.86800
G01 X-9.51990 Y49.74483
G01 X-9.57766 Y49.66770
G01 X-9.65498 Y49.60981
G01 X-9.79582 Y49.55568
G01 X-9.91619 Y49.46983
G01 X-10.00402 Y49.33427
G01 X-10.03326 Y49.17544
G01 X-9.99950 Y49.01748
G01 X-9.93920 Y48.92060
G01 X-9.88297 Y48.86384
G01 X-9.78662 Y48.80267
G01 X-9.55162 Y48.71210
G01 X-9.40819 Y48.68268
G01 X-9.25488 Y48.70808
G01 X-9.14406 Y48.76963
G01 X-8.96742 Y48.90829
G01 X-8.74418 Y49.12736
G01 X-8.57395 Y49.34321
G01 X-8.51944 Y49.45522
G01 X-8.50245 Y49.57234
G01 X-8.18899 Y49.57234
G01 X-8.22033 Y49.36124
G01 X-8.29468 Y49.20082
G01 X-8.52457 Y48.90361
G01 X-8.74784 Y48.68454
G01 X-8.95168 Y48.52208
G01 X-9.07860 Y48.44504
G01 X-9.18363 Y48.40438
G01 X-9.04652 Y48.38726
G01 X-8.62696 Y48.37740
G04 P0 ( dwell for no time -- G64 should not smooth over this point )
G00 Z2.00000 ( retract )

G00 X-8.16699 Y48.37821 ( rapid move to begin. )
G01 F250.00000
G01 Z-0.20000
G04 P0 ( dwell for no time -- G64 should not smooth over this point )
G01 F500.00000
G01 X-8.16699 Y48.37821
G01 X-8.62696 Y48.37740
G01 X-8.48454 Y48.25660
G01 X-8.16699 Y47.91507
G04 P0 ( dwell for no time -- G64 should not smooth over this point )
G00 Z2.00000 ( retract )

G00 X-9.30870 Y48.42002 ( rapid move to begin. )
G01 F250.00000
G01 Z-0.20000
G04 P0 ( dwell for no time -- G64 should not smooth over this point )
G01 F500.00000
G01 X-9.30870 Y48.42002
G01 X-9.18363 Y48.40438
G01 X-9.40542 Y48.44593
G01 X-9.24560 Y48.41212
G01 X-9.38256 Y48.43981
G01 X-9.30870 Y48.42002
G01 X-9.53382 Y48.48035
G01 X-9.48599 Y48.46272
G04 P0 ( dwell for no time -- G64 should not smooth over this point )
G00 Z2.00000 ( retract )

G00 X-9.86978 Y48.60415 ( rapid move to begin. )
G01 F250.00000
G01 Z-0.20000
G04 P0 ( dwell for no time -- G64 should not smooth over this point )
G01 F500.00000
G01 X-9.86978 Y48.60415
G01 X-9.53382 Y48.48035
G01 X-9.99084 Y48.66307
G01 X-9.90232 Y48.61944
G01 X-9.93941 Y48.63381
G01 X-10.19102 Y48.77697
G01 X-10.05386 Y48.69073
G04 P0 ( dwell for no time -- G64 should not smooth over this point )
G00 Z2.00000 ( retract )

G00 X-10.25218 Y48.81177 ( rapid move to begin. )
G01 F250.00000
G01 Z-0.20000
G04 P0 ( dwell for no time -- G64 should not smooth over this point )
G01 F500.00000
G01 X-10.25218 Y48.81177
G01 X-10.63450 Y49.13998
G04 P0 ( dwell for no time -- G64 should not smooth over this point )
G00 Z2.00000 ( retract )

G00 X-10.23592 Y48.80100 ( rapid move to begin. )
G01 F250.00000
G01 Z-0.20000
G04 P0 ( dwell for no time -- G64 should not smooth over this point )
G01 F500.00000
G01 X-10.23592 Y48.80100
G01 X-10.07928 Y48.70613
G01 X-10.23659 Y48.80224
G01 X-10.45492 Y48.83851
G01 X-10.76186 Y48.85947
G01 X-11.58743 Y48.86826
G01 X-11.45784 Y48.92109
G01 X-11.09818 Y49.14603
G01 X-10.63450 Y49.13998
G01 X-10.28459 Y48.83958
G01 X-10.19102 Y48.77697
G01 X-10.25218 Y48.81177
G01 X-10.23707 Y48.80316
G01 X-10.29556 Y48.91319
G01 X-10.33801 Y49.08344
G01 X-10.33707 Y49.28568
G01 X-10.30146 Y49.42850
G01 X-11.34804 Y49.42850
G01 X-11.35487 Y49.29866
G01 X-11.40283 Y49.11408
G01 X-11.56597 Y48.87702
G01 X-11.69485 Y48.83239
G01 X-11.58743 Y48.86826
G04 P0 ( dwell for no time -- G64 should not smooth over this point )
G00 Z2.00000 ( retract )

G00 X-11.58746 Y48.86823 ( rapid move to begin. )
G01 F250.00000
G01 Z-0.20000
G04 P0 ( dwell for no time -- G64 should not smooth over this point )
G01 F500.00000
G01 X-11.58746 Y48.86823
G01 X-11.74768 Y48.81413
G01 X-11.69485 Y48.83239
G01 X-11.90658 Y48.78380
G01 X-11.74768 Y48.81413
G04 P0 ( dwell for no time -- G64 should not smooth over this point )
G00 Z2.00000 ( retract )

G00 X-11.90658 Y48.78380 ( rapid move to begin. )
G01 F250.00000
G01 Z-0.20000
G04 P0 ( dwell for no time -- G64 should not smooth over this point )
G01 F500.00000
G01 X-11.90658 Y48.78380
G01 X-12.45545 Y48.77776
G01 X-12.71563 Y48.82350
G01 X-12.60247 Y48.79912
G01 X-12.71004 Y48.82116
G01 X-12.65911 Y48.80585
G04 P0 ( dwell for no time -- G64 should not smooth over this point )
G00 Z2.00000 ( retract )

G00 X-12.90638 Y48.88309 ( rapid move to begin. )
G01 F250.00000
G01 Z-0.20000
G04 P0 ( dwell for no time -- G64 should not smooth over this point )
G01 F500.00000
G01 X-12.90638 Y48.88309
G01 X-12.71004 Y48.82116
G01 X-12.90912 Y48.89208
G01 X-12.84796 Y48.86269
G01 X-12.90854 Y48.88093
G01 X-12.99094 Y49.15921
G01 X-12.90912 Y48.89208
G01 X-12.99094 Y49.15921
G01 X-13.02805 Y49.39416
G01 X-13.06632 Y49.51712
G01 X-13.17918 Y49.67539
G01 X-13.06632 Y49.51712
G04 P0 ( dwell for no time -- G64 should not smooth over this point )
G00 Z2.00000 ( retract )

G00 X-13.66749 Y49.88177 ( rapid move to begin. )
G01 F250.00000
G01 Z-0.20000
G04 P0 ( dwell for no time -- G64 should not smooth over this point )
G01 F500.00000
G01 X-13.66749 Y49.88177
G01 X-13.44588 Y49.86645
G01 X-13.26056 Y49.75002
G01 X-13.17918 Y49.67539
G01 X-13.28466 Y49.77211
G01 X-13.44588 Y49.86645
G01 X-13.63610 Y49.88177
G01 X-13.83853 Y49.86856
G01 X-13.69622 Y49.87783
G01 X-13.99612 Y49.83691
G01 X-13.92246 Y49.84694
G01 X-14.18849 Y49.77852
G01 X-14.20666 Y49.70783
G01 X-14.17407 Y49.77811
G01 X-14.24684 Y49.58624
G01 X-14.21920 Y49.65906
G01 X-14.25687 Y49.51265
G01 X-14.24684 Y49.58624
G04 P0 ( dwell for no time -- G64 should not smooth over this point )
G00 Z2.00000 ( retract )

G00 X-14.29172 Y49.25751 ( rapid move to begin. )
G01 F250.00000
G01 Z-0.20000
G04 P0 ( dwell for no time -- G64 should not smooth over this point )
G01 F500.00000
G01 X-14.29172 Y49.25751
G01 X-14.25687 Y49.51265
G01 X-14.29172 Y49.25751
G01 X-14.29172 Y44.78101
G01 X-14.27851 Y44.60997
G01 X-14.24176 Y44.43552
G01 X-14.02162 Y44.25054
G01 X-13.97572 Y44.17614
G01 X-13.94753 Y44.09054
G04 P0 ( dwell for no time -- G64 should not smooth over this point )
G00 Z2.00000 ( retract )

G00 X-11.08200 Y47.18203 ( rapid move to begin. )
G01 F250.00000
G01 Z-0.20000
G04 P0 ( dwell for no time -- G64 should not smooth over this point )
G01 F500.00000
G01 X-11.08200 Y47.18203
G01 X-11.08200 Y47.35200
G01 X-11.58614 Y47.34878
G01 X-11.67918 Y47.31405
G01 X-11.75632 Y47.25632
G01 X-11.81403 Y47.17923
G01 X-11.84875 Y47.08614
G01 X-11.85197 Y46.58200
G01 X-11.68200 Y46.58200
G01 X-11.67882 Y47.04921
G01 X-11.65418 Y47.10867
G01 X-11.60867 Y47.15421
G01 X-11.51700 Y47.18200
G01 X-11.08200 Y47.18203
G04 P0 ( dwell for no time -- G64 should not smooth over this point )
G00 Z2.00000 ( retract )

G00 X-9.48198 Y46.58200 ( rapid move to begin. )
G01 F250.00000
G01 Z-0.20000
G04 P0 ( dwell for no time -- G64 should not smooth over this point )
G01 F500.00000
G01 X-9.48198 Y46.58200
G01 X-9.48520 Y47.08617
G01 X-9.51995 Y47.17921
G01 X-9.57766 Y47.25632
G01 X-9.65480 Y47.31405
G01 X-9.74784 Y47.34878
G01 X-10.25198 Y47.35200
G01 X-10.25198 Y47.18203
G01 X-9.81698 Y47.18200
G01 X-9.75383 Y47.16945
G01 X-9.70032 Y47.13369
G01 X-9.66455 Y47.08015
G01 X-9.65198 Y47.01700
G01 X-9.65198 Y46.58200
G01 X-9.48198 Y46.58200
G04 P0 ( dwell for no time -- G64 should not smooth over this point )
G00 Z2.00000 ( retract )

G00 X-9.48198 Y45.27799 ( rapid move to begin. )
G01 F250.00000
G01 Z-0.20000
G04 P0 ( dwell for no time -- G64 should not smooth over this point )
G01 F500.00000
G01 X-9.48198 Y45.27799
G01 X-9.48198 Y45.75201
G01 X-9.65198 Y45.75201
G01 X-9.65198 Y45.31701
G01 X-9.66455 Y45.25386
G01 X-9.72531 Y45.17982
G01 X-9.78480 Y45.15518
G01 X-10.00199 Y45.15201
G01 X-10.00199 Y44.98200
G01 X-9.74784 Y44.98526
G01 X-9.65477 Y45.01998
G01 X-9.57766 Y45.07769
G01 X-9.51990 Y45.15483
G01 X-9.48198 Y45.27799
G04 P0 ( dwell for no time -- G64 should not smooth over this point )
G00 Z2.00000 ( retract )

G00 X-11.33199 Y44.98200 ( rapid move to begin. )
G01 F250.00000
G01 Z-0.20000
G04 P0 ( dwell for no time -- G64 should not smooth over this point )
G01 F500.00000
G01 X-11.33199 Y44.98200
G01 X-11.33199 Y45.15201
G01 X-11.54918 Y45.15518
G01 X-11.60867 Y45.17982
G01 X-11.66942 Y45.25386
G01 X-11.68200 Y45.31701
G01 X-11.68200 Y45.75201
G01 X-11.85197 Y45.75201
G01 X-11.85197 Y45.27799
G01 X-11.81403 Y45.15483
G01 X-11.75629 Y45.07769
G01 X-11.67918 Y45.01998
G01 X-11.58614 Y44.98526
G01 X-11.33199 Y44.98200
G04 P0 ( dwell for no time -- G64 should not smooth over this point )
G00 Z2.00000 ( retract )

G00 X-13.97572 Y42.15791 ( rapid move to begin. )
G01 F250.00000
G01 Z-0.20000
G04 P0 ( dwell for no time -- G64 should not smooth over this point )
G01 F500.00000
G01 X-13.97572 Y42.15791
G01 X-13.94245 Y42.31366
G01 X-13.94753 Y44.09054
G01 X-13.94237 Y42.28615
G01 X-13.97572 Y42.15791
G01 X-14.02164 Y42.08348
G01 X-14.29076 Y41.84081
G01 X-14.32433 Y41.65915
G01 X-14.28316 Y41.56995
G01 X-14.32593 Y41.65064
G01 X-14.03368 Y41.09646
G01 X-14.28169 Y41.56677
G01 X-14.03368 Y41.09646
G01 X-13.96152 Y40.84307
G01 X-13.94278 Y40.58773
G04 P0 ( dwell for no time -- G64 should not smooth over this point )
G00 Z2.00000 ( retract )

G00 X-13.97420 Y40.34064 ( rapid move to begin. )
G01 F250.00000
G01 Z-0.20000
G04 P0 ( dwell for no time -- G64 should not smooth over this point )
G01 F500.00000
G01 X-13.97420 Y40.34064
G01 X-13.94278 Y40.58773
G01 X-13.97420 Y40.34064
G01 X-14.05626 Y40.11638
G01 X-13.97643 Y40.33370
G04 P0 ( dwell for no time -- G64 should not smooth over this point )
G00 Z2.00000 ( retract )

G00 X-14.03368 Y40.15760 ( rapid move to begin. )
G01 F250.00000
G01 Z-0.20000
G04 P0 ( dwell for no time -- G64 should not smooth over this point )
G01 F500.00000
G01 X-14.03368 Y40.15760
G01 X-14.16310 Y39.93462
G01 X-14.13879 Y39.96594
G01 X-14.15344 Y39.93927
G01 X-14.53767 Y39.45936
G01 X-14.78077 Y39.35702
G01 X-14.53764 Y39.25466
G01 X-14.16096 Y38.77602
G01 X-14.05898 Y38.60508
G01 X-14.16096 Y38.77602
G04 P0 ( dwell for no time -- G64 should not smooth over this point )
G00 Z2.00000 ( retract )

G00 X-16.19449 Y39.64851 ( rapid move to begin. )
G01 F250.00000
G01 Z-0.20000
G04 P0 ( dwell for no time -- G64 should not smooth over this point )
G01 F500.00000
G01 X-16.19449 Y39.64851
G01 X-16.37571 Y39.70881
G01 X-16.08422 Y39.60005
G01 X-15.87686 Y39.35702
G04 P0 ( dwell for no time -- G64 should not smooth over this point )
G00 Z2.00000 ( retract )

G00 X-14.15200 Y40.62702 ( rapid move to begin. )
G01 F250.00000
G01 Z-0.20000
G04 P0 ( dwell for no time -- G64 should not smooth over this point )
G01 F500.00000
G01 X-14.15200 Y40.62702
G01 X-14.17148 Y40.82098
G01 X-14.23355 Y41.02372
G01 X-14.35669 Y41.23703
G01 X-14.48781 Y41.38133
G01 X-14.67488 Y41.51386
G01 X-14.85334 Y41.59232
G01 X-15.04384 Y41.63375
G01 X-15.25583 Y41.63736
G01 X-15.49677 Y41.58615
G01 X-15.68897 Y41.49662
G01 X-15.84615 Y41.38133
G01 X-15.92776 Y41.29202
G01 X-18.70698 Y41.29202
G01 X-18.85242 Y41.27531
G01 X-19.06255 Y41.18829
G01 X-19.17721 Y41.09725
G01 X-22.80245 Y37.47201
G01 X-26.34905 Y37.47201
G01 X-26.43043 Y37.56340
G01 X-26.60988 Y37.69058
G01 X-26.77879 Y37.76480
G01 X-26.97612 Y37.80673
G01 X-28.77785 Y37.80673
G01 X-28.97518 Y37.76480
G01 X-29.14409 Y37.69058
G01 X-29.32270 Y37.56416
G01 X-29.45768 Y37.41423
G01 X-29.55857 Y37.23955
G01 X-29.61643 Y37.06434
G01 X-29.64109 Y36.86429
G01 X-29.62090 Y36.64636
G01 X-29.55857 Y36.45451
G01 X-29.46710 Y36.29426
G01 X-29.32270 Y36.12988
G01 X-29.17396 Y36.02071
G01 X-28.99131 Y35.93541
G01 X-28.76060 Y35.88639
G01 X-26.95906 Y35.89000
G01 X-26.77879 Y35.92924
G01 X-26.60988 Y36.00343
G01 X-26.41913 Y36.14202
G01 X-22.52698 Y36.14202
G01 X-22.38154 Y36.15873
G01 X-22.17141 Y36.24575
G01 X-22.05675 Y36.33678
G01 X-18.43154 Y39.96202
G01 X-15.92776 Y39.96202
G01 X-15.84615 Y39.87274
G01 X-15.68897 Y39.75740
G01 X-15.49677 Y39.66787
G01 X-15.25583 Y39.61666
G01 X-15.04384 Y39.62027
G01 X-14.85334 Y39.66170
G01 X-14.67488 Y39.74016
G01 X-14.48781 Y39.87274
G01 X-14.35669 Y40.01702
G01 X-14.23355 Y40.23030
G01 X-14.17148 Y40.43304
G01 X-14.15200 Y40.62702
G04 P0 ( dwell for no time -- G64 should not smooth over this point )
G00 Z2.00000 ( retract )

G00 X-14.02164 Y42.08348 ( rapid move to begin. )
G01 F250.00000
G01 Z-0.20000
G04 P0 ( dwell for no time -- G64 should not smooth over this point )
G01 F500.00000
G01 X-14.02164 Y42.08348
G01 X-14.37628 Y41.77162
G01 X-14.32586 Y41.65097
G01 X-14.54737 Y41.80027
G01 X-14.65133 Y41.83461
G01 X-14.37628 Y41.77162
G01 X-14.68016 Y41.84716
G01 X-14.29065 Y41.84140
G04 P0 ( dwell for no time -- G64 should not smooth over this point )
G00 Z2.00000 ( retract )

G00 X-14.71694 Y41.85631 ( rapid move to begin. )
G01 F250.00000
G01 Z-0.20000
G04 P0 ( dwell for no time -- G64 should not smooth over this point )
G01 F500.00000
G01 X-14.71694 Y41.85631
G01 X-14.65133 Y41.83461
G01 X-14.81161 Y41.87134
G01 X-14.77109 Y41.86205
G01 X-15.07813 Y41.89471
G01 X-14.90411 Y41.87619
G01 X-15.16695 Y41.89001
G01 X-15.07813 Y41.89471
G01 X-15.42979 Y41.87619
G01 X-15.21138 Y41.89235
G01 X-15.25583 Y41.89471
G01 X-15.66416 Y41.84378
G01 X-15.52233 Y41.87134
G04 P0 ( dwell for no time -- G64 should not smooth over this point )
G00 Z2.00000 ( retract )

G00 X-16.11031 Y41.72570 ( rapid move to begin. )
G01 F250.00000
G01 Z-0.20000
G04 P0 ( dwell for no time -- G64 should not smooth over this point )
G01 F500.00000
G01 X-16.11031 Y41.72570
G01 X-15.58636 Y41.85956
G01 X-15.70762 Y41.83543
G01 X-16.11034 Y41.84770
G01 X-16.20010 Y41.87492
G01 X-16.29416 Y41.93108
G01 X-16.23167 Y41.74140
G01 X-16.11031 Y41.72570
G01 X-15.70762 Y41.83543
G01 X-15.78661 Y41.80027
G01 X-16.06469 Y41.60551
G01 X-16.50861 Y41.60551
G01 X-16.54023 Y41.59438
G01 X-16.23167 Y41.74140
G01 X-16.33347 Y42.05041
G01 X-16.30086 Y41.93510
G01 X-16.37554 Y41.76540
G01 X-16.48697 Y41.61460
G01 X-16.61953 Y41.56652
G01 X-16.57759 Y41.57660
G04 P0 ( dwell for no time -- G64 should not smooth over this point )
G00 Z2.00000 ( retract )

G00 X-16.67477 Y41.54714 ( rapid move to begin. )
G01 F250.00000
G01 Z-0.20000
G04 P0 ( dwell for no time -- G64 should not smooth over this point )
G01 F500.00000
G01 X-16.67477 Y41.54714
G01 X-16.61196 Y41.56969
G01 X-16.92951 Y41.50591
G01 X-16.91272 Y41.50927
G01 X-18.72717 Y41.49997
G01 X-16.95758 Y41.50581
G01 X-17.00342 Y41.50228
G01 X-18.77566 Y41.49982
G01 X-18.72798 Y41.49987
G01 X-18.82631 Y41.48867
G01 X-18.77566 Y41.49982
G04 P0 ( dwell for no time -- G64 should not smooth over this point )
G00 Z2.00000 ( retract )

G00 X-16.37030 Y42.16222 ( rapid move to begin. )
G01 F250.00000
G01 Z-0.20000
G04 P0 ( dwell for no time -- G64 should not smooth over this point )
G01 F500.00000
G01 X-16.37030 Y42.16222
G01 X-16.30556 Y41.93789
G01 X-16.39151 Y42.28445
G01 X-16.38242 Y42.24777
G01 X-16.38648 Y44.06745
G04 P0 ( dwell for no time -- G64 should not smooth over this point )
G00 Z2.00000 ( retract )

G00 X-16.35824 Y44.17614 ( rapid move to begin. )
G01 F250.00000
G01 Z-0.20000
G04 P0 ( dwell for no time -- G64 should not smooth over this point )
G01 F500.00000
G01 X-16.35824 Y44.17614
G01 X-16.38648 Y44.06745
G01 X-16.35824 Y44.17614
G01 X-16.31232 Y44.25056
G01 X-16.09220 Y44.43555
G01 X-16.05542 Y44.60997
G01 X-16.04221 Y44.78101
G01 X-16.04221 Y49.25751
G04 P0 ( dwell for no time -- G64 should not smooth over this point )
G00 Z2.00000 ( retract )

G00 X-13.05083 Y52.03625 ( rapid move to begin. )
G01 F250.00000
G01 Z-0.20000
G04 P0 ( dwell for no time -- G64 should not smooth over this point )
G01 F500.00000
G01 X-13.05083 Y52.03625
G01 X-13.01070 Y52.26932
G01 X-13.05083 Y52.03625
G01 X-13.16355 Y51.85486
G01 X-13.13615 Y51.88920
G01 X-13.14679 Y51.87092
G01 X-13.29800 Y51.73840
G01 X-13.23798 Y51.78362
G01 X-13.26876 Y51.75418
G01 X-13.47176 Y51.64486
G01 X-13.32639 Y51.71671
G01 X-13.47176 Y51.64486
G01 X-13.56256 Y51.63592
G01 X-13.59088 Y51.63574
G01 X-13.47176 Y51.64486
G01 X-14.22281 Y51.63228
G01 X-14.12822 Y51.63386
G01 X-14.43292 Y51.65624
G01 X-14.24803 Y51.63424
G01 X-14.39632 Y51.64582
G01 X-14.71501 Y51.73665
G01 X-14.49350 Y51.66317
G04 P0 ( dwell for no time -- G64 should not smooth over this point )
G00 Z2.00000 ( retract )

G00 X-14.72385 Y51.73551 ( rapid move to begin. )
G01 F250.00000
G01 Z-0.20000
G04 P0 ( dwell for no time -- G64 should not smooth over this point )
G01 F500.00000
G01 X-14.72385 Y51.73551
G01 X-14.69091 Y51.72515
G01 X-14.72698 Y51.73884
G01 X-15.61633 Y51.73551
G01 X-15.49497 Y51.78636
G01 X-15.18204 Y51.97937
G01 X-15.15326 Y51.97937
G01 X-14.97041 Y51.85842
G01 X-14.71501 Y51.73665
G01 X-14.75822 Y51.74897
G01 X-14.72852 Y51.74049
G01 X-14.81138 Y51.82890
G01 X-14.89949 Y51.99804
G01 X-14.93023 Y52.08666
G01 X-14.94549 Y52.24066
G01 X-15.07813 Y52.22316
G01 X-15.38527 Y52.23998
G01 X-15.41178 Y52.06787
G01 X-15.48323 Y51.89538
G01 X-15.59466 Y51.74460
G01 X-15.72715 Y51.69657
G01 X-15.61651 Y51.73543
G04 P0 ( dwell for no time -- G64 should not smooth over this point )
G00 Z2.00000 ( retract )

G00 X-14.97041 Y51.85842 ( rapid move to begin. )
G01 F250.00000
G01 Z-0.20000
G04 P0 ( dwell for no time -- G64 should not smooth over this point )
G01 F500.00000
G01 X-14.97041 Y51.85842
G01 X-14.75822 Y51.74897
G04 P0 ( dwell for no time -- G64 should not smooth over this point )
G00 Z2.00000 ( retract )

G00 X-15.94008 Y51.64549 ( rapid move to begin. )
G01 F250.00000
G01 Z-0.20000
G04 P0 ( dwell for no time -- G64 should not smooth over this point )
G01 F500.00000
G01 X-15.94008 Y51.64549
G01 X-15.72715 Y51.69657
G01 X-16.02852 Y51.64356
G01 X-15.94008 Y51.64549
G01 X-16.54587 Y51.63228
G01 X-16.11115 Y51.63228
G04 P0 ( dwell for no time -- G64 should not smooth over this point )
G00 Z2.00000 ( retract )

G00 X-16.54587 Y51.63228 ( rapid move to begin. )
G01 F250.00000
G01 Z-0.20000
G04 P0 ( dwell for no time -- G64 should not smooth over this point )
G01 F500.00000
G01 X-16.54587 Y51.63228
G01 X-16.79420 Y51.65697
G01 X-16.98727 Y51.81511
G01 X-18.00840 Y52.83276
G01 X-18.11920 Y52.91407
G01 X-18.37246 Y53.01897
G01 X-18.54012 Y53.04137
G01 X-19.55297 Y53.04226
G01 X-19.72402 Y53.05547
G01 X-19.89844 Y53.09225
G01 X-20.08343 Y53.31237
G01 X-20.15785 Y53.35829
G01 X-20.28610 Y53.39164
G01 X-22.04784 Y53.39164
G01 X-22.17608 Y53.35829
G01 X-22.25051 Y53.31237
G01 X-22.27779 Y53.27782
G01 X-22.17608 Y53.35829
G04 P0 ( dwell for no time -- G64 should not smooth over this point )
G00 Z2.00000 ( retract )

G00 X-22.38647 Y53.06754 ( rapid move to begin. )
G01 F250.00000
G01 Z-0.20000
G04 P0 ( dwell for no time -- G64 should not smooth over this point )
G01 F500.00000
G01 X-22.38647 Y53.06754
G01 X-22.35823 Y53.17615
G01 X-22.27779 Y53.27782
G01 X-22.31233 Y53.25054
G01 X-22.35823 Y53.17615
G01 X-22.38642 Y53.09050
G01 X-22.39153 Y51.31344
G01 X-22.39160 Y53.04788
G01 X-22.38647 Y53.06749
G01 X-22.39143 Y51.31301
G01 X-22.31398 Y50.97188
G01 X-22.39153 Y51.31344
G01 X-22.39153 Y51.28446
G04 P0 ( dwell for no time -- G64 should not smooth over this point )
G00 Z2.00000 ( retract )

G00 X-21.70067 Y50.83853 ( rapid move to begin. )
G01 F250.00000
G01 Z-0.20000
G04 P0 ( dwell for no time -- G64 should not smooth over this point )
G01 F500.00000
G01 X-21.70067 Y50.83853
G01 X-21.25582 Y50.89469
G01 X-20.88780 Y50.87534
G01 X-20.72844 Y50.85227
G01 X-20.98932 Y50.89004
G01 X-21.25582 Y50.89469
G01 X-21.52234 Y50.87135
G01 X-21.71835 Y50.82947
G01 X-21.70067 Y50.83853
G01 X-22.01698 Y50.83851
G01 X-22.20011 Y50.87493
G01 X-22.30085 Y50.93510
G01 X-22.23166 Y50.74140
G01 X-22.11032 Y50.72568
G01 X-21.71835 Y50.82947
G01 X-21.87324 Y50.75024
G01 X-22.06470 Y50.60551
G01 X-22.50860 Y50.60551
G01 X-22.54032 Y50.59436
G01 X-22.23166 Y50.74140
G04 P0 ( dwell for no time -- G64 should not smooth over this point )
G00 Z2.00000 ( retract )

G00 X-22.33979 Y51.04410 ( rapid move to begin. )
G01 F250.00000
G01 Z-0.20000
G04 P0 ( dwell for no time -- G64 should not smooth over this point )
G01 F500.00000
G01 X-22.33979 Y51.04410
G01 X-22.30085 Y50.93510
G01 X-22.31398 Y50.97188
G01 X-22.30489 Y50.93518
G01 X-22.37552 Y50.76538
G01 X-22.48698 Y50.61456
G01 X-22.61939 Y50.56658
G01 X-22.57756 Y50.57663
G04 P0 ( dwell for no time -- G64 should not smooth over this point )
G00 Z2.00000 ( retract )

G00 X-22.67469 Y50.54717 ( rapid move to begin. )
G01 F250.00000
G01 Z-0.20000
G04 P0 ( dwell for no time -- G64 should not smooth over this point )
G01 F500.00000
G01 X-22.67469 Y50.54717
G01 X-22.61174 Y50.56975
G01 X-22.83237 Y50.51547
G01 X-22.91294 Y50.50925
G01 X-22.82940 Y50.52601
G01 X-23.00344 Y50.50226
G01 X-22.97687 Y50.50587
G01 X-25.66955 Y50.51105
G01 X-25.62063 Y50.50422
G04 P0 ( dwell for no time -- G64 should not smooth over this point )
G00 Z2.00000 ( retract )

G00 X-25.82164 Y50.53231 ( rapid move to begin. )
G01 F250.00000
G01 Z-0.20000
G04 P0 ( dwell for no time -- G64 should not smooth over this point )
G01 F500.00000
G01 X-25.82164 Y50.53231
G01 X-25.66955 Y50.51105
G01 X-25.90536 Y50.55916
G01 X-25.82164 Y50.53231
G01 X-26.05606 Y50.60551
G01 X-26.36622 Y50.60551
G01 X-26.63516 Y50.74501
G01 X-26.93396 Y50.81702
G01 X-26.39053 Y50.81702
G01 X-26.25990 Y51.12492
G01 X-26.02319 Y51.56574
G01 X-25.93678 Y51.80444
G01 X-25.90277 Y52.12631
G01 X-25.91049 Y52.20114
G01 X-25.90925 Y51.99756
G01 X-25.91298 Y52.25029
G01 X-25.91120 Y52.20803
G01 X-25.98199 Y52.50432
G01 X-25.91776 Y52.27140
G01 X-25.95517 Y52.43660
G04 P0 ( dwell for no time -- G64 should not smooth over this point )
G00 Z2.00000 ( retract )

G00 X-26.11288 Y52.06975 ( rapid move to begin. )
G01 F250.00000
G01 Z-0.20000
G04 P0 ( dwell for no time -- G64 should not smooth over this point )
G01 F500.00000
G01 X-26.11288 Y52.06975
G01 X-26.13307 Y52.28765
G01 X-26.19541 Y52.47953
G01 X-26.28687 Y52.63975
G01 X-26.41905 Y52.79195
G01 X-26.58001 Y52.91333
G01 X-26.76266 Y52.99860
G01 X-26.95906 Y53.04404
G01 X-27.07699 Y53.05202
G01 X-28.67699 Y53.05202
G01 X-28.79492 Y53.04404
G01 X-28.99131 Y52.99860
G01 X-29.15948 Y52.92273
G01 X-29.30927 Y52.81503
G01 X-29.46710 Y52.63975
G01 X-29.55857 Y52.47953
G01 X-29.61643 Y52.30434
G01 X-29.64109 Y52.10427
G01 X-29.62090 Y51.88636
G01 X-29.55857 Y51.69451
G01 X-29.46710 Y51.53426
G01 X-29.33492 Y51.38207
G01 X-29.17396 Y51.26071
G01 X-28.99131 Y51.17541
G01 X-28.79492 Y51.13000
G01 X-28.67699 Y51.12200
G01 X-27.07699 Y51.12200
G01 X-26.95906 Y51.13000
G01 X-26.77879 Y51.16924
G01 X-26.58001 Y51.26071
G01 X-26.41905 Y51.38207
G01 X-26.30717 Y51.50638
G01 X-26.18923 Y51.71062
G01 X-26.13754 Y51.86970
G01 X-26.11288 Y52.06975
G04 P0 ( dwell for no time -- G64 should not smooth over this point )
G00 Z2.00000 ( retract )

G00 X-25.98860 Y51.64544 ( rapid move to begin. )
G01 F250.00000
G01 Z-0.20000
G04 P0 ( dwell for no time -- G64 should not smooth over this point )
G01 F500.00000
G01 X-25.98860 Y51.64544
G01 X-25.99995 Y51.62433
G01 X-25.94491 Y51.79558
G01 X-25.90925 Y51.99756
G01 X-25.91997 Y51.88133
G01 X-25.99995 Y51.62433
G01 X-26.22497 Y51.20732
G01 X-26.00394 Y51.61600
G01 X-26.01931 Y51.57297
G01 X-26.25786 Y51.12972
G01 X-26.22497 Y51.20732
G04 P0 ( dwell for no time -- G64 should not smooth over this point )
G00 Z2.00000 ( retract )

G00 X-26.39053 Y50.81702 ( rapid move to begin. )
G01 F250.00000
G01 Z-0.20000
G04 P0 ( dwell for no time -- G64 should not smooth over this point )
G01 F500.00000
G01 X-26.39053 Y50.81702
G01 X-26.32218 Y50.74115
G01 X-26.02202 Y50.59660
G01 X-26.07811 Y50.62561
G01 X-26.14085 Y50.69535
G01 X-26.22997 Y50.86398
G01 X-26.27465 Y51.04526
G01 X-26.27681 Y51.09347
G01 X-26.25786 Y51.12972
G01 X-26.27681 Y51.09347
G01 X-26.48237 Y50.95705
G01 X-26.63516 Y50.88903
G01 X-26.95390 Y50.81705
G01 X-28.80007 Y50.81705
G01 X-29.02370 Y50.85812
G01 X-29.24785 Y50.94646
G01 X-29.15214 Y50.81702
G01 X-26.93396 Y50.81702
G01 X-28.86009 Y50.81070
G01 X-29.02370 Y50.77592
G01 X-29.24788 Y50.68756
G01 X-29.15214 Y50.81702
G04 P0 ( dwell for no time -- G64 should not smooth over this point )
G00 Z2.00000 ( retract )

G00 X-29.18793 Y53.30353 ( rapid move to begin. )
G01 F250.00000
G01 Z-0.20000
G04 P0 ( dwell for no time -- G64 should not smooth over this point )
G01 F500.00000
G01 X-29.18793 Y53.30353
G01 X-28.72989 Y53.35489
G01 X-29.23106 Y53.34851
G01 X-29.24648 Y53.22916
G01 X-29.18793 Y53.30353
G01 X-28.92629 Y53.33419
G01 X-29.11882 Y53.28501
G01 X-29.25618 Y53.21681
G01 X-29.24663 Y53.22809
G04 P0 ( dwell for no time -- G64 should not smooth over this point )
G00 Z2.00000 ( retract )

G00 X-29.72910 Y52.61249 ( rapid move to begin. )
G01 F250.00000
G01 Z-0.20000
G04 P0 ( dwell for no time -- G64 should not smooth over this point )
G01 F500.00000
G01 X-29.72910 Y52.61249
G01 X-29.63208 Y52.77511
G01 X-29.25618 Y53.21681
G01 X-29.63208 Y52.77511
G01 X-29.74762 Y52.56136
G01 X-29.72910 Y52.61249
G01 X-29.78902 Y52.44719
G01 X-29.75402 Y52.54953
G01 X-29.76535 Y52.52862
G01 X-29.82230 Y52.33282
G01 X-29.81099 Y52.38659
G01 X-29.82019 Y52.34905
G01 X-29.81717 Y52.36962
G04 P0 ( dwell for no time -- G64 should not smooth over this point )
G00 Z2.00000 ( retract )

G00 X-29.85021 Y52.14519 ( rapid move to begin. )
G01 F250.00000
G01 Z-0.20000
G04 P0 ( dwell for no time -- G64 should not smooth over this point )
G01 F500.00000
G01 X-29.85021 Y52.14519
G01 X-29.84498 Y52.00338
G01 X-29.84691 Y52.16756
G01 X-29.84097 Y51.92377
G01 X-29.84968 Y52.13688
G01 X-29.82019 Y52.34905
G01 X-29.84744 Y52.10056
G01 X-29.83515 Y51.89812
G01 X-29.84097 Y51.92377
G04 P0 ( dwell for no time -- G64 should not smooth over this point )
G00 Z2.00000 ( retract )

G00 X-29.83398 Y51.88136 ( rapid move to begin. )
G01 F250.00000
G01 Z-0.20000
G04 P0 ( dwell for no time -- G64 should not smooth over this point )
G01 F500.00000
G01 X-29.83398 Y51.88136
G01 X-29.83873 Y51.95880
G01 X-29.79878 Y51.73744
G01 X-29.80833 Y51.77971
G01 X-29.73464 Y51.57297
G01 X-29.74379 Y51.59868
G01 X-29.63208 Y51.39893
G01 X-29.25837 Y50.95883
G01 X-29.63208 Y51.39893
G01 X-29.73464 Y51.57297
G04 P0 ( dwell for no time -- G64 should not smooth over this point )
G00 Z2.00000 ( retract )

G00 X-29.24785 Y50.94646 ( rapid move to begin. )
G01 F250.00000
G01 Z-0.20000
G04 P0 ( dwell for no time -- G64 should not smooth over this point )
G01 F500.00000
G01 X-29.24785 Y50.94646
G01 X-29.25837 Y50.95883
G01 X-29.23149 Y50.81702
G01 X-29.25837 Y50.67519
G01 X-29.24788 Y50.68756
G04 P0 ( dwell for no time -- G64 should not smooth over this point )
G00 Z2.00000 ( retract )

G00 X-29.85118 Y49.50770 ( rapid move to begin. )
G01 F250.00000
G01 Z-0.20000
G04 P0 ( dwell for no time -- G64 should not smooth over this point )
G01 F500.00000
G01 X-29.85118 Y49.50770
G01 X-29.83675 Y49.36833
G01 X-29.85118 Y49.50770
G01 X-29.84097 Y49.71027
G01 X-29.79878 Y49.89660
G01 X-29.72910 Y50.07249
G01 X-29.63208 Y50.23511
G01 X-29.25837 Y50.67519
G01 X-29.63208 Y50.23511
G01 X-29.73149 Y50.06642
G01 X-29.79878 Y49.89660
G01 X-29.83515 Y49.73589
G01 X-29.85118 Y49.50770
G01 X-29.81717 Y49.26444
G01 X-29.79878 Y49.19744
G01 X-29.82628 Y49.32980
G01 X-29.77193 Y49.12970
G01 X-29.79878 Y49.19744
G01 X-29.73152 Y49.02769
G01 X-29.80858 Y49.24080
G01 X-29.84097 Y49.38377
G04 P0 ( dwell for no time -- G64 should not smooth over this point )
G00 Z2.00000 ( retract )

G00 X-29.72910 Y49.02157 ( rapid move to begin. )
G01 F250.00000
G01 Z-0.20000
G04 P0 ( dwell for no time -- G64 should not smooth over this point )
G01 F500.00000
G01 X-29.72910 Y49.02157
G01 X-29.74762 Y49.07265
G01 X-29.63208 Y48.85893
G01 X-29.73098 Y49.02678
G01 X-29.63208 Y48.85893
G01 X-29.25837 Y48.41883
G01 X-29.63208 Y48.85893
G04 P0 ( dwell for no time -- G64 should not smooth over this point )
G00 Z2.00000 ( retract )

G00 X-29.24785 Y48.40646 ( rapid move to begin. )
G01 F250.00000
G01 Z-0.20000
G04 P0 ( dwell for no time -- G64 should not smooth over this point )
G01 F500.00000
G01 X-29.24785 Y48.40646
G01 X-29.25837 Y48.41883
G01 X-29.23149 Y48.27702
G01 X-29.25852 Y48.13496
G01 X-29.24788 Y48.14753
G04 P0 ( dwell for no time -- G64 should not smooth over this point )
G00 Z2.00000 ( retract )

G00 X-29.15214 Y48.27702 ( rapid move to begin. )
G01 F250.00000
G01 Z-0.20000
G04 P0 ( dwell for no time -- G64 should not smooth over this point )
G01 F500.00000
G01 X-29.15214 Y48.27702
G01 X-29.24785 Y48.40646
G01 X-29.11882 Y48.34903
G01 X-28.80007 Y48.27702
G04 P0 ( dwell for no time -- G64 should not smooth over this point )
G00 Z2.00000 ( retract )

G00 X-28.82001 Y48.27702 ( rapid move to begin. )
G01 F250.00000
G01 Z-0.20000
G04 P0 ( dwell for no time -- G64 should not smooth over this point )
G01 F500.00000
G01 X-28.82001 Y48.27702
G01 X-29.15214 Y48.27702
G01 X-29.24788 Y48.14753
G01 X-29.11882 Y48.20501
G01 X-28.82001 Y48.27702
G01 X-26.95390 Y48.27702
G04 P0 ( dwell for no time -- G64 should not smooth over this point )
G00 Z2.00000 ( retract )

G00 X-26.93396 Y48.27702 ( rapid move to begin. )
G01 F250.00000
G01 Z-0.20000
G04 P0 ( dwell for no time -- G64 should not smooth over this point )
G01 F500.00000
G01 X-26.93396 Y48.27702
G01 X-26.63516 Y48.20501
G01 X-26.39091 Y48.08461
G01 X-26.35611 Y48.03188
G01 X-26.39515 Y48.12752
G01 X-26.36701 Y48.31616
G01 X-26.29556 Y48.48863
G01 X-26.17206 Y48.64984
G01 X-26.49850 Y48.27702
