( pcb2gcode 2.0.0 )
( Software-independent Gcode )

( This file uses only one drill bit. Forced by 'onedrill' option )

G94       (Millimeters per minute feed rate.)
G21       (Units == Millimeters.)
G90       (Absolute coordinates.)
G00 S1000     (RPM spindle speed.)

G00 Z5.00000 (Retract)
T1
M5      (Spindle stop.)
G04 P1.00000
(MSG, Change tool bit to drill size 0.8 mm)
M6      (Tool change.)
M0      (Temporary machine stop.)
M3      (Spindle on clockwise.)
G0 Z2.00000
G04 P1.00000

G81 R2.00000 Z-1.48000 F250.00000 X-80.16700 Y16.20700
X-80.16700 Y13.66700
X-77.62700 Y13.66700
X-77.62700 Y16.20700
X-75.08700 Y16.20700
X-75.08700 Y13.66700
X-72.54700 Y13.66700
X-72.54700 Y16.20700
X-70.00700 Y16.20700
X-70.00700 Y13.66700
X-67.04700 Y13.66700
X-63.04700 Y18.66700
X-59.08700 Y11.43700
X-55.03700 Y11.42700
X-45.65700 Y11.44700
X-45.65700 Y13.98700
X-45.65700 Y16.52700
X-45.65700 Y19.06700
X-45.65700 Y21.60700
X-45.65700 Y24.14700
X-42.43100 Y29.87700
X-39.89100 Y29.87700
X-37.35100 Y29.87700
X-27.87700 Y34.30700
X-27.87700 Y31.76700
X-27.87700 Y29.22700
X-27.87700 Y26.68700
X-27.87700 Y24.14700
X-27.87700 Y21.60700
X-27.87700 Y19.06700
X-27.87700 Y16.52700
X-27.87700 Y13.98700
X-27.87700 Y11.44700
X-21.53200 Y14.03700
X-15.03200 Y14.03700
X-11.28200 Y16.55700
X-11.28200 Y21.63700
X-15.03200 Y18.53700
X-21.53200 Y18.53700
X-11.28200 Y27.52700
X-11.28200 Y30.06700
X-15.16700 Y35.54700
X-15.16700 Y38.08700
X-15.16700 Y40.62700
X-15.16700 Y43.16700
X-10.66700 Y46.16700
X-10.66700 Y50.75700
X-15.16700 Y53.54700
X-15.16700 Y56.08700
X-15.16700 Y58.62700
X-15.16700 Y61.16700
X-21.16700 Y52.16700
X-21.16700 Y49.62700
X-21.16700 Y47.08700
X-21.16700 Y44.54700
X-27.87700 Y36.84700
X-27.87700 Y39.38700
X-27.87700 Y41.92700
X-27.87700 Y44.46700
X-27.87700 Y47.00700
X-27.87700 Y49.54700
X-27.87700 Y52.08700
X-27.87700 Y54.62700
X-27.87700 Y57.16700
X-27.87700 Y59.70700
X-45.65700 Y59.70700
X-45.65700 Y57.16700
X-45.65700 Y54.62700
X-45.65700 Y52.08700
X-45.65700 Y49.54700
X-45.65700 Y47.00700
X-45.65700 Y44.46700
X-45.65700 Y41.92700
X-45.65700 Y39.38700
X-45.65700 Y36.84700
X-45.65700 Y34.30700
X-45.65700 Y31.76700
X-45.65700 Y29.22700
X-45.65700 Y26.68700
X-55.03200 Y24.32700
X-58.99700 Y21.56700
X-63.04700 Y26.34700
X-67.00700 Y30.45700

G00 Z5.000 ( All done -- retract )

M5      (Spindle off.)
G04 P1.000000
M9      (Coolant off.)
M2      (Program end.)

