( pcb2gcode 2.0.0 )
( Software-independent Gcode )
( This file uses a mill head of 1.00000mm to drill the 2 hole sizes. )
( Hole sizes: [1.85 mm] [2.2 mm] )

G94       (Millimeters per minute feed rate.)
G21       (Units == Millimeters.)
G90       (Absolute coordinates.)
S1000    (RPM spindle speed.)
G01 F250.00000 (Feedrate)
M3        (Spindle on clockwise.)
G04 P1.00000
G00 Z2.00000

G0 X-31.74950 Y49.52950
G1 Z0.49333 F128.00000
F250.00000
G2 X-31.74950 Y49.52950 Z-0.00000 I-0.42500 J0.00000
G2 X-31.74950 Y49.52950 Z-0.49333 I-0.42500 J0.00000
G2 X-31.74950 Y49.52950 Z-0.98667 I-0.42500 J0.00000
G2 X-31.74950 Y49.52950 Z-1.48000 I-0.42500 J0.00000
G2 X-31.74950 Y49.52950 I-0.42500 J0.00000
G0 Z2.00000

G0 X-26.89950 Y49.52950
G1 Z0.49333 F128.00000
F250.00000
G2 X-26.89950 Y49.52950 Z-0.00000 I-0.42500 J0.00000
G2 X-26.89950 Y49.52950 Z-0.49333 I-0.42500 J0.00000
G2 X-26.89950 Y49.52950 Z-0.98667 I-0.42500 J0.00000
G2 X-26.89950 Y49.52950 Z-1.48000 I-0.42500 J0.00000
G2 X-26.89950 Y49.52950 I-0.42500 J0.00000
G0 Z2.00000

G0 X-31.87450 Y52.55950
G1 Z0.49333 F128.00000
F250.00000
G2 X-31.87450 Y52.55950 Z-0.00000 I-0.60000 J0.00000
G2 X-31.87450 Y52.55950 Z-0.49333 I-0.60000 J0.00000
G2 X-31.87450 Y52.55950 Z-0.98667 I-0.60000 J0.00000
G2 X-31.87450 Y52.55950 Z-1.48000 I-0.60000 J0.00000
G2 X-31.87450 Y52.55950 I-0.60000 J0.00000
G0 Z2.00000

G0 X-26.42450 Y52.55950
G1 Z0.49333 F128.00000
F250.00000
G2 X-26.42450 Y52.55950 Z-0.00000 I-0.60000 J0.00000
G2 X-26.42450 Y52.55950 Z-0.49333 I-0.60000 J0.00000
G2 X-26.42450 Y52.55950 Z-0.98667 I-0.60000 J0.00000
G2 X-26.42450 Y52.55950 Z-1.48000 I-0.60000 J0.00000
G2 X-26.42450 Y52.55950 I-0.60000 J0.00000
G0 Z2.00000

G00 Z5.000 ( All done -- retract )

M5      (Spindle off.)
G04 P1.000000
M9      (Coolant off.)
M2      (Program end.)

