( pcb2gcode 2.0.0 )
( Software-independent Gcode )

G94 ( Millimeters per minute feed rate. )
G21 ( Units == Millimeters. )

G90 ( Absolute coordinates. )
G00 S1000 ( RPM spindle speed. )
G01 F250.00000 ( Feedrate. )


G00 Z5.00000 (Retract to tool change height)
T0
M5      (Spindle stop.)
G04 P1.00000 (Wait for spindle to stop)
(MSG, Change tool bit to cutter diameter 1.00000mm)
M6      (Tool change.)
M0      (Temporary machine stop.)
M3 ( Spindle on clockwise. )
G04 P1.00000 (Wait for spindle to get up to speed)
G04 P0 ( dwell for no time -- G64 should not smooth over this point )
G00 Z2.00000 ( retract )

G00 X-7.66699 Y8.16702 ( rapid move to begin. )
G01 Z-0.49333 F125.00000 ( plunge. )
G04 P0 ( dwell for no time -- G64 should not smooth over this point )
G01 F250.00000
G01 X-7.66699 Y63.16701
G01 X-7.67657 Y63.26457
G01 X-7.75125 Y63.44481
G01 X-7.81343 Y63.52058
G01 X-7.97563 Y63.62896
G01 X-8.16699 Y63.66701
G01 X-53.16698 Y63.66701
G01 X-53.35842 Y63.62891
G01 X-53.52070 Y63.52042
G01 X-53.58288 Y63.44458
G01 X-53.62906 Y63.35807
G01 X-53.66698 Y63.16658
G01 X-53.64211 Y33.97702
G01 X-84.16699 Y33.97702
G01 X-84.35833 Y33.93895
G01 X-84.44477 Y33.89275
G01 X-84.52054 Y33.83057
G01 X-84.62892 Y33.66836
G01 X-84.66699 Y33.47702
G01 X-84.66699 Y8.16702
G01 X-84.65739 Y8.06948
G01 X-84.58272 Y7.88922
G01 X-84.52054 Y7.81345
G01 X-84.35833 Y7.70507
G01 X-84.16699 Y7.66702
G01 X-8.16699 Y7.66702
G01 X-7.97563 Y7.70507
G01 X-7.81343 Y7.81345
G01 X-7.70504 Y7.97568
G01 X-7.66699 Y8.16702
G01 Z-0.98667 F125.00000 ( plunge. )
G04 P0 ( dwell for no time -- G64 should not smooth over this point )
G01 F250.00000
G01 X-7.66699 Y63.16701
G01 X-7.67657 Y63.26457
G01 X-7.75125 Y63.44481
G01 X-7.81343 Y63.52058
G01 X-7.97563 Y63.62896
G01 X-8.16699 Y63.66701
G01 X-53.16698 Y63.66701
G01 X-53.35842 Y63.62891
G01 X-53.52070 Y63.52042
G01 X-53.58288 Y63.44458
G01 X-53.62906 Y63.35807
G01 X-53.66698 Y63.16658
G01 X-53.64211 Y33.97702
G01 X-84.16699 Y33.97702
G01 X-84.35833 Y33.93895
G01 X-84.44477 Y33.89275
G01 X-84.52054 Y33.83057
G01 X-84.62892 Y33.66836
G01 X-84.66699 Y33.47702
G01 X-84.66699 Y8.16702
G01 X-84.65739 Y8.06948
G01 X-84.58272 Y7.88922
G01 X-84.52054 Y7.81345
G01 X-84.35833 Y7.70507
G01 X-84.16699 Y7.66702
G01 X-8.16699 Y7.66702
G01 X-7.97563 Y7.70507
G01 X-7.81343 Y7.81345
G01 X-7.70504 Y7.97568
G01 X-7.66699 Y8.16702
G01 Z-1.48000 F125.00000 ( plunge. )
G04 P0 ( dwell for no time -- G64 should not smooth over this point )
G01 F250.00000
G01 X-7.66699 Y63.16701
G01 X-7.67657 Y63.26457
G01 X-7.75125 Y63.44481
G01 X-7.81343 Y63.52058
G01 X-7.97563 Y63.62896
G01 X-8.16699 Y63.66701
G01 X-53.16698 Y63.66701
G01 X-53.35842 Y63.62891
G01 X-53.52070 Y63.52042
G01 X-53.58288 Y63.44458
G01 X-53.62906 Y63.35807
G01 X-53.66698 Y63.16658
G01 X-53.64211 Y33.97702
G01 X-84.16699 Y33.97702
G01 X-84.35833 Y33.93895
G01 X-84.44477 Y33.89275
G01 X-84.52054 Y33.83057
G01 X-84.62892 Y33.66836
G01 X-84.66699 Y33.47702
G01 X-84.66699 Y8.16702
G01 X-84.65739 Y8.06948
G01 X-84.58272 Y7.88922
G01 X-84.52054 Y7.81345
G01 X-84.35833 Y7.70507
G01 X-84.16699 Y7.66702
G01 X-8.16699 Y7.66702
G01 X-7.97563 Y7.70507
G01 X-7.81343 Y7.81345
G01 X-7.70504 Y7.97568
G01 X-7.66699 Y8.16702

G04 P0 ( dwell for no time -- G64 should not smooth over this point )
G00 Z5.000 ( retract )

M5 ( Spindle off. )
G04 P1.000000
M9 ( Coolant off. )
M2 ( Program end. )

