( pcb2gcode 2.0.0 )
( Software-independent Gcode )

G94 ( Millimeters per minute feed rate. )
G21 ( Units == Millimeters. )

G90 ( Absolute coordinates. )
G00 S1000 ( RPM spindle speed. )
G01 F250.00000 ( Feedrate. )


G00 Z5.00000 (Retract to tool change height)
T0
M5      (Spindle stop.)
G04 P1.00000 (Wait for spindle to stop)
(MSG, Change tool bit to cutter diameter 1.00000mm)
M6      (Tool change.)
M0      (Temporary machine stop.)
M3 ( Spindle on clockwise. )
G04 P1.00000 (Wait for spindle to get up to speed)
G04 P0 ( dwell for no time -- G64 should not smooth over this point )
G00 Z2.00000 ( retract )

G00 X-0.64949 Y1.14952 ( rapid move to begin. )
G01 Z-0.49333 F128.00000 ( plunge. )
G04 P0 ( dwell for no time -- G64 should not smooth over this point )
G01 F250.00000
G01 X-0.64949 Y56.14951
G01 X-0.65907 Y56.24707
G01 X-0.73375 Y56.42731
G01 X-0.79593 Y56.50308
G01 X-0.95813 Y56.61146
G01 X-1.14949 Y56.64951
G01 X-46.14948 Y56.64951
G01 X-46.34092 Y56.61141
G01 X-46.50320 Y56.50292
G01 X-46.56538 Y56.42708
G01 X-46.61156 Y56.34057
G01 X-46.64948 Y56.14908
G01 X-46.62461 Y26.95952
G01 X-77.14949 Y26.95952
G01 X-77.34083 Y26.92145
G01 X-77.42727 Y26.87525
G01 X-77.50304 Y26.81307
G01 X-77.61142 Y26.65086
G01 X-77.64949 Y26.45952
G01 X-77.64949 Y1.14952
G01 X-77.63989 Y1.05198
G01 X-77.56522 Y0.87172
G01 X-77.50304 Y0.79595
G01 X-77.34083 Y0.68757
G01 X-77.14949 Y0.64952
G01 X-1.14949 Y0.64952
G01 X-0.95813 Y0.68757
G01 X-0.79593 Y0.79595
G01 X-0.68754 Y0.95818
G01 X-0.64949 Y1.14952
G01 Z-0.98667 F128.00000 ( plunge. )
G04 P0 ( dwell for no time -- G64 should not smooth over this point )
G01 F250.00000
G01 X-0.64949 Y56.14951
G01 X-0.65907 Y56.24707
G01 X-0.73375 Y56.42731
G01 X-0.79593 Y56.50308
G01 X-0.95813 Y56.61146
G01 X-1.14949 Y56.64951
G01 X-46.14948 Y56.64951
G01 X-46.34092 Y56.61141
G01 X-46.50320 Y56.50292
G01 X-46.56538 Y56.42708
G01 X-46.61156 Y56.34057
G01 X-46.64948 Y56.14908
G01 X-46.62461 Y26.95952
G01 X-77.14949 Y26.95952
G01 X-77.34083 Y26.92145
G01 X-77.42727 Y26.87525
G01 X-77.50304 Y26.81307
G01 X-77.61142 Y26.65086
G01 X-77.64949 Y26.45952
G01 X-77.64949 Y1.14952
G01 X-77.63989 Y1.05198
G01 X-77.56522 Y0.87172
G01 X-77.50304 Y0.79595
G01 X-77.34083 Y0.68757
G01 X-77.14949 Y0.64952
G01 X-1.14949 Y0.64952
G01 X-0.95813 Y0.68757
G01 X-0.79593 Y0.79595
G01 X-0.68754 Y0.95818
G01 X-0.64949 Y1.14952
G01 Z-1.48000 F128.00000 ( plunge. )
G04 P0 ( dwell for no time -- G64 should not smooth over this point )
G01 F250.00000
G01 X-0.64949 Y56.14951
G01 X-0.65907 Y56.24707
G01 X-0.73375 Y56.42731
G01 X-0.79593 Y56.50308
G01 X-0.95813 Y56.61146
G01 X-1.14949 Y56.64951
G01 X-46.14948 Y56.64951
G01 X-46.34092 Y56.61141
G01 X-46.50320 Y56.50292
G01 X-46.56538 Y56.42708
G01 X-46.61156 Y56.34057
G01 X-46.64948 Y56.14908
G01 X-46.62461 Y26.95952
G01 X-77.14949 Y26.95952
G01 X-77.34083 Y26.92145
G01 X-77.42727 Y26.87525
G01 X-77.50304 Y26.81307
G01 X-77.61142 Y26.65086
G01 X-77.64949 Y26.45952
G01 X-77.64949 Y1.14952
G01 X-77.63989 Y1.05198
G01 X-77.56522 Y0.87172
G01 X-77.50304 Y0.79595
G01 X-77.34083 Y0.68757
G01 X-77.14949 Y0.64952
G01 X-1.14949 Y0.64952
G01 X-0.95813 Y0.68757
G01 X-0.79593 Y0.79595
G01 X-0.68754 Y0.95818
G01 X-0.64949 Y1.14952

G04 P0 ( dwell for no time -- G64 should not smooth over this point )
G00 Z5.000 ( retract )

M5 ( Spindle off. )
G04 P1.000000
M9 ( Coolant off. )
M2 ( Program end. )

